(G-CODE GENERATED BY FLATCAM v8.994 - www.flatcam.org - Version Date: 2020/11/7)

(Name: pcb-Edge_Cuts.gbr_cutout_cnc)
(Type: G-code from Geometry)
(Units: MM)

(Created on Tuesday, 15 August 2023 at 11:05)

(This preprocessor is the default preprocessor used by FlatCAM.)
(It is made to work with MACH3 compatible motion controllers.)

(TOOL DIAMETER: 0.8 mm)
(Feedrate_XY: 120.0 mm/min)
(Feedrate_Z: 60.0 mm/min)
(Feedrate rapids 1500.0 mm/min)

(Z_Cut: -1.8 mm)
(DepthPerCut: 0.6 mm <=>3 passes)
(Z_Move: 2.0 mm)
(Z Start: None mm)
(Z End: 15.0 mm)
(X,Y End: None mm)
(Steps per circle: 64)
(Preprocessor Geometry: default)

(X range:    3.1992 ...   17.9975  mm)
(Y range:    1.3702 ...   69.1681  mm)

(Spindle Speed: 0.0 RPM)
G21
G90
G94

G01 F120.00

M5
G00 Z15.0000
G00 X0.0000 Y0.0000
T3M6    
(MSG, Change to Tool Dia = 0.8000)
M0
G00 Z15.0000

M03
G01 F120.00
G00 X9.2983 Y1.3702
G01 F60.00
G01 Z-0.6000
G01 F120.00
G01 X5.7482 Y1.3702
G01 X5.7272 Y1.3706
G01 X5.7013 Y1.3722
G01 X5.6734 Y1.3753
G01 X5.6478 Y1.3794
G01 X5.6204 Y1.3852
G01 X5.5953 Y1.3918
G01 X5.5685 Y1.4004
G01 X5.5442 Y1.4094
G01 X5.5216 Y1.4190
G01 X5.5026 Y1.4280
G01 X4.3010 Y2.0276
G01 X4.2750 Y2.0415
G01 X4.2540 Y2.0540
G01 X4.2295 Y2.0704
G01 X4.2097 Y2.0850
G01 X4.1870 Y2.1037
G01 X4.1687 Y2.1201
G01 X4.1513 Y2.1374
G01 X4.1314 Y2.1591
G01 X4.1127 Y2.1819
G01 X4.0981 Y2.2015
G01 X4.0843 Y2.2219
G01 X4.0691 Y2.2470
G01 X3.2680 Y3.6527
G01 X3.2560 Y3.6757
G01 X3.2442 Y3.7012
G01 X3.2333 Y3.7285
G01 X3.2249 Y3.7530
G01 X3.2171 Y3.7800
G01 X3.2114 Y3.8039
G01 X3.2066 Y3.8293
G01 X3.2027 Y3.8572
G01 X3.2004 Y3.8830
G01 X3.1992 Y3.9192
G01 X3.1992 Y33.9691
G00 X3.1992 Y33.9691
G01 F60.00
G01 Z-1.2000
G01 F120.00
G01 X3.1992 Y3.9192
G01 X3.2004 Y3.8830
G01 X3.2027 Y3.8572
G01 X3.2066 Y3.8293
G01 X3.2114 Y3.8039
G01 X3.2171 Y3.7800
G01 X3.2249 Y3.7530
G01 X3.2333 Y3.7285
G01 X3.2442 Y3.7012
G01 X3.2560 Y3.6757
G01 X3.2680 Y3.6527
G01 X4.0691 Y2.2470
G01 X4.0843 Y2.2219
G01 X4.0981 Y2.2015
G01 X4.1127 Y2.1819
G01 X4.1314 Y2.1591
G01 X4.1513 Y2.1374
G01 X4.1687 Y2.1201
G01 X4.1870 Y2.1037
G01 X4.2097 Y2.0850
G01 X4.2295 Y2.0704
G01 X4.2540 Y2.0540
G01 X4.2750 Y2.0415
G01 X4.3010 Y2.0276
G01 X5.5026 Y1.4280
G01 X5.5216 Y1.4190
G01 X5.5442 Y1.4094
G01 X5.5685 Y1.4004
G01 X5.5953 Y1.3918
G01 X5.6204 Y1.3852
G01 X5.6478 Y1.3794
G01 X5.6734 Y1.3753
G01 X5.7013 Y1.3722
G01 X5.7272 Y1.3706
G01 X5.7482 Y1.3702
G01 X9.2983 Y1.3702
G00 X9.2983 Y1.3702
G01 F60.00
G01 Z-1.8000
G01 F120.00
G01 X5.7482 Y1.3702
G01 X5.7272 Y1.3706
G01 X5.7013 Y1.3722
G01 X5.6734 Y1.3753
G01 X5.6478 Y1.3794
G01 X5.6204 Y1.3852
G01 X5.5953 Y1.3918
G01 X5.5685 Y1.4004
G01 X5.5442 Y1.4094
G01 X5.5216 Y1.4190
G01 X5.5026 Y1.4280
G01 X4.3010 Y2.0276
G01 X4.2750 Y2.0415
G01 X4.2540 Y2.0540
G01 X4.2295 Y2.0704
G01 X4.2097 Y2.0850
G01 X4.1870 Y2.1037
G01 X4.1687 Y2.1201
G01 X4.1513 Y2.1374
G01 X4.1314 Y2.1591
G01 X4.1127 Y2.1819
G01 X4.0981 Y2.2015
G01 X4.0843 Y2.2219
G01 X4.0691 Y2.2470
G01 X3.2680 Y3.6527
G01 X3.2560 Y3.6757
G01 X3.2442 Y3.7012
G01 X3.2333 Y3.7285
G01 X3.2249 Y3.7530
G01 X3.2171 Y3.7800
G01 X3.2114 Y3.8039
G01 X3.2066 Y3.8293
G01 X3.2027 Y3.8572
G01 X3.2004 Y3.8830
G01 X3.1992 Y3.9192
G01 X3.1992 Y33.9691
G00 Z2.0000
G00 X3.1992 Y36.7691
G01 F60.00
G01 Z-0.6000
G01 F120.00
G01 X3.1992 Y66.6191
G01 X3.1998 Y66.6447
G01 X3.2015 Y66.6698
G01 X3.2044 Y66.6942
G01 X3.2090 Y66.7226
G01 X3.2144 Y66.7472
G01 X3.2218 Y66.7751
G01 X3.2295 Y66.7990
G01 X3.2384 Y66.8230
G01 X3.8379 Y68.3242
G01 X3.8453 Y68.3418
G01 X3.8556 Y68.3640
G01 X3.8679 Y68.3873
G01 X3.8819 Y68.4112
G01 X3.8964 Y68.4331
G01 X3.9127 Y68.4555
G01 X3.9292 Y68.4760
G01 X3.9477 Y68.4967
G01 X3.9684 Y68.5176
G01 X3.9865 Y68.5341
G01 X4.0067 Y68.5509
G01 X4.0288 Y68.5676
G01 X4.0505 Y68.5824
G01 X4.0742 Y68.5968
G01 X4.0973 Y68.6094
G01 X4.1222 Y68.6215
G01 X4.1464 Y68.6317
G01 X4.1643 Y68.6384
G01 X5.5639 Y69.1363
G01 X5.5773 Y69.1408
G01 X5.6008 Y69.1479
G01 X5.6270 Y69.1545
G01 X5.6559 Y69.1603
G01 X5.6826 Y69.1641
G01 X5.7095 Y69.1667
G01 X5.7340 Y69.1679
G01 X5.7482 Y69.1681
G01 X9.2983 Y69.1681
G00 X9.2983 Y69.1681
G01 F60.00
G01 Z-1.2000
G01 F120.00
G01 X5.7482 Y69.1681
G01 X5.7340 Y69.1679
G01 X5.7095 Y69.1667
G01 X5.6826 Y69.1641
G01 X5.6559 Y69.1603
G01 X5.6270 Y69.1545
G01 X5.6008 Y69.1479
G01 X5.5773 Y69.1408
G01 X5.5639 Y69.1363
G01 X4.1643 Y68.6384
G01 X4.1464 Y68.6317
G01 X4.1222 Y68.6215
G01 X4.0973 Y68.6094
G01 X4.0742 Y68.5968
G01 X4.0505 Y68.5824
G01 X4.0288 Y68.5676
G01 X4.0067 Y68.5509
G01 X3.9865 Y68.5341
G01 X3.9684 Y68.5176
G01 X3.9477 Y68.4967
G01 X3.9292 Y68.4760
G01 X3.9127 Y68.4555
G01 X3.8964 Y68.4331
G01 X3.8819 Y68.4112
G01 X3.8679 Y68.3873
G01 X3.8556 Y68.3640
G01 X3.8453 Y68.3418
G01 X3.8379 Y68.3242
G01 X3.2384 Y66.8230
G01 X3.2295 Y66.7990
G01 X3.2218 Y66.7751
G01 X3.2144 Y66.7472
G01 X3.2090 Y66.7226
G01 X3.2044 Y66.6942
G01 X3.2015 Y66.6698
G01 X3.1998 Y66.6447
G01 X3.1992 Y66.6191
G01 X3.1992 Y36.7691
G00 X3.1992 Y36.7691
G01 F60.00
G01 Z-1.8000
G01 F120.00
G01 X3.1992 Y66.6191
G01 X3.1998 Y66.6447
G01 X3.2015 Y66.6698
G01 X3.2044 Y66.6942
G01 X3.2090 Y66.7226
G01 X3.2144 Y66.7472
G01 X3.2218 Y66.7751
G01 X3.2295 Y66.7990
G01 X3.2384 Y66.8230
G01 X3.8379 Y68.3242
G01 X3.8453 Y68.3418
G01 X3.8556 Y68.3640
G01 X3.8679 Y68.3873
G01 X3.8819 Y68.4112
G01 X3.8964 Y68.4331
G01 X3.9127 Y68.4555
G01 X3.9292 Y68.4760
G01 X3.9477 Y68.4967
G01 X3.9684 Y68.5176
G01 X3.9865 Y68.5341
G01 X4.0067 Y68.5509
G01 X4.0288 Y68.5676
G01 X4.0505 Y68.5824
G01 X4.0742 Y68.5968
G01 X4.0973 Y68.6094
G01 X4.1222 Y68.6215
G01 X4.1464 Y68.6317
G01 X4.1643 Y68.6384
G01 X5.5639 Y69.1363
G01 X5.5773 Y69.1408
G01 X5.6008 Y69.1479
G01 X5.6270 Y69.1545
G01 X5.6559 Y69.1603
G01 X5.6826 Y69.1641
G01 X5.7095 Y69.1667
G01 X5.7340 Y69.1679
G01 X5.7482 Y69.1681
G01 X9.2983 Y69.1681
G00 Z2.0000
G00 X12.0983 Y69.1681
G01 F60.00
G01 Z-0.6000
G01 F120.00
G01 X15.4485 Y69.1681
G01 X15.4736 Y69.1674
G01 X15.5029 Y69.1654
G01 X15.5273 Y69.1623
G01 X15.5563 Y69.1574
G01 X15.5803 Y69.1520
G01 X15.6086 Y69.1442
G01 X15.6320 Y69.1365
G01 X15.6594 Y69.1260
G01 X15.6819 Y69.1160
G01 X15.7082 Y69.1029
G01 X17.0092 Y68.4041
G01 X17.0337 Y68.3901
G01 X17.0544 Y68.3769
G01 X17.0784 Y68.3599
G01 X17.0978 Y68.3448
G01 X17.1165 Y68.3286
G01 X17.1379 Y68.3084
G01 X17.1580 Y68.2871
G01 X17.1741 Y68.2686
G01 X17.1893 Y68.2490
G01 X17.2063 Y68.2250
G01 X17.2195 Y68.2043
G01 X17.2335 Y68.1798
G01 X17.9320 Y66.8793
G01 X17.9454 Y66.8525
G01 X17.9554 Y66.8300
G01 X17.9643 Y66.8071
G01 X17.9736 Y66.7792
G01 X17.9814 Y66.7509
G01 X17.9868 Y66.7269
G01 X17.9917 Y66.6979
G01 X17.9948 Y66.6735
G01 X17.9968 Y66.6442
G01 X17.9975 Y66.6191
G01 X17.9975 Y36.7691
G00 X17.9975 Y36.7691
G01 F60.00
G01 Z-1.2000
G01 F120.00
G01 X17.9975 Y66.6191
G01 X17.9968 Y66.6442
G01 X17.9948 Y66.6735
G01 X17.9917 Y66.6979
G01 X17.9868 Y66.7269
G01 X17.9814 Y66.7509
G01 X17.9736 Y66.7792
G01 X17.9643 Y66.8071
G01 X17.9554 Y66.8300
G01 X17.9454 Y66.8525
G01 X17.9320 Y66.8793
G01 X17.2335 Y68.1798
G01 X17.2195 Y68.2043
G01 X17.2063 Y68.2250
G01 X17.1893 Y68.2490
G01 X17.1741 Y68.2686
G01 X17.1580 Y68.2871
G01 X17.1379 Y68.3084
G01 X17.1165 Y68.3286
G01 X17.0978 Y68.3448
G01 X17.0784 Y68.3599
G01 X17.0544 Y68.3769
G01 X17.0337 Y68.3901
G01 X17.0092 Y68.4041
G01 X15.7082 Y69.1029
G01 X15.6819 Y69.1160
G01 X15.6594 Y69.1260
G01 X15.6320 Y69.1365
G01 X15.6086 Y69.1442
G01 X15.5803 Y69.1520
G01 X15.5563 Y69.1574
G01 X15.5273 Y69.1623
G01 X15.5029 Y69.1654
G01 X15.4736 Y69.1674
G01 X15.4485 Y69.1681
G01 X12.0983 Y69.1681
G00 X12.0983 Y69.1681
G01 F60.00
G01 Z-1.8000
G01 F120.00
G01 X15.4485 Y69.1681
G01 X15.4736 Y69.1674
G01 X15.5029 Y69.1654
G01 X15.5273 Y69.1623
G01 X15.5563 Y69.1574
G01 X15.5803 Y69.1520
G01 X15.6086 Y69.1442
G01 X15.6320 Y69.1365
G01 X15.6594 Y69.1260
G01 X15.6819 Y69.1160
G01 X15.7082 Y69.1029
G01 X17.0092 Y68.4041
G01 X17.0337 Y68.3901
G01 X17.0544 Y68.3769
G01 X17.0784 Y68.3599
G01 X17.0978 Y68.3448
G01 X17.1165 Y68.3286
G01 X17.1379 Y68.3084
G01 X17.1580 Y68.2871
G01 X17.1741 Y68.2686
G01 X17.1893 Y68.2490
G01 X17.2063 Y68.2250
G01 X17.2195 Y68.2043
G01 X17.2335 Y68.1798
G01 X17.9320 Y66.8793
G01 X17.9454 Y66.8525
G01 X17.9554 Y66.8300
G01 X17.9643 Y66.8071
G01 X17.9736 Y66.7792
G01 X17.9814 Y66.7509
G01 X17.9868 Y66.7269
G01 X17.9917 Y66.6979
G01 X17.9948 Y66.6735
G01 X17.9968 Y66.6442
G01 X17.9975 Y66.6191
G01 X17.9975 Y36.7691
G00 Z2.0000
G00 X17.9975 Y33.9691
G01 F60.00
G01 Z-0.6000
G01 F120.00
G01 X17.9975 Y3.9192
G01 X17.9970 Y3.8981
G01 X17.9955 Y3.8722
G01 X17.9928 Y3.8478
G01 X17.9885 Y3.8201
G01 X17.9824 Y3.7913
G01 X17.9761 Y3.7675
G01 X17.9684 Y3.7428
G01 X17.9582 Y3.7151
G01 X17.9486 Y3.6926
G01 X17.9396 Y3.6735
G01 X17.2411 Y2.2740
G01 X17.2288 Y2.2510
G01 X17.2164 Y2.2298
G01 X17.2002 Y2.2052
G01 X17.1858 Y2.1854
G01 X17.1700 Y2.1658
G01 X17.1505 Y2.1438
G01 X17.1302 Y2.1232
G01 X17.1117 Y2.1062
G01 X17.0929 Y2.0905
G01 X17.0699 Y2.0730
G01 X17.0492 Y2.0588
G01 X17.0246 Y2.0437
G01 X16.9987 Y2.0296
G01 X16.9792 Y2.0201
G01 X15.6680 Y1.4159
G01 X15.6425 Y1.4055
G01 X15.6175 Y1.3968
G01 X15.5911 Y1.3890
G01 X15.5654 Y1.3827
G01 X15.5384 Y1.3776
G01 X15.5121 Y1.3739
G01 X15.4847 Y1.3714
G01 X15.4583 Y1.3703
G01 X12.0983 Y1.3702
G00 X12.0983 Y1.3702
G01 F60.00
G01 Z-1.2000
G01 F120.00
G01 X15.4583 Y1.3703
G01 X15.4847 Y1.3714
G01 X15.5121 Y1.3739
G01 X15.5384 Y1.3776
G01 X15.5654 Y1.3827
G01 X15.5911 Y1.3890
G01 X15.6175 Y1.3968
G01 X15.6425 Y1.4055
G01 X15.6680 Y1.4159
G01 X16.9792 Y2.0201
G01 X16.9987 Y2.0296
G01 X17.0246 Y2.0437
G01 X17.0492 Y2.0588
G01 X17.0699 Y2.0730
G01 X17.0929 Y2.0905
G01 X17.1117 Y2.1062
G01 X17.1302 Y2.1232
G01 X17.1505 Y2.1438
G01 X17.1700 Y2.1658
G01 X17.1858 Y2.1854
G01 X17.2002 Y2.2052
G01 X17.2164 Y2.2298
G01 X17.2288 Y2.2510
G01 X17.2411 Y2.2740
G01 X17.9396 Y3.6735
G01 X17.9486 Y3.6926
G01 X17.9582 Y3.7151
G01 X17.9684 Y3.7428
G01 X17.9761 Y3.7675
G01 X17.9824 Y3.7913
G01 X17.9885 Y3.8201
G01 X17.9928 Y3.8478
G01 X17.9955 Y3.8722
G01 X17.9970 Y3.8981
G01 X17.9975 Y3.9192
G01 X17.9975 Y33.9691
G00 X17.9975 Y33.9691
G01 F60.00
G01 Z-1.8000
G01 F120.00
G01 X17.9975 Y3.9192
G01 X17.9970 Y3.8981
G01 X17.9955 Y3.8722
G01 X17.9928 Y3.8478
G01 X17.9885 Y3.8201
G01 X17.9824 Y3.7913
G01 X17.9761 Y3.7675
G01 X17.9684 Y3.7428
G01 X17.9582 Y3.7151
G01 X17.9486 Y3.6926
G01 X17.9396 Y3.6735
G01 X17.2411 Y2.2740
G01 X17.2288 Y2.2510
G01 X17.2164 Y2.2298
G01 X17.2002 Y2.2052
G01 X17.1858 Y2.1854
G01 X17.1700 Y2.1658
G01 X17.1505 Y2.1438
G01 X17.1302 Y2.1232
G01 X17.1117 Y2.1062
G01 X17.0929 Y2.0905
G01 X17.0699 Y2.0730
G01 X17.0492 Y2.0588
G01 X17.0246 Y2.0437
G01 X16.9987 Y2.0296
G01 X16.9792 Y2.0201
G01 X15.6680 Y1.4159
G01 X15.6425 Y1.4055
G01 X15.6175 Y1.3968
G01 X15.5911 Y1.3890
G01 X15.5654 Y1.3827
G01 X15.5384 Y1.3776
G01 X15.5121 Y1.3739
G01 X15.4847 Y1.3714
G01 X15.4583 Y1.3703
G01 X12.0983 Y1.3702
G00 Z2.0000
M05
G00 Z2.0000
G00 Z15.00


