(G-CODE GENERATED BY FLATCAM v8.994 - www.flatcam.org - Version Date: 2020/11/7)

(Name: pcb-B_Cu.gbr_iso_combined_cnc)
(Type: G-code from Geometry)
(Units: MM)

(Created on Tuesday, 15 August 2023 at 11:04)

(This preprocessor is the default preprocessor used by FlatCAM.)
(It is made to work with MACH3 compatible motion controllers.)

(TOOL DIAMETER: 0.1263 mm)
(Feedrate_XY: 120.0 mm/min)
(Feedrate_Z: 60.0 mm/min)
(Feedrate rapids 1500.0 mm/min)

(Z_Cut: -0.0999 mm)
(Z_Move: 2.0 mm)
(Z Start: None mm)
(Z End: 15.0 mm)
(X,Y End: None mm)
(Steps per circle: 64)
(Preprocessor Geometry: default)

(X range:    4.4836 ...   16.6114  mm)
(Y range:    3.5563 ...   67.6830  mm)

(Spindle Speed: 0.0 RPM)
G21
G90
G94

G01 F120.00

M5
G00 Z15.0000
G00 X0.0000 Y0.0000
T2M6    
(MSG, Change to Tool Dia = 0.1263)
M0
G00 Z15.0000

M03
G01 F120.00
G00 X15.4844 Y61.6203
G01 F60.00
G01 Z-0.0999
G01 F120.00
G01 X15.4844 Y61.4244
G01 X6.1454 Y61.4244
G01 X6.1308 Y61.4236
G01 X6.1149 Y61.4212
G01 X6.0992 Y61.4173
G01 X6.0868 Y61.4130
G01 X6.0811 Y61.4106
G01 X6.0667 Y61.4035
G01 X6.0555 Y61.3967
G01 X6.0425 Y61.3870
G01 X6.0305 Y61.3762
G01 X6.0196 Y61.3642
G01 X6.0100 Y61.3512
G01 X6.0032 Y61.3400
G01 X5.9960 Y61.3256
G01 X5.9937 Y61.3198
G01 X5.9889 Y61.3060
G01 X5.9851 Y61.2903
G01 X5.9829 Y61.2743
G01 X5.9823 Y61.2566
G01 X5.9830 Y61.2435
G01 X5.9849 Y61.2306
G01 X5.9885 Y61.2148
G01 X5.9948 Y61.1966
G01 X6.0017 Y61.1820
G01 X6.0100 Y61.1681
G01 X6.0196 Y61.1551
G01 X6.0305 Y61.1432
G01 X6.0425 Y61.1323
G01 X6.0555 Y61.1227
G01 X6.0720 Y61.1130
G01 X6.0868 Y61.1063
G01 X6.0992 Y61.1020
G01 X6.1118 Y61.0987
G01 X6.1293 Y61.0959
G01 X6.1454 Y61.0949
G01 X15.4844 Y61.0949
G01 X15.4844 Y60.4236
G01 X6.1454 Y60.4236
G01 X6.1308 Y60.4229
G01 X6.1149 Y60.4205
G01 X6.0992 Y60.4166
G01 X6.0839 Y60.4111
G01 X6.0693 Y60.4042
G01 X6.0555 Y60.3959
G01 X6.0425 Y60.3862
G01 X6.0305 Y60.3754
G01 X6.0196 Y60.3634
G01 X6.0100 Y60.3504
G01 X6.0017 Y60.3366
G01 X5.9948 Y60.3220
G01 X5.9893 Y60.3067
G01 X5.9854 Y60.2910
G01 X5.9830 Y60.2750
G01 X5.9822 Y60.2589
G01 X5.9830 Y60.2428
G01 X5.9854 Y60.2268
G01 X5.9893 Y60.2111
G01 X5.9948 Y60.1958
G01 X6.0017 Y60.1812
G01 X6.0100 Y60.1674
G01 X6.0196 Y60.1544
G01 X6.0305 Y60.1424
G01 X6.0425 Y60.1316
G01 X6.0555 Y60.1219
G01 X6.0693 Y60.1136
G01 X6.0839 Y60.1067
G01 X6.0992 Y60.1012
G01 X6.1149 Y60.0973
G01 X6.1308 Y60.0949
G01 X6.1454 Y60.0942
G01 X15.4844 Y60.0941
G01 X15.4844 Y59.4229
G01 X6.1454 Y59.4229
G01 X6.1308 Y59.4221
G01 X6.1149 Y59.4197
G01 X6.0992 Y59.4158
G01 X6.0839 Y59.4103
G01 X6.0693 Y59.4034
G01 X6.0555 Y59.3951
G01 X6.0425 Y59.3855
G01 X6.0305 Y59.3746
G01 X6.0196 Y59.3627
G01 X6.0100 Y59.3497
G01 X6.0017 Y59.3358
G01 X5.9948 Y59.3212
G01 X5.9893 Y59.3060
G01 X5.9854 Y59.2903
G01 X5.9830 Y59.2743
G01 X5.9822 Y59.2581
G01 X5.9830 Y59.2420
G01 X5.9854 Y59.2260
G01 X5.9893 Y59.2103
G01 X5.9948 Y59.1951
G01 X6.0017 Y59.1805
G01 X6.0100 Y59.1666
G01 X6.0196 Y59.1536
G01 X6.0305 Y59.1416
G01 X6.0425 Y59.1308
G01 X6.0555 Y59.1211
G01 X6.0693 Y59.1128
G01 X6.0839 Y59.1059
G01 X6.0992 Y59.1005
G01 X6.1149 Y59.0966
G01 X6.1308 Y59.0942
G01 X6.1454 Y59.0934
G01 X15.4844 Y59.0934
G01 X15.4844 Y58.4247
G01 X6.1454 Y58.4247
G01 X6.1308 Y58.4239
G01 X6.1149 Y58.4215
G01 X6.0992 Y58.4176
G01 X6.0839 Y58.4121
G01 X6.0693 Y58.4052
G01 X6.0555 Y58.3969
G01 X6.0425 Y58.3873
G01 X6.0305 Y58.3764
G01 X6.0196 Y58.3644
G01 X6.0100 Y58.3514
G01 X6.0017 Y58.3376
G01 X5.9948 Y58.3230
G01 X5.9893 Y58.3077
G01 X5.9854 Y58.2920
G01 X5.9830 Y58.2761
G01 X5.9822 Y58.2599
G01 X5.9830 Y58.2438
G01 X5.9854 Y58.2278
G01 X5.9893 Y58.2121
G01 X5.9948 Y58.1969
G01 X6.0017 Y58.1823
G01 X6.0100 Y58.1684
G01 X6.0196 Y58.1554
G01 X6.0305 Y58.1434
G01 X6.0425 Y58.1326
G01 X6.0555 Y58.1229
G01 X6.0693 Y58.1146
G01 X6.0839 Y58.1077
G01 X6.0992 Y58.1023
G01 X6.1149 Y58.0983
G01 X6.1308 Y58.0960
G01 X6.1454 Y58.0952
G01 X15.4844 Y58.0952
G01 X15.4844 Y57.4239
G01 X6.1454 Y57.4239
G01 X6.1308 Y57.4231
G01 X6.1149 Y57.4207
G01 X6.0992 Y57.4168
G01 X6.0839 Y57.4114
G01 X6.0693 Y57.4045
G01 X6.0555 Y57.3962
G01 X6.0425 Y57.3865
G01 X6.0305 Y57.3757
G01 X6.0196 Y57.3637
G01 X6.0100 Y57.3507
G01 X6.0017 Y57.3368
G01 X5.9948 Y57.3222
G01 X5.9893 Y57.3070
G01 X5.9854 Y57.2913
G01 X5.9830 Y57.2753
G01 X5.9822 Y57.2592
G01 X5.9830 Y57.2430
G01 X5.9854 Y57.2270
G01 X5.9893 Y57.2113
G01 X5.9948 Y57.1961
G01 X6.0017 Y57.1815
G01 X6.0100 Y57.1676
G01 X6.0196 Y57.1546
G01 X6.0305 Y57.1427
G01 X6.0425 Y57.1318
G01 X6.0555 Y57.1222
G01 X6.0693 Y57.1139
G01 X6.0839 Y57.1070
G01 X6.0992 Y57.1015
G01 X6.1149 Y57.0976
G01 X6.1308 Y57.0952
G01 X6.1454 Y57.0944
G01 X15.4844 Y57.0944
G01 X15.4844 Y56.4231
G01 X6.1454 Y56.4231
G01 X6.1308 Y56.4224
G01 X6.1149 Y56.4200
G01 X6.0992 Y56.4161
G01 X6.0839 Y56.4106
G01 X6.0693 Y56.4037
G01 X6.0555 Y56.3954
G01 X6.0425 Y56.3857
G01 X6.0305 Y56.3749
G01 X6.0196 Y56.3629
G01 X6.0100 Y56.3499
G01 X6.0017 Y56.3361
G01 X5.9948 Y56.3215
G01 X5.9893 Y56.3062
G01 X5.9854 Y56.2905
G01 X5.9830 Y56.2745
G01 X5.9822 Y56.2584
G01 X5.9830 Y56.2423
G01 X5.9854 Y56.2263
G01 X5.9893 Y56.2106
G01 X5.9948 Y56.1953
G01 X6.0017 Y56.1807
G01 X6.0100 Y56.1669
G01 X6.0196 Y56.1539
G01 X6.0305 Y56.1419
G01 X6.0425 Y56.1311
G01 X6.0555 Y56.1214
G01 X6.0693 Y56.1131
G01 X6.0839 Y56.1062
G01 X6.0992 Y56.1007
G01 X6.1149 Y56.0968
G01 X6.1308 Y56.0944
G01 X6.1454 Y56.0937
G01 X15.4844 Y56.0936
G01 X15.4844 Y55.4249
G01 X6.1454 Y55.4249
G01 X6.1308 Y55.4241
G01 X6.1149 Y55.4218
G01 X6.0992 Y55.4178
G01 X6.0839 Y55.4124
G01 X6.0693 Y55.4055
G01 X6.0555 Y55.3972
G01 X6.0425 Y55.3875
G01 X6.0305 Y55.3767
G01 X6.0196 Y55.3647
G01 X6.0100 Y55.3517
G01 X6.0017 Y55.3378
G01 X5.9948 Y55.3232
G01 X5.9893 Y55.3080
G01 X5.9854 Y55.2923
G01 X5.9830 Y55.2763
G01 X5.9822 Y55.2602
G01 X5.9830 Y55.2440
G01 X5.9854 Y55.2281
G01 X5.9893 Y55.2124
G01 X5.9948 Y55.1971
G01 X6.0017 Y55.1825
G01 X6.0100 Y55.1687
G01 X6.0196 Y55.1557
G01 X6.0305 Y55.1437
G01 X6.0425 Y55.1328
G01 X6.0555 Y55.1232
G01 X6.0693 Y55.1149
G01 X6.0839 Y55.1080
G01 X6.0992 Y55.1025
G01 X6.1149 Y55.0986
G01 X6.1308 Y55.0962
G01 X6.1454 Y55.0954
G01 X15.4844 Y55.0954
G01 X15.4844 Y54.4242
G01 X6.1454 Y54.4242
G01 X6.1308 Y54.4234
G01 X6.1149 Y54.4210
G01 X6.0992 Y54.4171
G01 X6.0839 Y54.4116
G01 X6.0693 Y54.4047
G01 X6.0555 Y54.3964
G01 X6.0425 Y54.3868
G01 X6.0305 Y54.3759
G01 X6.0196 Y54.3639
G01 X6.0100 Y54.3509
G01 X6.0017 Y54.3371
G01 X5.9948 Y54.3225
G01 X5.9893 Y54.3072
G01 X5.9854 Y54.2915
G01 X5.9830 Y54.2756
G01 X5.9822 Y54.2594
G01 X5.9830 Y54.2433
G01 X5.9854 Y54.2273
G01 X5.9893 Y54.2116
G01 X5.9948 Y54.1964
G01 X6.0017 Y54.1818
G01 X6.0100 Y54.1679
G01 X6.0196 Y54.1549
G01 X6.0305 Y54.1429
G01 X6.0425 Y54.1321
G01 X6.0555 Y54.1224
G01 X6.0693 Y54.1141
G01 X6.0839 Y54.1072
G01 X6.0992 Y54.1018
G01 X6.1149 Y54.0978
G01 X6.1308 Y54.0955
G01 X6.1454 Y54.0947
G01 X15.4844 Y54.0947
G01 X15.4844 Y53.4234
G01 X6.1454 Y53.4234
G01 X6.1308 Y53.4226
G01 X6.1149 Y53.4202
G01 X6.0992 Y53.4163
G01 X6.0839 Y53.4109
G01 X6.0693 Y53.4040
G01 X6.0555 Y53.3957
G01 X6.0425 Y53.3860
G01 X6.0305 Y53.3752
G01 X6.0196 Y53.3632
G01 X6.0100 Y53.3502
G01 X6.0017 Y53.3363
G01 X5.9948 Y53.3217
G01 X5.9893 Y53.3065
G01 X5.9854 Y53.2908
G01 X5.9830 Y53.2748
G01 X5.9822 Y53.2587
G01 X5.9830 Y53.2425
G01 X5.9854 Y53.2265
G01 X5.9893 Y53.2108
G01 X5.9948 Y53.1956
G01 X6.0017 Y53.1810
G01 X6.0100 Y53.1671
G01 X6.0196 Y53.1541
G01 X6.0305 Y53.1422
G01 X6.0425 Y53.1313
G01 X6.0555 Y53.1217
G01 X6.0693 Y53.1134
G01 X6.0839 Y53.1065
G01 X6.0992 Y53.1010
G01 X6.1149 Y53.0971
G01 X6.1308 Y53.0947
G01 X6.1454 Y53.0939
G01 X15.4844 Y53.0939
G01 X15.4844 Y52.4252
G01 X6.1454 Y52.4252
G01 X6.1308 Y52.4244
G01 X6.1149 Y52.4220
G01 X6.0992 Y52.4181
G01 X6.0839 Y52.4126
G01 X6.0693 Y52.4057
G01 X6.0555 Y52.3974
G01 X6.0425 Y52.3878
G01 X6.0305 Y52.3769
G01 X6.0196 Y52.3650
G01 X6.0100 Y52.3520
G01 X6.0017 Y52.3381
G01 X5.9948 Y52.3235
G01 X5.9893 Y52.3083
G01 X5.9854 Y52.2926
G01 X5.9830 Y52.2766
G01 X5.9822 Y52.2604
G01 X5.9830 Y52.2443
G01 X5.9854 Y52.2283
G01 X5.9893 Y52.2126
G01 X5.9948 Y52.1974
G01 X6.0017 Y52.1828
G01 X6.0100 Y52.1689
G01 X6.0196 Y52.1559
G01 X6.0305 Y52.1439
G01 X6.0425 Y52.1331
G01 X6.0555 Y52.1234
G01 X6.0693 Y52.1151
G01 X6.0839 Y52.1082
G01 X6.0992 Y52.1028
G01 X6.1149 Y52.0989
G01 X6.1308 Y52.0965
G01 X6.1454 Y52.0957
G01 X15.4844 Y52.0957
G01 X15.4844 Y51.4244
G01 X6.1454 Y51.4244
G01 X6.1308 Y51.4236
G01 X6.1149 Y51.4213
G01 X6.0992 Y51.4173
G01 X6.0839 Y51.4119
G01 X6.0693 Y51.4050
G01 X6.0555 Y51.3967
G01 X6.0425 Y51.3870
G01 X6.0305 Y51.3762
G01 X6.0196 Y51.3642
G01 X6.0100 Y51.3512
G01 X6.0017 Y51.3373
G01 X5.9948 Y51.3227
G01 X5.9893 Y51.3075
G01 X5.9854 Y51.2918
G01 X5.9830 Y51.2758
G01 X5.9822 Y51.2597
G01 X5.9830 Y51.2435
G01 X5.9854 Y51.2276
G01 X5.9893 Y51.2119
G01 X5.9948 Y51.1966
G01 X6.0017 Y51.1820
G01 X6.0100 Y51.1682
G01 X6.0196 Y51.1552
G01 X6.0305 Y51.1432
G01 X6.0425 Y51.1323
G01 X6.0555 Y51.1227
G01 X6.0693 Y51.1144
G01 X6.0839 Y51.1075
G01 X6.0992 Y51.1020
G01 X6.1149 Y51.0981
G01 X6.1308 Y51.0957
G01 X6.1454 Y51.0949
G01 X15.4844 Y51.0949
G01 X15.4844 Y50.4237
G01 X6.1454 Y50.4237
G01 X6.1308 Y50.4229
G01 X6.1149 Y50.4205
G01 X6.0992 Y50.4166
G01 X6.0839 Y50.4111
G01 X6.0693 Y50.4042
G01 X6.0555 Y50.3959
G01 X6.0425 Y50.3863
G01 X6.0305 Y50.3754
G01 X6.0196 Y50.3634
G01 X6.0100 Y50.3504
G01 X6.0017 Y50.3366
G01 X5.9948 Y50.3220
G01 X5.9893 Y50.3067
G01 X5.9854 Y50.2910
G01 X5.9830 Y50.2751
G01 X5.9822 Y50.2589
G01 X5.9830 Y50.2428
G01 X5.9854 Y50.2268
G01 X5.9893 Y50.2111
G01 X5.9948 Y50.1959
G01 X6.0017 Y50.1813
G01 X6.0100 Y50.1674
G01 X6.0196 Y50.1544
G01 X6.0305 Y50.1424
G01 X6.0425 Y50.1316
G01 X6.0555 Y50.1219
G01 X6.0693 Y50.1136
G01 X6.0839 Y50.1067
G01 X6.0992 Y50.1013
G01 X6.1149 Y50.0973
G01 X6.1308 Y50.0950
G01 X6.1454 Y50.0942
G01 X15.4844 Y50.0942
G01 X15.4844 Y49.4229
G01 X6.1454 Y49.4229
G01 X6.1308 Y49.4221
G01 X6.1149 Y49.4197
G01 X6.0992 Y49.4158
G01 X6.0839 Y49.4104
G01 X6.0693 Y49.4035
G01 X6.0555 Y49.3952
G01 X6.0425 Y49.3855
G01 X6.0305 Y49.3747
G01 X6.0196 Y49.3627
G01 X6.0100 Y49.3497
G01 X6.0017 Y49.3358
G01 X5.9948 Y49.3212
G01 X5.9893 Y49.3060
G01 X5.9854 Y49.2903
G01 X5.9830 Y49.2743
G01 X5.9822 Y49.2582
G01 X5.9830 Y49.2420
G01 X5.9854 Y49.2260
G01 X5.9893 Y49.2103
G01 X5.9948 Y49.1951
G01 X6.0017 Y49.1805
G01 X6.0100 Y49.1666
G01 X6.0196 Y49.1536
G01 X6.0305 Y49.1417
G01 X6.0425 Y49.1308
G01 X6.0555 Y49.1212
G01 X6.0693 Y49.1129
G01 X6.0839 Y49.1060
G01 X6.0992 Y49.1005
G01 X6.1149 Y49.0966
G01 X6.1308 Y49.0942
G01 X6.1454 Y49.0934
G01 X15.4844 Y49.0934
G01 X15.4844 Y48.4247
G01 X6.1454 Y48.4247
G01 X6.1308 Y48.4239
G01 X6.1149 Y48.4215
G01 X6.0992 Y48.4176
G01 X6.0839 Y48.4121
G01 X6.0693 Y48.4052
G01 X6.0555 Y48.3969
G01 X6.0425 Y48.3873
G01 X6.0305 Y48.3764
G01 X6.0196 Y48.3645
G01 X6.0100 Y48.3515
G01 X6.0017 Y48.3376
G01 X5.9948 Y48.3230
G01 X5.9893 Y48.3078
G01 X5.9854 Y48.2921
G01 X5.9830 Y48.2761
G01 X5.9822 Y48.2599
G01 X5.9830 Y48.2438
G01 X5.9854 Y48.2278
G01 X5.9893 Y48.2121
G01 X5.9948 Y48.1969
G01 X6.0017 Y48.1823
G01 X6.0100 Y48.1684
G01 X6.0196 Y48.1554
G01 X6.0305 Y48.1434
G01 X6.0425 Y48.1326
G01 X6.0555 Y48.1229
G01 X6.0693 Y48.1146
G01 X6.0839 Y48.1077
G01 X6.0992 Y48.1023
G01 X6.1149 Y48.0984
G01 X6.1308 Y48.0960
G01 X6.1454 Y48.0952
G01 X15.4844 Y48.0952
G01 X15.4844 Y47.4239
G01 X6.1454 Y47.4239
G01 X6.1308 Y47.4231
G01 X6.1149 Y47.4208
G01 X6.0992 Y47.4168
G01 X6.0839 Y47.4114
G01 X6.0693 Y47.4045
G01 X6.0555 Y47.3962
G01 X6.0425 Y47.3865
G01 X6.0305 Y47.3757
G01 X6.0196 Y47.3637
G01 X6.0100 Y47.3507
G01 X6.0017 Y47.3368
G01 X5.9948 Y47.3222
G01 X5.9893 Y47.3070
G01 X5.9854 Y47.2913
G01 X5.9830 Y47.2753
G01 X5.9822 Y47.2592
G01 X5.9830 Y47.2430
G01 X5.9854 Y47.2271
G01 X5.9893 Y47.2114
G01 X5.9948 Y47.1961
G01 X6.0017 Y47.1815
G01 X6.0100 Y47.1677
G01 X6.0196 Y47.1547
G01 X6.0305 Y47.1427
G01 X6.0425 Y47.1318
G01 X6.0555 Y47.1222
G01 X6.0693 Y47.1139
G01 X6.0839 Y47.1070
G01 X6.0992 Y47.1015
G01 X6.1149 Y47.0976
G01 X6.1308 Y47.0952
G01 X6.1454 Y47.0944
G01 X15.4844 Y47.0944
G01 X15.4844 Y46.4232
G01 X6.1454 Y46.4232
G01 X6.1308 Y46.4224
G01 X6.1149 Y46.4200
G01 X6.0992 Y46.4161
G01 X6.0839 Y46.4106
G01 X6.0693 Y46.4037
G01 X6.0555 Y46.3954
G01 X6.0425 Y46.3858
G01 X6.0305 Y46.3749
G01 X6.0196 Y46.3629
G01 X6.0100 Y46.3499
G01 X6.0017 Y46.3361
G01 X5.9948 Y46.3215
G01 X5.9893 Y46.3062
G01 X5.9854 Y46.2905
G01 X5.9830 Y46.2746
G01 X5.9822 Y46.2584
G01 X5.9830 Y46.2423
G01 X5.9854 Y46.2263
G01 X5.9893 Y46.2106
G01 X5.9948 Y46.1954
G01 X6.0017 Y46.1808
G01 X6.0100 Y46.1669
G01 X6.0196 Y46.1539
G01 X6.0305 Y46.1419
G01 X6.0425 Y46.1311
G01 X6.0555 Y46.1214
G01 X6.0693 Y46.1131
G01 X6.0839 Y46.1062
G01 X6.0992 Y46.1008
G01 X6.1149 Y46.0968
G01 X6.1308 Y46.0945
G01 X6.1454 Y46.0937
G01 X15.4844 Y46.0937
G01 X15.4844 Y45.4249
G01 X6.1454 Y45.4249
G01 X6.1308 Y45.4242
G01 X6.1149 Y45.4218
G01 X6.0992 Y45.4179
G01 X6.0839 Y45.4124
G01 X6.0693 Y45.4055
G01 X6.0555 Y45.3972
G01 X6.0425 Y45.3875
G01 X6.0305 Y45.3767
G01 X6.0196 Y45.3647
G01 X6.0100 Y45.3517
G01 X6.0017 Y45.3379
G01 X5.9948 Y45.3233
G01 X5.9893 Y45.3080
G01 X5.9854 Y45.2923
G01 X5.9830 Y45.2763
G01 X5.9822 Y45.2602
G01 X5.9830 Y45.2441
G01 X5.9854 Y45.2281
G01 X5.9893 Y45.2124
G01 X5.9948 Y45.1971
G01 X6.0017 Y45.1825
G01 X6.0100 Y45.1687
G01 X6.0196 Y45.1557
G01 X6.0305 Y45.1437
G01 X6.0425 Y45.1329
G01 X6.0555 Y45.1232
G01 X6.0693 Y45.1149
G01 X6.0839 Y45.1080
G01 X6.0992 Y45.1025
G01 X6.1149 Y45.0986
G01 X6.1308 Y45.0962
G01 X6.1454 Y45.0955
G01 X15.4844 Y45.0954
G01 X15.4844 Y44.4242
G01 X6.1454 Y44.4242
G01 X6.1308 Y44.4234
G01 X6.1149 Y44.4210
G01 X6.0992 Y44.4171
G01 X6.0839 Y44.4116
G01 X6.0693 Y44.4047
G01 X6.0555 Y44.3964
G01 X6.0425 Y44.3868
G01 X6.0305 Y44.3759
G01 X6.0196 Y44.3640
G01 X6.0100 Y44.3510
G01 X6.0017 Y44.3371
G01 X5.9948 Y44.3225
G01 X5.9893 Y44.3073
G01 X5.9854 Y44.2916
G01 X5.9830 Y44.2756
G01 X5.9822 Y44.2594
G01 X5.9830 Y44.2433
G01 X5.9854 Y44.2273
G01 X5.9893 Y44.2116
G01 X5.9948 Y44.1964
G01 X6.0017 Y44.1818
G01 X6.0100 Y44.1679
G01 X6.0196 Y44.1549
G01 X6.0305 Y44.1429
G01 X6.0425 Y44.1321
G01 X6.0555 Y44.1224
G01 X6.0693 Y44.1141
G01 X6.0839 Y44.1072
G01 X6.0992 Y44.1018
G01 X6.1149 Y44.0979
G01 X6.1308 Y44.0955
G01 X6.1454 Y44.0947
G01 X15.4844 Y44.0947
G01 X15.4844 Y43.4234
G01 X6.1454 Y43.4234
G01 X6.1308 Y43.4226
G01 X6.1149 Y43.4203
G01 X6.0992 Y43.4163
G01 X6.0839 Y43.4109
G01 X6.0693 Y43.4040
G01 X6.0555 Y43.3957
G01 X6.0425 Y43.3860
G01 X6.0305 Y43.3752
G01 X6.0196 Y43.3632
G01 X6.0100 Y43.3502
G01 X6.0017 Y43.3363
G01 X5.9948 Y43.3217
G01 X5.9893 Y43.3065
G01 X5.9854 Y43.2908
G01 X5.9830 Y43.2748
G01 X5.9822 Y43.2587
G01 X5.9830 Y43.2425
G01 X5.9854 Y43.2266
G01 X5.9893 Y43.2109
G01 X5.9948 Y43.1956
G01 X6.0017 Y43.1810
G01 X6.0100 Y43.1672
G01 X6.0196 Y43.1542
G01 X6.0305 Y43.1422
G01 X6.0425 Y43.1313
G01 X6.0555 Y43.1217
G01 X6.0693 Y43.1134
G01 X6.0839 Y43.1065
G01 X6.0992 Y43.1010
G01 X6.1149 Y43.0971
G01 X6.1308 Y43.0947
G01 X6.1454 Y43.0939
G01 X15.4844 Y43.0939
G01 X15.4844 Y42.4252
G01 X6.1454 Y42.4252
G01 X6.1308 Y42.4244
G01 X6.1149 Y42.4220
G01 X6.0992 Y42.4181
G01 X6.0839 Y42.4127
G01 X6.0693 Y42.4058
G01 X6.0555 Y42.3975
G01 X6.0425 Y42.3878
G01 X6.0305 Y42.3770
G01 X6.0196 Y42.3650
G01 X6.0100 Y42.3520
G01 X6.0017 Y42.3381
G01 X5.9948 Y42.3235
G01 X5.9893 Y42.3083
G01 X5.9854 Y42.2926
G01 X5.9830 Y42.2766
G01 X5.9822 Y42.2605
G01 X5.9830 Y42.2443
G01 X5.9854 Y42.2283
G01 X5.9893 Y42.2126
G01 X5.9948 Y42.1974
G01 X6.0017 Y42.1828
G01 X6.0100 Y42.1689
G01 X6.0196 Y42.1559
G01 X6.0305 Y42.1440
G01 X6.0425 Y42.1331
G01 X6.0555 Y42.1235
G01 X6.0693 Y42.1152
G01 X6.0839 Y42.1083
G01 X6.0992 Y42.1028
G01 X6.1149 Y42.0989
G01 X6.1308 Y42.0965
G01 X6.1454 Y42.0957
G01 X15.4844 Y42.0957
G01 X15.4844 Y41.4244
G01 X6.1454 Y41.4244
G01 X6.1308 Y41.4237
G01 X6.1149 Y41.4213
G01 X6.0992 Y41.4174
G01 X6.0839 Y41.4119
G01 X6.0693 Y41.4050
G01 X6.0555 Y41.3967
G01 X6.0425 Y41.3870
G01 X6.0305 Y41.3762
G01 X6.0196 Y41.3642
G01 X6.0100 Y41.3512
G01 X6.0017 Y41.3374
G01 X5.9948 Y41.3228
G01 X5.9893 Y41.3075
G01 X5.9854 Y41.2918
G01 X5.9830 Y41.2758
G01 X5.9822 Y41.2597
G01 X5.9830 Y41.2436
G01 X5.9854 Y41.2276
G01 X5.9893 Y41.2119
G01 X5.9948 Y41.1966
G01 X6.0017 Y41.1820
G01 X6.0100 Y41.1682
G01 X6.0196 Y41.1552
G01 X6.0305 Y41.1432
G01 X6.0425 Y41.1324
G01 X6.0555 Y41.1227
G01 X6.0693 Y41.1144
G01 X6.0839 Y41.1075
G01 X6.0992 Y41.1020
G01 X6.1149 Y41.0981
G01 X6.1308 Y41.0957
G01 X6.1454 Y41.0950
G01 X15.4844 Y41.0949
G01 X15.4844 Y40.4237
G01 X6.1454 Y40.4237
G01 X6.1308 Y40.4229
G01 X6.1149 Y40.4205
G01 X6.0992 Y40.4166
G01 X6.0839 Y40.4111
G01 X6.0693 Y40.4042
G01 X6.0555 Y40.3959
G01 X6.0425 Y40.3863
G01 X6.0305 Y40.3754
G01 X6.0196 Y40.3635
G01 X6.0100 Y40.3505
G01 X6.0017 Y40.3366
G01 X5.9948 Y40.3220
G01 X5.9893 Y40.3068
G01 X5.9854 Y40.2911
G01 X5.9830 Y40.2751
G01 X5.9822 Y40.2589
G01 X5.9830 Y40.2428
G01 X5.9854 Y40.2268
G01 X5.9893 Y40.2111
G01 X5.9948 Y40.1959
G01 X6.0017 Y40.1813
G01 X6.0100 Y40.1674
G01 X6.0196 Y40.1544
G01 X6.0305 Y40.1424
G01 X6.0425 Y40.1316
G01 X6.0555 Y40.1219
G01 X6.0693 Y40.1136
G01 X6.0839 Y40.1067
G01 X6.0992 Y40.1013
G01 X6.1149 Y40.0974
G01 X6.1308 Y40.0950
G01 X6.1454 Y40.0942
G01 X15.4844 Y40.0942
G01 X15.4844 Y39.4229
G01 X6.1454 Y39.4229
G01 X6.1308 Y39.4221
G01 X6.1149 Y39.4198
G01 X6.0992 Y39.4158
G01 X6.0839 Y39.4104
G01 X6.0693 Y39.4035
G01 X6.0555 Y39.3952
G01 X6.0425 Y39.3855
G01 X6.0305 Y39.3747
G01 X6.0196 Y39.3627
G01 X6.0100 Y39.3497
G01 X6.0017 Y39.3358
G01 X5.9948 Y39.3212
G01 X5.9893 Y39.3060
G01 X5.9854 Y39.2903
G01 X5.9830 Y39.2743
G01 X5.9822 Y39.2582
G01 X5.9830 Y39.2420
G01 X5.9854 Y39.2261
G01 X5.9893 Y39.2104
G01 X5.9948 Y39.1951
G01 X6.0017 Y39.1805
G01 X6.0100 Y39.1667
G01 X6.0196 Y39.1537
G01 X6.0305 Y39.1417
G01 X6.0425 Y39.1308
G01 X6.0555 Y39.1212
G01 X6.0693 Y39.1129
G01 X6.0839 Y39.1060
G01 X6.0992 Y39.1005
G01 X6.1149 Y39.0966
G01 X6.1308 Y39.0942
G01 X6.1454 Y39.0934
G01 X15.4844 Y39.0934
G01 X15.4844 Y38.4247
G01 X6.1454 Y38.4247
G01 X6.1308 Y38.4239
G01 X6.1149 Y38.4215
G01 X6.0992 Y38.4176
G01 X6.0839 Y38.4122
G01 X6.0693 Y38.4053
G01 X6.0555 Y38.3970
G01 X6.0425 Y38.3873
G01 X6.0305 Y38.3765
G01 X6.0196 Y38.3645
G01 X6.0100 Y38.3515
G01 X6.0017 Y38.3376
G01 X5.9948 Y38.3230
G01 X5.9893 Y38.3078
G01 X5.9854 Y38.2921
G01 X5.9830 Y38.2761
G01 X5.9822 Y38.2600
G01 X5.9830 Y38.2438
G01 X5.9854 Y38.2278
G01 X5.9893 Y38.2121
G01 X5.9948 Y38.1969
G01 X6.0017 Y38.1823
G01 X6.0100 Y38.1684
G01 X6.0196 Y38.1554
G01 X6.0305 Y38.1435
G01 X6.0425 Y38.1326
G01 X6.0555 Y38.1230
G01 X6.0693 Y38.1147
G01 X6.0839 Y38.1078
G01 X6.0992 Y38.1023
G01 X6.1149 Y38.0984
G01 X6.1308 Y38.0960
G01 X6.1454 Y38.0952
G01 X15.4844 Y38.0952
G01 X15.4844 Y37.4239
G01 X6.1454 Y37.4239
G01 X6.1308 Y37.4232
G01 X6.1149 Y37.4208
G01 X6.0992 Y37.4169
G01 X6.0839 Y37.4114
G01 X6.0693 Y37.4045
G01 X6.0555 Y37.3962
G01 X6.0425 Y37.3865
G01 X6.0305 Y37.3757
G01 X6.0196 Y37.3637
G01 X6.0100 Y37.3507
G01 X6.0017 Y37.3369
G01 X5.9948 Y37.3223
G01 X5.9893 Y37.3070
G01 X5.9854 Y37.2913
G01 X5.9830 Y37.2753
G01 X5.9822 Y37.2592
G01 X5.9830 Y37.2431
G01 X5.9854 Y37.2271
G01 X5.9893 Y37.2114
G01 X5.9948 Y37.1961
G01 X6.0017 Y37.1815
G01 X6.0100 Y37.1677
G01 X6.0196 Y37.1547
G01 X6.0305 Y37.1427
G01 X6.0425 Y37.1319
G01 X6.0555 Y37.1222
G01 X6.0693 Y37.1139
G01 X6.0839 Y37.1070
G01 X6.0992 Y37.1015
G01 X6.1149 Y37.0976
G01 X6.1308 Y37.0952
G01 X6.1454 Y37.0945
G01 X15.4844 Y37.0944
G01 X15.4844 Y36.4232
G01 X6.1454 Y36.4232
G01 X6.1308 Y36.4224
G01 X6.1149 Y36.4200
G01 X6.0992 Y36.4161
G01 X6.0839 Y36.4106
G01 X6.0693 Y36.4037
G01 X6.0555 Y36.3954
G01 X6.0425 Y36.3858
G01 X6.0305 Y36.3749
G01 X6.0196 Y36.3630
G01 X6.0100 Y36.3500
G01 X6.0017 Y36.3361
G01 X5.9948 Y36.3215
G01 X5.9893 Y36.3063
G01 X5.9854 Y36.2906
G01 X5.9830 Y36.2746
G01 X5.9822 Y36.2584
G01 X5.9830 Y36.2423
G01 X5.9854 Y36.2263
G01 X5.9893 Y36.2106
G01 X5.9948 Y36.1954
G01 X6.0017 Y36.1808
G01 X6.0100 Y36.1669
G01 X6.0196 Y36.1539
G01 X6.0305 Y36.1419
G01 X6.0425 Y36.1311
G01 X6.0555 Y36.1214
G01 X6.0693 Y36.1131
G01 X6.0839 Y36.1062
G01 X6.0992 Y36.1008
G01 X6.1149 Y36.0969
G01 X6.1308 Y36.0945
G01 X6.1454 Y36.0937
G01 X15.4844 Y36.0937
G01 X15.4844 Y35.4250
G01 X6.1454 Y35.4250
G01 X6.1308 Y35.4242
G01 X6.1149 Y35.4218
G01 X6.0992 Y35.4179
G01 X6.0839 Y35.4124
G01 X6.0693 Y35.4055
G01 X6.0555 Y35.3972
G01 X6.0425 Y35.3876
G01 X6.0305 Y35.3767
G01 X6.0196 Y35.3647
G01 X6.0100 Y35.3517
G01 X6.0017 Y35.3379
G01 X5.9948 Y35.3233
G01 X5.9893 Y35.3080
G01 X5.9854 Y35.2923
G01 X5.9830 Y35.2764
G01 X5.9822 Y35.2602
G01 X5.9830 Y35.2441
G01 X5.9854 Y35.2281
G01 X5.9893 Y35.2124
G01 X5.9948 Y35.1972
G01 X6.0017 Y35.1826
G01 X6.0100 Y35.1687
G01 X6.0196 Y35.1557
G01 X6.0305 Y35.1437
G01 X6.0425 Y35.1329
G01 X6.0555 Y35.1232
G01 X6.0693 Y35.1149
G01 X6.0839 Y35.1080
G01 X6.0992 Y35.1026
G01 X6.1149 Y35.0986
G01 X6.1308 Y35.0963
G01 X6.1454 Y35.0955
G01 X15.4844 Y35.0955
G01 X15.4844 Y34.4242
G01 X6.1454 Y34.4242
G01 X6.1308 Y34.4234
G01 X6.1149 Y34.4210
G01 X6.0992 Y34.4171
G01 X6.0839 Y34.4117
G01 X6.0693 Y34.4048
G01 X6.0555 Y34.3965
G01 X6.0425 Y34.3868
G01 X6.0305 Y34.3760
G01 X6.0196 Y34.3640
G01 X6.0100 Y34.3510
G01 X6.0017 Y34.3371
G01 X5.9948 Y34.3225
G01 X5.9893 Y34.3073
G01 X5.9854 Y34.2916
G01 X5.9830 Y34.2756
G01 X5.9822 Y34.2595
G01 X5.9830 Y34.2433
G01 X5.9854 Y34.2273
G01 X5.9893 Y34.2116
G01 X5.9948 Y34.1964
G01 X6.0017 Y34.1818
G01 X6.0100 Y34.1679
G01 X6.0196 Y34.1549
G01 X6.0305 Y34.1430
G01 X6.0425 Y34.1321
G01 X6.0555 Y34.1225
G01 X6.0693 Y34.1142
G01 X6.0839 Y34.1073
G01 X6.0992 Y34.1018
G01 X6.1149 Y34.0979
G01 X6.1308 Y34.0955
G01 X6.1454 Y34.0947
G01 X15.4844 Y34.0947
G01 X15.4844 Y33.4234
G01 X6.1454 Y33.4234
G01 X6.1308 Y33.4227
G01 X6.1149 Y33.4203
G01 X6.0992 Y33.4164
G01 X6.0839 Y33.4109
G01 X6.0693 Y33.4040
G01 X6.0555 Y33.3957
G01 X6.0425 Y33.3860
G01 X6.0305 Y33.3752
G01 X6.0196 Y33.3632
G01 X6.0100 Y33.3502
G01 X6.0017 Y33.3364
G01 X5.9948 Y33.3218
G01 X5.9893 Y33.3065
G01 X5.9854 Y33.2908
G01 X5.9830 Y33.2748
G01 X5.9822 Y33.2587
G01 X5.9830 Y33.2426
G01 X5.9854 Y33.2266
G01 X5.9893 Y33.2109
G01 X5.9948 Y33.1956
G01 X6.0017 Y33.1810
G01 X6.0100 Y33.1672
G01 X6.0196 Y33.1542
G01 X6.0305 Y33.1422
G01 X6.0425 Y33.1314
G01 X6.0555 Y33.1217
G01 X6.0693 Y33.1134
G01 X6.0839 Y33.1065
G01 X6.0992 Y33.1010
G01 X6.1149 Y33.0971
G01 X6.1308 Y33.0947
G01 X6.1454 Y33.0940
G01 X15.4844 Y33.0939
G01 X15.4844 Y32.4252
G01 X6.1454 Y32.4252
G01 X6.1308 Y32.4244
G01 X6.1149 Y32.4221
G01 X6.0992 Y32.4181
G01 X6.0839 Y32.4127
G01 X6.0693 Y32.4058
G01 X6.0555 Y32.3975
G01 X6.0425 Y32.3878
G01 X6.0305 Y32.3770
G01 X6.0196 Y32.3650
G01 X6.0100 Y32.3520
G01 X6.0017 Y32.3381
G01 X5.9948 Y32.3235
G01 X5.9893 Y32.3083
G01 X5.9854 Y32.2926
G01 X5.9830 Y32.2766
G01 X5.9822 Y32.2605
G01 X5.9830 Y32.2443
G01 X5.9854 Y32.2284
G01 X5.9893 Y32.2127
G01 X5.9948 Y32.1974
G01 X6.0017 Y32.1828
G01 X6.0100 Y32.1690
G01 X6.0196 Y32.1560
G01 X6.0305 Y32.1440
G01 X6.0425 Y32.1331
G01 X6.0555 Y32.1235
G01 X6.0693 Y32.1152
G01 X6.0839 Y32.1083
G01 X6.0992 Y32.1028
G01 X6.1149 Y32.0989
G01 X6.1308 Y32.0965
G01 X6.1454 Y32.0957
G01 X15.4844 Y32.0957
G01 X15.4844 Y31.4245
G01 X6.1454 Y31.4245
G01 X6.1308 Y31.4237
G01 X6.1149 Y31.4213
G01 X6.0992 Y31.4174
G01 X6.0839 Y31.4119
G01 X6.0693 Y31.4050
G01 X6.0555 Y31.3967
G01 X6.0425 Y31.3871
G01 X6.0305 Y31.3762
G01 X6.0196 Y31.3642
G01 X6.0100 Y31.3512
G01 X6.0017 Y31.3374
G01 X5.9948 Y31.3228
G01 X5.9893 Y31.3075
G01 X5.9854 Y31.2918
G01 X5.9830 Y31.2759
G01 X5.9822 Y31.2597
G01 X5.9830 Y31.2436
G01 X5.9854 Y31.2276
G01 X5.9893 Y31.2119
G01 X5.9948 Y31.1967
G01 X6.0017 Y31.1821
G01 X6.0100 Y31.1682
G01 X6.0196 Y31.1552
G01 X6.0305 Y31.1432
G01 X6.0425 Y31.1324
G01 X6.0555 Y31.1227
G01 X6.0693 Y31.1144
G01 X6.0839 Y31.1075
G01 X6.0992 Y31.1021
G01 X6.1149 Y31.0981
G01 X6.1308 Y31.0958
G01 X6.1454 Y31.0950
G01 X15.4844 Y31.0950
G01 X15.4844 Y30.4237
G01 X6.1454 Y30.4237
G01 X6.1308 Y30.4229
G01 X6.1149 Y30.4205
G01 X6.0992 Y30.4166
G01 X6.0839 Y30.4112
G01 X6.0693 Y30.4043
G01 X6.0555 Y30.3960
G01 X6.0425 Y30.3863
G01 X6.0305 Y30.3755
G01 X6.0196 Y30.3635
G01 X6.0100 Y30.3505
G01 X6.0017 Y30.3366
G01 X5.9948 Y30.3220
G01 X5.9893 Y30.3068
G01 X5.9854 Y30.2911
G01 X5.9830 Y30.2751
G01 X5.9822 Y30.2590
G01 X5.9830 Y30.2428
G01 X5.9854 Y30.2268
G01 X5.9893 Y30.2111
G01 X5.9948 Y30.1959
G01 X6.0017 Y30.1813
G01 X6.0100 Y30.1674
G01 X6.0196 Y30.1544
G01 X6.0305 Y30.1425
G01 X6.0425 Y30.1316
G01 X6.0555 Y30.1220
G01 X6.0693 Y30.1137
G01 X6.0839 Y30.1068
G01 X6.0992 Y30.1013
G01 X6.1149 Y30.0974
G01 X6.1308 Y30.0950
G01 X6.1454 Y30.0942
G01 X15.4844 Y30.0942
G01 X15.4844 Y29.4229
G01 X6.1454 Y29.4229
G01 X6.1308 Y29.4222
G01 X6.1149 Y29.4198
G01 X6.0992 Y29.4159
G01 X6.0839 Y29.4104
G01 X6.0693 Y29.4035
G01 X6.0555 Y29.3952
G01 X6.0425 Y29.3855
G01 X6.0305 Y29.3747
G01 X6.0196 Y29.3627
G01 X6.0100 Y29.3497
G01 X6.0017 Y29.3359
G01 X5.9948 Y29.3213
G01 X5.9893 Y29.3060
G01 X5.9854 Y29.2903
G01 X5.9830 Y29.2743
G01 X5.9822 Y29.2582
G01 X5.9830 Y29.2421
G01 X5.9854 Y29.2261
G01 X5.9893 Y29.2104
G01 X5.9948 Y29.1951
G01 X6.0017 Y29.1805
G01 X6.0100 Y29.1667
G01 X6.0196 Y29.1537
G01 X6.0305 Y29.1417
G01 X6.0425 Y29.1309
G01 X6.0555 Y29.1212
G01 X6.0693 Y29.1129
G01 X6.0839 Y29.1060
G01 X6.0992 Y29.1005
G01 X6.1149 Y29.0966
G01 X6.1308 Y29.0942
G01 X6.1454 Y29.0935
G01 X15.4844 Y29.0934
G01 X15.4844 Y28.4247
G01 X6.1454 Y28.4247
G01 X6.1308 Y28.4239
G01 X6.1149 Y28.4216
G01 X6.0992 Y28.4176
G01 X6.0839 Y28.4122
G01 X6.0693 Y28.4053
G01 X6.0555 Y28.3970
G01 X6.0425 Y28.3873
G01 X6.0305 Y28.3765
G01 X6.0196 Y28.3645
G01 X6.0100 Y28.3515
G01 X6.0017 Y28.3376
G01 X5.9948 Y28.3230
G01 X5.9893 Y28.3078
G01 X5.9854 Y28.2921
G01 X5.9830 Y28.2761
G01 X5.9822 Y28.2600
G01 X5.9830 Y28.2438
G01 X5.9854 Y28.2279
G01 X5.9893 Y28.2122
G01 X5.9948 Y28.1969
G01 X6.0017 Y28.1823
G01 X6.0100 Y28.1685
G01 X6.0196 Y28.1555
G01 X6.0305 Y28.1435
G01 X6.0425 Y28.1326
G01 X6.0555 Y28.1230
G01 X6.0693 Y28.1147
G01 X6.0839 Y28.1078
G01 X6.0992 Y28.1023
G01 X6.1149 Y28.0984
G01 X6.1308 Y28.0960
G01 X6.1454 Y28.0952
G01 X15.4844 Y28.0952
G01 X15.4844 Y27.4240
G01 X6.1454 Y27.4240
G01 X6.1308 Y27.4232
G01 X6.1149 Y27.4208
G01 X6.0992 Y27.4169
G01 X6.0839 Y27.4114
G01 X6.0693 Y27.4045
G01 X6.0555 Y27.3962
G01 X6.0425 Y27.3866
G01 X6.0305 Y27.3757
G01 X6.0196 Y27.3637
G01 X6.0100 Y27.3507
G01 X6.0017 Y27.3369
G01 X5.9948 Y27.3223
G01 X5.9893 Y27.3070
G01 X5.9854 Y27.2913
G01 X5.9830 Y27.2754
G01 X5.9822 Y27.2592
G01 X5.9830 Y27.2431
G01 X5.9854 Y27.2271
G01 X5.9893 Y27.2114
G01 X5.9948 Y27.1962
G01 X6.0017 Y27.1816
G01 X6.0100 Y27.1677
G01 X6.0196 Y27.1547
G01 X6.0305 Y27.1427
G01 X6.0425 Y27.1319
G01 X6.0555 Y27.1222
G01 X6.0693 Y27.1139
G01 X6.0839 Y27.1070
G01 X6.0992 Y27.1016
G01 X6.1149 Y27.0976
G01 X6.1308 Y27.0953
G01 X6.1454 Y27.0945
G01 X15.4844 Y27.0945
G01 X15.4844 Y26.4232
G01 X6.1454 Y26.4232
G01 X6.1308 Y26.4224
G01 X6.1149 Y26.4200
G01 X6.0992 Y26.4161
G01 X6.0839 Y26.4107
G01 X6.0693 Y26.4038
G01 X6.0555 Y26.3955
G01 X6.0425 Y26.3858
G01 X6.0305 Y26.3750
G01 X6.0196 Y26.3630
G01 X6.0100 Y26.3500
G01 X6.0017 Y26.3361
G01 X5.9948 Y26.3215
G01 X5.9893 Y26.3063
G01 X5.9854 Y26.2906
G01 X5.9830 Y26.2746
G01 X5.9822 Y26.2585
G01 X5.9830 Y26.2423
G01 X5.9854 Y26.2263
G01 X5.9893 Y26.2106
G01 X5.9948 Y26.1954
G01 X6.0017 Y26.1808
G01 X6.0100 Y26.1669
G01 X6.0196 Y26.1539
G01 X6.0305 Y26.1420
G01 X6.0425 Y26.1311
G01 X6.0555 Y26.1215
G01 X6.0693 Y26.1132
G01 X6.0839 Y26.1063
G01 X6.0992 Y26.1008
G01 X6.1149 Y26.0969
G01 X6.1308 Y26.0945
G01 X6.1454 Y26.0937
G01 X15.4844 Y26.0937
G01 X15.4844 Y25.4250
G01 X6.1454 Y25.4250
G01 X6.1308 Y25.4242
G01 X6.1149 Y25.4218
G01 X6.0992 Y25.4179
G01 X6.0839 Y25.4124
G01 X6.0693 Y25.4055
G01 X6.0555 Y25.3972
G01 X6.0425 Y25.3876
G01 X6.0305 Y25.3767
G01 X6.0196 Y25.3648
G01 X6.0100 Y25.3518
G01 X6.0017 Y25.3379
G01 X5.9948 Y25.3233
G01 X5.9893 Y25.3081
G01 X5.9854 Y25.2924
G01 X5.9830 Y25.2764
G01 X5.9822 Y25.2602
G01 X5.9830 Y25.2441
G01 X5.9854 Y25.2281
G01 X5.9893 Y25.2124
G01 X5.9948 Y25.1972
G01 X6.0017 Y25.1826
G01 X6.0100 Y25.1687
G01 X6.0196 Y25.1557
G01 X6.0305 Y25.1437
G01 X6.0425 Y25.1329
G01 X6.0555 Y25.1232
G01 X6.0693 Y25.1149
G01 X6.0839 Y25.1080
G01 X6.0992 Y25.1026
G01 X6.1149 Y25.0987
G01 X6.1308 Y25.0963
G01 X6.1454 Y25.0955
G01 X15.4844 Y25.0955
G01 X15.4844 Y24.4242
G01 X6.1454 Y24.4242
G01 X6.1308 Y24.4234
G01 X6.1149 Y24.4211
G01 X6.0992 Y24.4171
G01 X6.0839 Y24.4117
G01 X6.0693 Y24.4048
G01 X6.0555 Y24.3965
G01 X6.0425 Y24.3868
G01 X6.0305 Y24.3760
G01 X6.0196 Y24.3640
G01 X6.0100 Y24.3510
G01 X6.0017 Y24.3371
G01 X5.9948 Y24.3225
G01 X5.9893 Y24.3073
G01 X5.9854 Y24.2916
G01 X5.9830 Y24.2756
G01 X5.9822 Y24.2595
G01 X5.9830 Y24.2433
G01 X5.9854 Y24.2274
G01 X5.9893 Y24.2117
G01 X5.9948 Y24.1964
G01 X6.0017 Y24.1818
G01 X6.0100 Y24.1680
G01 X6.0196 Y24.1550
G01 X6.0305 Y24.1430
G01 X6.0425 Y24.1321
G01 X6.0555 Y24.1225
G01 X6.0693 Y24.1142
G01 X6.0839 Y24.1073
G01 X6.0992 Y24.1018
G01 X6.1149 Y24.0979
G01 X6.1308 Y24.0955
G01 X6.1454 Y24.0947
G01 X15.4844 Y24.0947
G01 X15.4844 Y23.4235
G01 X6.1454 Y23.4235
G01 X6.1308 Y23.4227
G01 X6.1149 Y23.4203
G01 X6.0992 Y23.4164
G01 X6.0839 Y23.4109
G01 X6.0693 Y23.4040
G01 X6.0555 Y23.3957
G01 X6.0425 Y23.3861
G01 X6.0305 Y23.3752
G01 X6.0196 Y23.3632
G01 X6.0100 Y23.3502
G01 X6.0017 Y23.3364
G01 X5.9948 Y23.3218
G01 X5.9893 Y23.3065
G01 X5.9854 Y23.2908
G01 X5.9830 Y23.2749
G01 X5.9822 Y23.2587
G01 X5.9830 Y23.2426
G01 X5.9854 Y23.2266
G01 X5.9893 Y23.2109
G01 X5.9948 Y23.1957
G01 X6.0017 Y23.1811
G01 X6.0100 Y23.1672
G01 X6.0196 Y23.1542
G01 X6.0305 Y23.1422
G01 X6.0425 Y23.1314
G01 X6.0555 Y23.1217
G01 X6.0693 Y23.1134
G01 X6.0839 Y23.1065
G01 X6.0992 Y23.1011
G01 X6.1149 Y23.0971
G01 X6.1308 Y23.0948
G01 X6.1454 Y23.0940
G01 X15.4844 Y23.0940
G01 X15.4844 Y22.4252
G01 X6.1454 Y22.4252
G01 X6.1308 Y22.4245
G01 X6.1149 Y22.4221
G01 X6.0992 Y22.4182
G01 X6.0839 Y22.4127
G01 X6.0693 Y22.4058
G01 X6.0555 Y22.3975
G01 X6.0425 Y22.3878
G01 X6.0305 Y22.3770
G01 X6.0196 Y22.3650
G01 X6.0100 Y22.3520
G01 X6.0017 Y22.3382
G01 X5.9948 Y22.3236
G01 X5.9893 Y22.3083
G01 X5.9854 Y22.2926
G01 X5.9830 Y22.2766
G01 X5.9822 Y22.2605
G01 X5.9830 Y22.2444
G01 X5.9854 Y22.2284
G01 X5.9893 Y22.2127
G01 X5.9948 Y22.1974
G01 X6.0017 Y22.1828
G01 X6.0100 Y22.1690
G01 X6.0196 Y22.1560
G01 X6.0305 Y22.1440
G01 X6.0425 Y22.1332
G01 X6.0555 Y22.1235
G01 X6.0693 Y22.1152
G01 X6.0839 Y22.1083
G01 X6.0992 Y22.1028
G01 X6.1149 Y22.0989
G01 X6.1308 Y22.0965
G01 X6.1454 Y22.0958
G01 X15.4844 Y22.0957
G01 X15.4844 Y21.4245
G01 X6.1454 Y21.4245
G01 X6.1308 Y21.4237
G01 X6.1149 Y21.4213
G01 X6.0992 Y21.4174
G01 X6.0839 Y21.4119
G01 X6.0693 Y21.4050
G01 X6.0555 Y21.3967
G01 X6.0425 Y21.3871
G01 X6.0305 Y21.3762
G01 X6.0196 Y21.3643
G01 X6.0100 Y21.3513
G01 X6.0017 Y21.3374
G01 X5.9948 Y21.3228
G01 X5.9893 Y21.3076
G01 X5.9854 Y21.2919
G01 X5.9830 Y21.2759
G01 X5.9822 Y21.2597
G01 X5.9830 Y21.2436
G01 X5.9854 Y21.2276
G01 X5.9893 Y21.2119
G01 X5.9948 Y21.1967
G01 X6.0017 Y21.1821
G01 X6.0100 Y21.1682
G01 X6.0196 Y21.1552
G01 X6.0305 Y21.1432
G01 X6.0425 Y21.1324
G01 X6.0555 Y21.1227
G01 X6.0693 Y21.1144
G01 X6.0839 Y21.1075
G01 X6.0992 Y21.1021
G01 X6.1149 Y21.0982
G01 X6.1308 Y21.0958
G01 X6.1454 Y21.0950
G01 X15.4844 Y21.0950
G01 X15.4844 Y20.4237
G01 X6.1454 Y20.4237
G01 X6.1308 Y20.4229
G01 X6.1149 Y20.4206
G01 X6.0992 Y20.4166
G01 X6.0839 Y20.4112
G01 X6.0693 Y20.4043
G01 X6.0555 Y20.3960
G01 X6.0425 Y20.3863
G01 X6.0305 Y20.3755
G01 X6.0196 Y20.3635
G01 X6.0100 Y20.3505
G01 X6.0017 Y20.3366
G01 X5.9948 Y20.3220
G01 X5.9893 Y20.3068
G01 X5.9854 Y20.2911
G01 X5.9830 Y20.2751
G01 X5.9822 Y20.2590
G01 X5.9830 Y20.2428
G01 X5.9854 Y20.2269
G01 X5.9893 Y20.2112
G01 X5.9948 Y20.1959
G01 X6.0017 Y20.1813
G01 X6.0100 Y20.1675
G01 X6.0196 Y20.1545
G01 X6.0305 Y20.1425
G01 X6.0425 Y20.1316
G01 X6.0555 Y20.1220
G01 X6.0693 Y20.1137
G01 X6.0839 Y20.1068
G01 X6.0992 Y20.1013
G01 X6.1149 Y20.0974
G01 X6.1308 Y20.0950
G01 X6.1454 Y20.0942
G01 X15.4844 Y20.0942
G01 X15.4844 Y19.4230
G01 X6.1454 Y19.4230
G01 X6.1308 Y19.4222
G01 X6.1149 Y19.4198
G01 X6.0992 Y19.4159
G01 X6.0839 Y19.4104
G01 X6.0693 Y19.4035
G01 X6.0555 Y19.3952
G01 X6.0425 Y19.3856
G01 X6.0305 Y19.3747
G01 X6.0196 Y19.3627
G01 X6.0100 Y19.3497
G01 X6.0017 Y19.3359
G01 X5.9948 Y19.3213
G01 X5.9893 Y19.3060
G01 X5.9854 Y19.2903
G01 X5.9830 Y19.2744
G01 X5.9822 Y19.2582
G01 X5.9830 Y19.2421
G01 X5.9854 Y19.2261
G01 X5.9893 Y19.2104
G01 X5.9948 Y19.1952
G01 X6.0017 Y19.1806
G01 X6.0100 Y19.1667
G01 X6.0196 Y19.1537
G01 X6.0305 Y19.1417
G01 X6.0425 Y19.1309
G01 X6.0555 Y19.1212
G01 X6.0693 Y19.1129
G01 X6.0839 Y19.1060
G01 X6.0992 Y19.1006
G01 X6.1149 Y19.0966
G01 X6.1308 Y19.0943
G01 X6.1454 Y19.0935
G01 X15.4844 Y19.0935
G01 X15.4844 Y18.4247
G01 X6.1454 Y18.4247
G01 X6.1308 Y18.4240
G01 X6.1149 Y18.4216
G01 X6.0992 Y18.4177
G01 X6.0839 Y18.4122
G01 X6.0693 Y18.4053
G01 X6.0555 Y18.3970
G01 X6.0425 Y18.3873
G01 X6.0305 Y18.3765
G01 X6.0196 Y18.3645
G01 X6.0100 Y18.3515
G01 X6.0017 Y18.3377
G01 X5.9948 Y18.3231
G01 X5.9893 Y18.3078
G01 X5.9854 Y18.2921
G01 X5.9830 Y18.2761
G01 X5.9822 Y18.2600
G01 X5.9830 Y18.2439
G01 X5.9854 Y18.2279
G01 X5.9893 Y18.2122
G01 X5.9948 Y18.1969
G01 X6.0017 Y18.1823
G01 X6.0100 Y18.1685
G01 X6.0196 Y18.1555
G01 X6.0305 Y18.1435
G01 X6.0425 Y18.1327
G01 X6.0555 Y18.1230
G01 X6.0693 Y18.1147
G01 X6.0839 Y18.1078
G01 X6.0992 Y18.1023
G01 X6.1149 Y18.0984
G01 X6.1308 Y18.0960
G01 X6.1454 Y18.0953
G01 X15.4844 Y18.0952
G01 X15.4844 Y17.4240
G01 X6.1454 Y17.4240
G01 X6.1308 Y17.4232
G01 X6.1149 Y17.4208
G01 X6.0992 Y17.4169
G01 X6.0839 Y17.4114
G01 X6.0693 Y17.4045
G01 X6.0555 Y17.3962
G01 X6.0425 Y17.3866
G01 X6.0305 Y17.3757
G01 X6.0196 Y17.3638
G01 X6.0100 Y17.3508
G01 X6.0017 Y17.3369
G01 X5.9948 Y17.3223
G01 X5.9893 Y17.3071
G01 X5.9854 Y17.2914
G01 X5.9830 Y17.2754
G01 X5.9822 Y17.2592
G01 X5.9830 Y17.2431
G01 X5.9854 Y17.2271
G01 X5.9893 Y17.2114
G01 X5.9948 Y17.1962
G01 X6.0017 Y17.1816
G01 X6.0100 Y17.1677
G01 X6.0196 Y17.1547
G01 X6.0305 Y17.1427
G01 X6.0425 Y17.1319
G01 X6.0555 Y17.1222
G01 X6.0693 Y17.1139
G01 X6.0839 Y17.1070
G01 X6.0992 Y17.1016
G01 X6.1149 Y17.0977
G01 X6.1308 Y17.0953
G01 X6.1454 Y17.0945
G01 X15.4844 Y17.0945
G01 X15.4844 Y16.4232
G01 X6.1454 Y16.4232
G01 X6.1308 Y16.4224
G01 X6.1149 Y16.4201
G01 X6.0992 Y16.4161
G01 X6.0839 Y16.4107
G01 X6.0693 Y16.4038
G01 X6.0555 Y16.3955
G01 X6.0425 Y16.3858
G01 X6.0305 Y16.3750
G01 X6.0196 Y16.3630
G01 X6.0100 Y16.3500
G01 X6.0017 Y16.3361
G01 X5.9948 Y16.3215
G01 X5.9893 Y16.3063
G01 X5.9854 Y16.2906
G01 X5.9830 Y16.2746
G01 X5.9822 Y16.2585
G01 X5.9830 Y16.2423
G01 X5.9854 Y16.2264
G01 X5.9893 Y16.2107
G01 X5.9948 Y16.1954
G01 X6.0017 Y16.1808
G01 X6.0100 Y16.1670
G01 X6.0196 Y16.1540
G01 X6.0305 Y16.1420
G01 X6.0425 Y16.1311
G01 X6.0555 Y16.1215
G01 X6.0693 Y16.1132
G01 X6.0839 Y16.1063
G01 X6.0992 Y16.1008
G01 X6.1149 Y16.0969
G01 X6.1308 Y16.0945
G01 X6.1454 Y16.0937
G01 X15.4844 Y16.0937
G01 X15.4844 Y15.4250
G01 X6.1454 Y15.4250
G01 X6.1308 Y15.4242
G01 X6.1149 Y15.4218
G01 X6.0992 Y15.4179
G01 X6.0839 Y15.4125
G01 X6.0693 Y15.4056
G01 X6.0555 Y15.3973
G01 X6.0425 Y15.3876
G01 X6.0305 Y15.3768
G01 X6.0196 Y15.3648
G01 X6.0100 Y15.3518
G01 X6.0017 Y15.3379
G01 X5.9948 Y15.3233
G01 X5.9893 Y15.3081
G01 X5.9854 Y15.2924
G01 X5.9830 Y15.2764
G01 X5.9822 Y15.2603
G01 X5.9830 Y15.2441
G01 X5.9854 Y15.2281
G01 X5.9893 Y15.2124
G01 X5.9948 Y15.1972
G01 X6.0017 Y15.1826
G01 X6.0100 Y15.1687
G01 X6.0196 Y15.1557
G01 X6.0305 Y15.1438
G01 X6.0425 Y15.1329
G01 X6.0555 Y15.1233
G01 X6.0693 Y15.1150
G01 X6.0839 Y15.1081
G01 X6.0992 Y15.1026
G01 X6.1149 Y15.0987
G01 X6.1308 Y15.0963
G01 X6.1454 Y15.0955
G01 X15.4844 Y15.0955
G01 X15.4844 Y14.4242
G01 X6.1454 Y14.4242
G01 X6.1308 Y14.4235
G01 X6.1149 Y14.4211
G01 X6.0992 Y14.4172
G01 X6.0839 Y14.4117
G01 X6.0693 Y14.4048
G01 X6.0555 Y14.3965
G01 X6.0425 Y14.3868
G01 X6.0305 Y14.3760
G01 X6.0196 Y14.3640
G01 X6.0100 Y14.3510
G01 X6.0017 Y14.3372
G01 X5.9948 Y14.3226
G01 X5.9893 Y14.3073
G01 X5.9854 Y14.2916
G01 X5.9830 Y14.2756
G01 X5.9822 Y14.2595
G01 X5.9830 Y14.2434
G01 X5.9854 Y14.2274
G01 X5.9893 Y14.2117
G01 X5.9948 Y14.1964
G01 X6.0017 Y14.1818
G01 X6.0100 Y14.1680
G01 X6.0196 Y14.1550
G01 X6.0305 Y14.1430
G01 X6.0425 Y14.1322
G01 X6.0555 Y14.1225
G01 X6.0693 Y14.1142
G01 X6.0839 Y14.1073
G01 X6.0992 Y14.1018
G01 X6.1149 Y14.0979
G01 X6.1308 Y14.0955
G01 X6.1454 Y14.0948
G01 X15.4844 Y14.0947
G01 X15.4844 Y13.4235
G01 X6.1454 Y13.4235
G01 X6.1308 Y13.4227
G01 X6.1149 Y13.4203
G01 X6.0992 Y13.4164
G01 X6.0839 Y13.4109
G01 X6.0693 Y13.4040
G01 X6.0555 Y13.3957
G01 X6.0425 Y13.3861
G01 X6.0305 Y13.3752
G01 X6.0196 Y13.3633
G01 X6.0100 Y13.3503
G01 X6.0017 Y13.3364
G01 X5.9948 Y13.3218
G01 X5.9893 Y13.3066
G01 X5.9854 Y13.2909
G01 X5.9830 Y13.2749
G01 X5.9822 Y13.2587
G01 X5.9830 Y13.2426
G01 X5.9854 Y13.2266
G01 X5.9893 Y13.2109
G01 X5.9948 Y13.1957
G01 X6.0017 Y13.1811
G01 X6.0100 Y13.1672
G01 X6.0196 Y13.1542
G01 X6.0305 Y13.1422
G01 X6.0425 Y13.1314
G01 X6.0555 Y13.1217
G01 X6.0693 Y13.1134
G01 X6.0839 Y13.1065
G01 X6.0992 Y13.1011
G01 X6.1149 Y13.0972
G01 X6.1308 Y13.0948
G01 X6.1454 Y13.0940
G01 X15.4844 Y13.0940
G01 X15.4844 Y12.4253
G01 X6.1454 Y12.4253
G01 X6.1308 Y12.4245
G01 X6.1149 Y12.4221
G01 X6.0992 Y12.4182
G01 X6.0839 Y12.4127
G01 X6.0693 Y12.4058
G01 X6.0555 Y12.3975
G01 X6.0425 Y12.3879
G01 X6.0305 Y12.3770
G01 X6.0196 Y12.3650
G01 X6.0100 Y12.3520
G01 X6.0017 Y12.3382
G01 X5.9948 Y12.3236
G01 X5.9893 Y12.3083
G01 X5.9854 Y12.2926
G01 X5.9830 Y12.2767
G01 X5.9822 Y12.2605
G01 X5.9830 Y12.2444
G01 X5.9854 Y12.2284
G01 X5.9893 Y12.2127
G01 X5.9948 Y12.1975
G01 X6.0017 Y12.1829
G01 X6.0100 Y12.1690
G01 X6.0196 Y12.1560
G01 X6.0305 Y12.1440
G01 X6.0425 Y12.1332
G01 X6.0555 Y12.1235
G01 X6.0693 Y12.1152
G01 X6.0839 Y12.1083
G01 X6.0992 Y12.1029
G01 X6.1149 Y12.0989
G01 X6.1308 Y12.0966
G01 X6.1454 Y12.0958
G01 X15.4844 Y12.0958
G01 X15.4844 Y11.4245
G01 X6.1454 Y11.4245
G01 X6.1308 Y11.4237
G01 X6.1149 Y11.4213
G01 X6.0992 Y11.4174
G01 X6.0839 Y11.4120
G01 X6.0693 Y11.4051
G01 X6.0555 Y11.3968
G01 X6.0425 Y11.3871
G01 X6.0305 Y11.3763
G01 X6.0196 Y11.3643
G01 X6.0100 Y11.3513
G01 X6.0017 Y11.3374
G01 X5.9948 Y11.3228
G01 X5.9893 Y11.3076
G01 X5.9854 Y11.2919
G01 X5.9830 Y11.2759
G01 X5.9822 Y11.2598
G01 X5.9830 Y11.2436
G01 X5.9854 Y11.2276
G01 X5.9893 Y11.2119
G01 X5.9948 Y11.1967
G01 X6.0017 Y11.1821
G01 X6.0100 Y11.1682
G01 X6.0196 Y11.1552
G01 X6.0305 Y11.1433
G01 X6.0425 Y11.1324
G01 X6.0555 Y11.1228
G01 X6.0693 Y11.1145
G01 X6.0839 Y11.1076
G01 X6.0992 Y11.1021
G01 X6.1149 Y11.0982
G01 X6.1308 Y11.0958
G01 X6.1454 Y11.0950
G01 X15.4844 Y11.0950
G01 X15.4844 Y10.4237
G01 X6.1454 Y10.4237
G01 X6.1308 Y10.4230
G01 X6.1149 Y10.4206
G01 X6.0992 Y10.4167
G01 X6.0839 Y10.4112
G01 X6.0693 Y10.4043
G01 X6.0555 Y10.3960
G01 X6.0425 Y10.3863
G01 X6.0305 Y10.3755
G01 X6.0196 Y10.3635
G01 X6.0100 Y10.3505
G01 X6.0017 Y10.3367
G01 X5.9948 Y10.3221
G01 X5.9893 Y10.3068
G01 X5.9854 Y10.2911
G01 X5.9830 Y10.2751
G01 X5.9822 Y10.2590
G01 X5.9830 Y10.2429
G01 X5.9854 Y10.2269
G01 X5.9893 Y10.2112
G01 X5.9948 Y10.1959
G01 X6.0017 Y10.1813
G01 X6.0100 Y10.1675
G01 X6.0196 Y10.1545
G01 X6.0305 Y10.1425
G01 X6.0425 Y10.1317
G01 X6.0555 Y10.1220
G01 X6.0693 Y10.1137
G01 X6.0839 Y10.1068
G01 X6.0992 Y10.1013
G01 X6.1149 Y10.0974
G01 X6.1308 Y10.0950
G01 X6.1454 Y10.0943
G01 X15.4844 Y10.0942
G01 X15.4844 Y9.4230
G01 X6.1454 Y9.4230
G01 X6.1308 Y9.4222
G01 X6.1149 Y9.4198
G01 X6.0992 Y9.4159
G01 X6.0839 Y9.4104
G01 X6.0693 Y9.4035
G01 X6.0555 Y9.3952
G01 X6.0425 Y9.3856
G01 X6.0305 Y9.3747
G01 X6.0196 Y9.3628
G01 X6.0100 Y9.3498
G01 X6.0017 Y9.3359
G01 X5.9948 Y9.3213
G01 X5.9893 Y9.3061
G01 X5.9854 Y9.2904
G01 X5.9830 Y9.2744
G01 X5.9822 Y9.2582
G01 X5.9830 Y9.2421
G01 X5.9854 Y9.2261
G01 X5.9893 Y9.2104
G01 X5.9948 Y9.1952
G01 X6.0017 Y9.1806
G01 X6.0100 Y9.1667
G01 X6.0196 Y9.1537
G01 X6.0305 Y9.1417
G01 X6.0425 Y9.1309
G01 X6.0555 Y9.1212
G01 X6.0693 Y9.1129
G01 X6.0839 Y9.1060
G01 X6.0992 Y9.1006
G01 X6.1149 Y9.0967
G01 X6.1308 Y9.0943
G01 X6.1454 Y9.0935
G01 X15.4844 Y9.0935
G01 X15.4844 Y8.6813
G01 X4.5468 Y8.6813
G01 X4.5390 Y8.6808
G01 X4.5329 Y8.6798
G01 X4.5255 Y8.6776
G01 X4.5184 Y8.6746
G01 X4.5104 Y8.6698
G01 X4.5044 Y8.6650
G01 X4.4980 Y8.6582
G01 X4.4926 Y8.6506
G01 X4.4890 Y8.6438
G01 X4.4859 Y8.6350
G01 X4.4843 Y8.6274
G01 X4.4836 Y8.6182
G01 X4.4836 Y4.6202
G01 X4.4839 Y4.6140
G01 X4.4848 Y4.6079
G01 X4.4873 Y4.5989
G01 X4.4911 Y4.5904
G01 X4.4961 Y4.5826
G01 X4.5021 Y4.5755
G01 X5.5029 Y3.5748
G01 X5.5112 Y3.5678
G01 X5.5191 Y3.5630
G01 X5.5277 Y3.5595
G01 X5.5367 Y3.5572
G01 X5.5475 Y3.5563
G01 X15.5475 Y3.5563
G01 X15.5537 Y3.5566
G01 X15.5644 Y3.5586
G01 X15.5745 Y3.5624
G01 X15.5839 Y3.5678
G01 X15.5922 Y3.5748
G01 X16.5929 Y4.5755
G01 X16.5990 Y4.5826
G01 X16.6047 Y4.5918
G01 X16.6082 Y4.6004
G01 X16.6105 Y4.6094
G01 X16.6114 Y4.6202
G01 X16.6114 Y61.6219
G01 X16.6110 Y61.6281
G01 X16.6099 Y61.6342
G01 X16.6066 Y61.6445
G01 X16.6040 Y61.6501
G01 X16.6008 Y61.6554
G01 X16.5940 Y61.6639
G01 X16.5895 Y61.6682
G01 X16.5846 Y61.6720
G01 X16.5794 Y61.6753
G01 X16.5739 Y61.6781
G01 X16.5636 Y61.6816
G01 X16.5575 Y61.6828
G01 X16.5514 Y61.6834
G01 X15.5475 Y61.6835
G01 X15.5413 Y61.6832
G01 X15.5352 Y61.6823
G01 X15.5292 Y61.6808
G01 X15.5234 Y61.6787
G01 X15.5178 Y61.6760
G01 X15.5124 Y61.6728
G01 X15.5075 Y61.6692
G01 X15.5029 Y61.6650
G01 X15.4987 Y61.6604
G01 X15.4950 Y61.6554
G01 X15.4918 Y61.6501
G01 X15.4892 Y61.6445
G01 X15.4871 Y61.6387
G01 X15.4856 Y61.6327
G01 X15.4847 Y61.6265
G01 X15.4844 Y61.6203
G00 Z2.0000
G00 X5.5029 Y67.6645
G01 F60.00
G01 Z-0.0999
G01 F120.00
G01 X4.5021 Y66.6637
G01 X4.4980 Y66.6591
G01 X4.4943 Y66.6541
G01 X4.4890 Y66.6447
G01 X4.4868 Y66.6389
G01 X4.4852 Y66.6329
G01 X4.4841 Y66.6268
G01 X4.4836 Y66.6206
G01 X4.4836 Y9.6189
G01 X4.4846 Y9.6081
G01 X4.4873 Y9.5976
G01 X4.4897 Y9.5919
G01 X4.4926 Y9.5865
G01 X4.4990 Y9.5777
G01 X4.5067 Y9.5701
G01 X4.5157 Y9.5640
G01 X4.5255 Y9.5595
G01 X4.5360 Y9.5567
G01 X4.5468 Y9.5558
G01 X5.5491 Y9.5558
G01 X5.5568 Y9.5565
G01 X5.5659 Y9.5585
G01 X5.5745 Y9.5618
G01 X5.5826 Y9.5664
G01 X5.5899 Y9.5721
G01 X5.5964 Y9.5789
G01 X5.6017 Y9.5865
G01 X5.6055 Y9.5939
G01 X14.9506 Y9.5939
G01 X14.9668 Y9.5947
G01 X14.9812 Y9.5967
G01 X14.9984 Y9.6010
G01 X15.0122 Y9.6058
G01 X15.0269 Y9.6126
G01 X15.0395 Y9.6199
G01 X15.0447 Y9.6234
G01 X15.0575 Y9.6333
G01 X15.0682 Y9.6432
G01 X15.0799 Y9.6565
G01 X15.0876 Y9.6671
G01 X15.0959 Y9.6810
G01 X15.1028 Y9.6956
G01 X15.1083 Y9.7108
G01 X15.1122 Y9.7265
G01 X15.1146 Y9.7425
G01 X15.1154 Y9.7586
G01 X15.1146 Y9.7748
G01 X15.1122 Y9.7907
G01 X15.1083 Y9.8064
G01 X15.1028 Y9.8217
G01 X15.0973 Y9.8336
G01 X15.0893 Y9.8475
G01 X15.0858 Y9.8527
G01 X15.0770 Y9.8643
G01 X15.0649 Y9.8772
G01 X15.0551 Y9.8860
G01 X15.0421 Y9.8956
G01 X15.0283 Y9.9039
G01 X15.0137 Y9.9108
G01 X14.9984 Y9.9163
G01 X14.9827 Y9.9202
G01 X14.9668 Y9.9226
G01 X14.9522 Y9.9234
G01 X5.6107 Y9.9234
G01 X5.6107 Y10.5946
G01 X14.9522 Y10.5946
G01 X14.9668 Y10.5954
G01 X14.9827 Y10.5978
G01 X14.9984 Y10.6017
G01 X15.0137 Y10.6072
G01 X15.0283 Y10.6141
G01 X15.0421 Y10.6224
G01 X15.0551 Y10.6320
G01 X15.0671 Y10.6429
G01 X15.0780 Y10.6549
G01 X15.0876 Y10.6679
G01 X15.0959 Y10.6817
G01 X15.1028 Y10.6963
G01 X15.1083 Y10.7116
G01 X15.1122 Y10.7273
G01 X15.1146 Y10.7432
G01 X15.1154 Y10.7594
G01 X15.1146 Y10.7755
G01 X15.1122 Y10.7915
G01 X15.1083 Y10.8072
G01 X15.1028 Y10.8224
G01 X15.0959 Y10.8370
G01 X15.0876 Y10.8509
G01 X15.0780 Y10.8639
G01 X15.0671 Y10.8759
G01 X15.0551 Y10.8867
G01 X15.0421 Y10.8964
G01 X15.0283 Y10.9047
G01 X15.0137 Y10.9116
G01 X14.9984 Y10.9170
G01 X14.9827 Y10.9210
G01 X14.9668 Y10.9233
G01 X14.9522 Y10.9241
G01 X5.6107 Y10.9241
G01 X5.6107 Y11.5954
G01 X14.9522 Y11.5954
G01 X14.9668 Y11.5962
G01 X14.9827 Y11.5986
G01 X14.9984 Y11.6025
G01 X15.0137 Y11.6079
G01 X15.0283 Y11.6148
G01 X15.0421 Y11.6231
G01 X15.0551 Y11.6328
G01 X15.0671 Y11.6436
G01 X15.0780 Y11.6556
G01 X15.0876 Y11.6686
G01 X15.0959 Y11.6825
G01 X15.1028 Y11.6971
G01 X15.1083 Y11.7123
G01 X15.1122 Y11.7280
G01 X15.1146 Y11.7440
G01 X15.1154 Y11.7601
G01 X15.1146 Y11.7763
G01 X15.1122 Y11.7923
G01 X15.1083 Y11.8080
G01 X15.1028 Y11.8232
G01 X15.0959 Y11.8378
G01 X15.0876 Y11.8517
G01 X15.0780 Y11.8647
G01 X15.0671 Y11.8766
G01 X15.0551 Y11.8875
G01 X15.0421 Y11.8971
G01 X15.0283 Y11.9054
G01 X15.0137 Y11.9123
G01 X14.9984 Y11.9178
G01 X14.9827 Y11.9217
G01 X14.9668 Y11.9241
G01 X14.9522 Y11.9249
G01 X5.6107 Y11.9249
G01 X5.6107 Y12.5936
G01 X14.9522 Y12.5936
G01 X14.9668 Y12.5944
G01 X14.9827 Y12.5968
G01 X14.9984 Y12.6007
G01 X15.0137 Y12.6062
G01 X15.0283 Y12.6131
G01 X15.0421 Y12.6214
G01 X15.0551 Y12.6310
G01 X15.0671 Y12.6419
G01 X15.0780 Y12.6538
G01 X15.0876 Y12.6668
G01 X15.0959 Y12.6807
G01 X15.1028 Y12.6953
G01 X15.1083 Y12.7105
G01 X15.1122 Y12.7262
G01 X15.1146 Y12.7422
G01 X15.1154 Y12.7584
G01 X15.1146 Y12.7745
G01 X15.1122 Y12.7905
G01 X15.1083 Y12.8062
G01 X15.1028 Y12.8214
G01 X15.0959 Y12.8360
G01 X15.0876 Y12.8499
G01 X15.0780 Y12.8629
G01 X15.0671 Y12.8749
G01 X15.0551 Y12.8857
G01 X15.0421 Y12.8954
G01 X15.0283 Y12.9037
G01 X15.0137 Y12.9106
G01 X14.9984 Y12.9160
G01 X14.9827 Y12.9199
G01 X14.9668 Y12.9223
G01 X14.9522 Y12.9231
G01 X5.6107 Y12.9231
G01 X5.6107 Y13.5944
G01 X14.9522 Y13.5944
G01 X14.9668 Y13.5952
G01 X14.9827 Y13.5975
G01 X14.9984 Y13.6015
G01 X15.0137 Y13.6069
G01 X15.0283 Y13.6138
G01 X15.0421 Y13.6221
G01 X15.0551 Y13.6318
G01 X15.0671 Y13.6426
G01 X15.0780 Y13.6546
G01 X15.0876 Y13.6676
G01 X15.0959 Y13.6815
G01 X15.1028 Y13.6961
G01 X15.1083 Y13.7113
G01 X15.1122 Y13.7270
G01 X15.1146 Y13.7430
G01 X15.1154 Y13.7591
G01 X15.1146 Y13.7753
G01 X15.1122 Y13.7912
G01 X15.1083 Y13.8069
G01 X15.1028 Y13.8222
G01 X15.0959 Y13.8368
G01 X15.0876 Y13.8506
G01 X15.0780 Y13.8636
G01 X15.0671 Y13.8756
G01 X15.0551 Y13.8865
G01 X15.0421 Y13.8961
G01 X15.0283 Y13.9044
G01 X15.0137 Y13.9113
G01 X14.9984 Y13.9168
G01 X14.9827 Y13.9207
G01 X14.9668 Y13.9231
G01 X14.9522 Y13.9239
G01 X5.6107 Y13.9239
G01 X5.6107 Y14.5951
G01 X14.9522 Y14.5951
G01 X14.9668 Y14.5959
G01 X14.9827 Y14.5983
G01 X14.9984 Y14.6022
G01 X15.0137 Y14.6077
G01 X15.0283 Y14.6146
G01 X15.0421 Y14.6229
G01 X15.0551 Y14.6325
G01 X15.0671 Y14.6434
G01 X15.0780 Y14.6554
G01 X15.0876 Y14.6684
G01 X15.0959 Y14.6822
G01 X15.1028 Y14.6968
G01 X15.1083 Y14.7121
G01 X15.1122 Y14.7278
G01 X15.1146 Y14.7437
G01 X15.1154 Y14.7599
G01 X15.1146 Y14.7760
G01 X15.1122 Y14.7920
G01 X15.1083 Y14.8077
G01 X15.1028 Y14.8229
G01 X15.0959 Y14.8375
G01 X15.0876 Y14.8514
G01 X15.0780 Y14.8644
G01 X15.0671 Y14.8764
G01 X15.0551 Y14.8872
G01 X15.0421 Y14.8969
G01 X15.0283 Y14.9052
G01 X15.0137 Y14.9121
G01 X14.9984 Y14.9175
G01 X14.9827 Y14.9215
G01 X14.9668 Y14.9238
G01 X14.9522 Y14.9246
G01 X5.6107 Y14.9246
G01 X5.6107 Y15.5959
G01 X14.9522 Y15.5959
G01 X14.9668 Y15.5967
G01 X14.9827 Y15.5991
G01 X14.9984 Y15.6030
G01 X15.0137 Y15.6084
G01 X15.0283 Y15.6153
G01 X15.0421 Y15.6236
G01 X15.0551 Y15.6333
G01 X15.0671 Y15.6441
G01 X15.0780 Y15.6561
G01 X15.0876 Y15.6691
G01 X15.0959 Y15.6830
G01 X15.1028 Y15.6976
G01 X15.1083 Y15.7128
G01 X15.1122 Y15.7285
G01 X15.1146 Y15.7445
G01 X15.1154 Y15.7606
G01 X15.1146 Y15.7768
G01 X15.1122 Y15.7928
G01 X15.1083 Y15.8085
G01 X15.1028 Y15.8237
G01 X15.0959 Y15.8383
G01 X15.0876 Y15.8522
G01 X15.0780 Y15.8652
G01 X15.0671 Y15.8771
G01 X15.0551 Y15.8880
G01 X15.0421 Y15.8976
G01 X15.0283 Y15.9059
G01 X15.0137 Y15.9128
G01 X14.9984 Y15.9183
G01 X14.9827 Y15.9222
G01 X14.9668 Y15.9246
G01 X14.9522 Y15.9254
G01 X5.6107 Y15.9254
G01 X5.6107 Y16.5941
G01 X14.9522 Y16.5941
G01 X14.9668 Y16.5949
G01 X14.9827 Y16.5973
G01 X14.9984 Y16.6012
G01 X15.0137 Y16.6067
G01 X15.0283 Y16.6136
G01 X15.0421 Y16.6219
G01 X15.0551 Y16.6315
G01 X15.0671 Y16.6424
G01 X15.0780 Y16.6543
G01 X15.0876 Y16.6673
G01 X15.0959 Y16.6812
G01 X15.1028 Y16.6958
G01 X15.1083 Y16.7110
G01 X15.1122 Y16.7267
G01 X15.1146 Y16.7427
G01 X15.1154 Y16.7589
G01 X15.1146 Y16.7750
G01 X15.1122 Y16.7910
G01 X15.1083 Y16.8067
G01 X15.1028 Y16.8219
G01 X15.0959 Y16.8365
G01 X15.0876 Y16.8504
G01 X15.0780 Y16.8634
G01 X15.0671 Y16.8754
G01 X15.0551 Y16.8862
G01 X15.0421 Y16.8959
G01 X15.0283 Y16.9042
G01 X15.0137 Y16.9111
G01 X14.9984 Y16.9165
G01 X14.9827 Y16.9204
G01 X14.9668 Y16.9228
G01 X14.9522 Y16.9236
G01 X5.6107 Y16.9236
G01 X5.6107 Y17.5949
G01 X14.9522 Y17.5949
G01 X14.9668 Y17.5957
G01 X14.9827 Y17.5980
G01 X14.9984 Y17.6020
G01 X15.0137 Y17.6074
G01 X15.0283 Y17.6143
G01 X15.0421 Y17.6226
G01 X15.0551 Y17.6323
G01 X15.0671 Y17.6431
G01 X15.0780 Y17.6551
G01 X15.0876 Y17.6681
G01 X15.0959 Y17.6820
G01 X15.1028 Y17.6966
G01 X15.1083 Y17.7118
G01 X15.1122 Y17.7275
G01 X15.1146 Y17.7435
G01 X15.1154 Y17.7596
G01 X15.1146 Y17.7758
G01 X15.1122 Y17.7917
G01 X15.1083 Y17.8074
G01 X15.1028 Y17.8227
G01 X15.0959 Y17.8373
G01 X15.0876 Y17.8511
G01 X15.0780 Y17.8641
G01 X15.0671 Y17.8761
G01 X15.0551 Y17.8870
G01 X15.0421 Y17.8966
G01 X15.0283 Y17.9049
G01 X15.0137 Y17.9118
G01 X14.9984 Y17.9173
G01 X14.9827 Y17.9212
G01 X14.9668 Y17.9236
G01 X14.9522 Y17.9244
G01 X5.6107 Y17.9244
G01 X5.6107 Y18.5956
G01 X14.9522 Y18.5956
G01 X14.9668 Y18.5964
G01 X14.9827 Y18.5988
G01 X14.9984 Y18.6027
G01 X15.0137 Y18.6082
G01 X15.0283 Y18.6151
G01 X15.0421 Y18.6234
G01 X15.0551 Y18.6330
G01 X15.0671 Y18.6439
G01 X15.0780 Y18.6559
G01 X15.0876 Y18.6689
G01 X15.0959 Y18.6827
G01 X15.1028 Y18.6973
G01 X15.1083 Y18.7126
G01 X15.1122 Y18.7283
G01 X15.1146 Y18.7442
G01 X15.1154 Y18.7604
G01 X15.1146 Y18.7765
G01 X15.1122 Y18.7925
G01 X15.1083 Y18.8082
G01 X15.1028 Y18.8234
G01 X15.0959 Y18.8380
G01 X15.0876 Y18.8519
G01 X15.0780 Y18.8649
G01 X15.0671 Y18.8769
G01 X15.0551 Y18.8877
G01 X15.0421 Y18.8974
G01 X15.0283 Y18.9057
G01 X15.0137 Y18.9126
G01 X14.9984 Y18.9180
G01 X14.9827 Y18.9220
G01 X14.9668 Y18.9243
G01 X14.9522 Y18.9251
G01 X5.6107 Y18.9251
G01 X5.6107 Y19.5939
G01 X14.9522 Y19.5939
G01 X14.9668 Y19.5946
G01 X14.9827 Y19.5970
G01 X14.9984 Y19.6009
G01 X15.0137 Y19.6064
G01 X15.0283 Y19.6133
G01 X15.0421 Y19.6216
G01 X15.0551 Y19.6313
G01 X15.0671 Y19.6421
G01 X15.0780 Y19.6541
G01 X15.0876 Y19.6671
G01 X15.0959 Y19.6809
G01 X15.1028 Y19.6955
G01 X15.1083 Y19.7108
G01 X15.1122 Y19.7265
G01 X15.1146 Y19.7425
G01 X15.1154 Y19.7586
G01 X15.1146 Y19.7747
G01 X15.1122 Y19.7907
G01 X15.1083 Y19.8064
G01 X15.1028 Y19.8217
G01 X15.0959 Y19.8363
G01 X15.0876 Y19.8501
G01 X15.0780 Y19.8631
G01 X15.0671 Y19.8751
G01 X15.0551 Y19.8859
G01 X15.0421 Y19.8956
G01 X15.0283 Y19.9039
G01 X15.0137 Y19.9108
G01 X14.9984 Y19.9163
G01 X14.9827 Y19.9202
G01 X14.9668 Y19.9226
G01 X14.9522 Y19.9233
G01 X5.6107 Y19.9234
G01 X5.6107 Y20.5946
G01 X14.9522 Y20.5946
G01 X14.9668 Y20.5954
G01 X14.9827 Y20.5978
G01 X14.9984 Y20.6017
G01 X15.0137 Y20.6072
G01 X15.0283 Y20.6141
G01 X15.0421 Y20.6224
G01 X15.0551 Y20.6320
G01 X15.0671 Y20.6429
G01 X15.0780 Y20.6548
G01 X15.0876 Y20.6678
G01 X15.0959 Y20.6817
G01 X15.1028 Y20.6963
G01 X15.1083 Y20.7115
G01 X15.1122 Y20.7272
G01 X15.1146 Y20.7432
G01 X15.1154 Y20.7594
G01 X15.1146 Y20.7755
G01 X15.1122 Y20.7915
G01 X15.1083 Y20.8072
G01 X15.1028 Y20.8224
G01 X15.0959 Y20.8370
G01 X15.0876 Y20.8509
G01 X15.0780 Y20.8639
G01 X15.0671 Y20.8759
G01 X15.0551 Y20.8867
G01 X15.0421 Y20.8964
G01 X15.0283 Y20.9047
G01 X15.0137 Y20.9116
G01 X14.9984 Y20.9170
G01 X14.9827 Y20.9209
G01 X14.9668 Y20.9233
G01 X14.9522 Y20.9241
G01 X5.6107 Y20.9241
G01 X5.6107 Y21.5954
G01 X14.9522 Y21.5954
G01 X14.9668 Y21.5962
G01 X14.9827 Y21.5985
G01 X14.9984 Y21.6025
G01 X15.0137 Y21.6079
G01 X15.0283 Y21.6148
G01 X15.0421 Y21.6231
G01 X15.0551 Y21.6328
G01 X15.0671 Y21.6436
G01 X15.0780 Y21.6556
G01 X15.0876 Y21.6686
G01 X15.0959 Y21.6825
G01 X15.1028 Y21.6971
G01 X15.1083 Y21.7123
G01 X15.1122 Y21.7280
G01 X15.1146 Y21.7440
G01 X15.1154 Y21.7601
G01 X15.1146 Y21.7763
G01 X15.1122 Y21.7922
G01 X15.1083 Y21.8079
G01 X15.1028 Y21.8232
G01 X15.0959 Y21.8378
G01 X15.0876 Y21.8516
G01 X15.0780 Y21.8646
G01 X15.0671 Y21.8766
G01 X15.0551 Y21.8875
G01 X15.0421 Y21.8971
G01 X15.0283 Y21.9054
G01 X15.0137 Y21.9123
G01 X14.9984 Y21.9178
G01 X14.9827 Y21.9217
G01 X14.9668 Y21.9241
G01 X14.9522 Y21.9249
G01 X5.6107 Y21.9249
G01 X5.6107 Y22.5936
G01 X14.9522 Y22.5936
G01 X14.9668 Y22.5944
G01 X14.9827 Y22.5968
G01 X14.9984 Y22.6007
G01 X15.0137 Y22.6061
G01 X15.0283 Y22.6130
G01 X15.0421 Y22.6213
G01 X15.0551 Y22.6310
G01 X15.0671 Y22.6418
G01 X15.0780 Y22.6538
G01 X15.0876 Y22.6668
G01 X15.0959 Y22.6807
G01 X15.1028 Y22.6953
G01 X15.1083 Y22.7105
G01 X15.1122 Y22.7262
G01 X15.1146 Y22.7422
G01 X15.1154 Y22.7583
G01 X15.1146 Y22.7745
G01 X15.1122 Y22.7905
G01 X15.1083 Y22.8062
G01 X15.1028 Y22.8214
G01 X15.0959 Y22.8360
G01 X15.0876 Y22.8499
G01 X15.0780 Y22.8629
G01 X15.0671 Y22.8748
G01 X15.0551 Y22.8857
G01 X15.0421 Y22.8953
G01 X15.0283 Y22.9036
G01 X15.0137 Y22.9105
G01 X14.9984 Y22.9160
G01 X14.9827 Y22.9199
G01 X14.9668 Y22.9223
G01 X14.9522 Y22.9231
G01 X5.6107 Y22.9231
G01 X5.6107 Y23.5944
G01 X14.9522 Y23.5944
G01 X14.9668 Y23.5951
G01 X14.9827 Y23.5975
G01 X14.9984 Y23.6014
G01 X15.0137 Y23.6069
G01 X15.0283 Y23.6138
G01 X15.0421 Y23.6221
G01 X15.0551 Y23.6318
G01 X15.0671 Y23.6426
G01 X15.0780 Y23.6546
G01 X15.0876 Y23.6676
G01 X15.0959 Y23.6814
G01 X15.1028 Y23.6960
G01 X15.1083 Y23.7113
G01 X15.1122 Y23.7270
G01 X15.1146 Y23.7430
G01 X15.1154 Y23.7591
G01 X15.1146 Y23.7752
G01 X15.1122 Y23.7912
G01 X15.1083 Y23.8069
G01 X15.1028 Y23.8222
G01 X15.0959 Y23.8368
G01 X15.0876 Y23.8506
G01 X15.0780 Y23.8636
G01 X15.0671 Y23.8756
G01 X15.0551 Y23.8864
G01 X15.0421 Y23.8961
G01 X15.0283 Y23.9044
G01 X15.0137 Y23.9113
G01 X14.9984 Y23.9168
G01 X14.9827 Y23.9207
G01 X14.9668 Y23.9231
G01 X14.9522 Y23.9238
G01 X5.6107 Y23.9239
G01 X5.6107 Y24.5951
G01 X14.9522 Y24.5951
G01 X14.9668 Y24.5959
G01 X14.9827 Y24.5983
G01 X14.9984 Y24.6022
G01 X15.0137 Y24.6077
G01 X15.0283 Y24.6146
G01 X15.0421 Y24.6229
G01 X15.0551 Y24.6325
G01 X15.0671 Y24.6434
G01 X15.0780 Y24.6553
G01 X15.0876 Y24.6683
G01 X15.0959 Y24.6822
G01 X15.1028 Y24.6968
G01 X15.1083 Y24.7120
G01 X15.1122 Y24.7277
G01 X15.1146 Y24.7437
G01 X15.1154 Y24.7599
G01 X15.1146 Y24.7760
G01 X15.1122 Y24.7920
G01 X15.1083 Y24.8077
G01 X15.1028 Y24.8229
G01 X15.0959 Y24.8375
G01 X15.0876 Y24.8514
G01 X15.0780 Y24.8644
G01 X15.0671 Y24.8764
G01 X15.0551 Y24.8872
G01 X15.0421 Y24.8969
G01 X15.0283 Y24.9052
G01 X15.0137 Y24.9121
G01 X14.9984 Y24.9175
G01 X14.9827 Y24.9214
G01 X14.9668 Y24.9238
G01 X14.9522 Y24.9246
G01 X5.6107 Y24.9246
G01 X5.6107 Y25.5959
G01 X14.9522 Y25.5959
G01 X14.9668 Y25.5967
G01 X14.9827 Y25.5990
G01 X14.9984 Y25.6030
G01 X15.0137 Y25.6084
G01 X15.0283 Y25.6153
G01 X15.0421 Y25.6236
G01 X15.0551 Y25.6333
G01 X15.0671 Y25.6441
G01 X15.0780 Y25.6561
G01 X15.0876 Y25.6691
G01 X15.0959 Y25.6830
G01 X15.1028 Y25.6976
G01 X15.1083 Y25.7128
G01 X15.1122 Y25.7285
G01 X15.1146 Y25.7445
G01 X15.1154 Y25.7606
G01 X15.1146 Y25.7768
G01 X15.1122 Y25.7927
G01 X15.1083 Y25.8084
G01 X15.1028 Y25.8237
G01 X15.0959 Y25.8383
G01 X15.0876 Y25.8521
G01 X15.0780 Y25.8651
G01 X15.0671 Y25.8771
G01 X15.0551 Y25.8880
G01 X15.0421 Y25.8976
G01 X15.0283 Y25.9059
G01 X15.0137 Y25.9128
G01 X14.9984 Y25.9183
G01 X14.9827 Y25.9222
G01 X14.9668 Y25.9246
G01 X14.9522 Y25.9254
G01 X5.6107 Y25.9254
G01 X5.6107 Y26.5941
G01 X14.9522 Y26.5941
G01 X14.9668 Y26.5949
G01 X14.9827 Y26.5973
G01 X14.9984 Y26.6012
G01 X15.0137 Y26.6066
G01 X15.0283 Y26.6135
G01 X15.0421 Y26.6218
G01 X15.0551 Y26.6315
G01 X15.0671 Y26.6423
G01 X15.0780 Y26.6543
G01 X15.0876 Y26.6673
G01 X15.0959 Y26.6812
G01 X15.1028 Y26.6958
G01 X15.1083 Y26.7110
G01 X15.1122 Y26.7267
G01 X15.1146 Y26.7427
G01 X15.1154 Y26.7588
G01 X15.1146 Y26.7750
G01 X15.1122 Y26.7910
G01 X15.1083 Y26.8067
G01 X15.1028 Y26.8219
G01 X15.0959 Y26.8365
G01 X15.0876 Y26.8504
G01 X15.0780 Y26.8634
G01 X15.0671 Y26.8753
G01 X15.0551 Y26.8862
G01 X15.0421 Y26.8958
G01 X15.0283 Y26.9041
G01 X15.0137 Y26.9110
G01 X14.9984 Y26.9165
G01 X14.9827 Y26.9204
G01 X14.9668 Y26.9228
G01 X14.9522 Y26.9236
G01 X5.6107 Y26.9236
G01 X5.6107 Y27.5949
G01 X14.9522 Y27.5949
G01 X14.9668 Y27.5956
G01 X14.9827 Y27.5980
G01 X14.9984 Y27.6019
G01 X15.0137 Y27.6074
G01 X15.0283 Y27.6143
G01 X15.0421 Y27.6226
G01 X15.0551 Y27.6323
G01 X15.0671 Y27.6431
G01 X15.0780 Y27.6551
G01 X15.0876 Y27.6681
G01 X15.0959 Y27.6819
G01 X15.1028 Y27.6965
G01 X15.1083 Y27.7118
G01 X15.1122 Y27.7275
G01 X15.1146 Y27.7435
G01 X15.1154 Y27.7596
G01 X15.1146 Y27.7757
G01 X15.1122 Y27.7917
G01 X15.1083 Y27.8074
G01 X15.1028 Y27.8227
G01 X15.0959 Y27.8373
G01 X15.0876 Y27.8511
G01 X15.0780 Y27.8641
G01 X15.0671 Y27.8761
G01 X15.0551 Y27.8869
G01 X15.0421 Y27.8966
G01 X15.0283 Y27.9049
G01 X15.0137 Y27.9118
G01 X14.9984 Y27.9173
G01 X14.9827 Y27.9212
G01 X14.9668 Y27.9236
G01 X14.9522 Y27.9243
G01 X5.6107 Y27.9244
G01 X5.6107 Y28.5956
G01 X14.9522 Y28.5956
G01 X14.9668 Y28.5964
G01 X14.9827 Y28.5988
G01 X14.9984 Y28.6027
G01 X15.0137 Y28.6082
G01 X15.0283 Y28.6151
G01 X15.0421 Y28.6234
G01 X15.0551 Y28.6330
G01 X15.0671 Y28.6439
G01 X15.0780 Y28.6558
G01 X15.0876 Y28.6688
G01 X15.0959 Y28.6827
G01 X15.1028 Y28.6973
G01 X15.1083 Y28.7125
G01 X15.1122 Y28.7282
G01 X15.1146 Y28.7442
G01 X15.1154 Y28.7604
G01 X15.1146 Y28.7765
G01 X15.1122 Y28.7925
G01 X15.1083 Y28.8082
G01 X15.1028 Y28.8234
G01 X15.0959 Y28.8380
G01 X15.0876 Y28.8519
G01 X15.0780 Y28.8649
G01 X15.0671 Y28.8769
G01 X15.0551 Y28.8877
G01 X15.0421 Y28.8974
G01 X15.0283 Y28.9057
G01 X15.0137 Y28.9126
G01 X14.9984 Y28.9180
G01 X14.9827 Y28.9219
G01 X14.9668 Y28.9243
G01 X14.9522 Y28.9251
G01 X5.6107 Y28.9251
G01 X5.6107 Y29.5938
G01 X14.9522 Y29.5938
G01 X14.9668 Y29.5946
G01 X14.9827 Y29.5970
G01 X14.9984 Y29.6009
G01 X15.0137 Y29.6064
G01 X15.0283 Y29.6133
G01 X15.0421 Y29.6216
G01 X15.0551 Y29.6312
G01 X15.0671 Y29.6421
G01 X15.0780 Y29.6541
G01 X15.0876 Y29.6671
G01 X15.0959 Y29.6809
G01 X15.1028 Y29.6955
G01 X15.1083 Y29.7108
G01 X15.1122 Y29.7265
G01 X15.1146 Y29.7424
G01 X15.1154 Y29.7586
G01 X15.1146 Y29.7747
G01 X15.1122 Y29.7907
G01 X15.1083 Y29.8064
G01 X15.1028 Y29.8216
G01 X15.0959 Y29.8362
G01 X15.0876 Y29.8501
G01 X15.0780 Y29.8631
G01 X15.0671 Y29.8751
G01 X15.0551 Y29.8859
G01 X15.0421 Y29.8956
G01 X15.0283 Y29.9039
G01 X15.0137 Y29.9108
G01 X14.9984 Y29.9162
G01 X14.9827 Y29.9202
G01 X14.9668 Y29.9225
G01 X14.9522 Y29.9233
G01 X5.6107 Y29.9233
G01 X5.6107 Y30.5946
G01 X14.9522 Y30.5946
G01 X14.9668 Y30.5954
G01 X14.9827 Y30.5978
G01 X14.9984 Y30.6017
G01 X15.0137 Y30.6071
G01 X15.0283 Y30.6140
G01 X15.0421 Y30.6223
G01 X15.0551 Y30.6320
G01 X15.0671 Y30.6428
G01 X15.0780 Y30.6548
G01 X15.0876 Y30.6678
G01 X15.0959 Y30.6817
G01 X15.1028 Y30.6963
G01 X15.1083 Y30.7115
G01 X15.1122 Y30.7272
G01 X15.1146 Y30.7432
G01 X15.1154 Y30.7593
G01 X15.1146 Y30.7755
G01 X15.1122 Y30.7915
G01 X15.1083 Y30.8072
G01 X15.1028 Y30.8224
G01 X15.0959 Y30.8370
G01 X15.0876 Y30.8509
G01 X15.0780 Y30.8639
G01 X15.0671 Y30.8758
G01 X15.0551 Y30.8867
G01 X15.0421 Y30.8963
G01 X15.0283 Y30.9046
G01 X15.0137 Y30.9115
G01 X14.9984 Y30.9170
G01 X14.9827 Y30.9209
G01 X14.9668 Y30.9233
G01 X14.9522 Y30.9241
G01 X5.6107 Y30.9241
G01 X5.6107 Y31.5954
G01 X14.9522 Y31.5954
G01 X14.9668 Y31.5961
G01 X14.9827 Y31.5985
G01 X14.9984 Y31.6024
G01 X15.0137 Y31.6079
G01 X15.0283 Y31.6148
G01 X15.0421 Y31.6231
G01 X15.0551 Y31.6328
G01 X15.0671 Y31.6436
G01 X15.0780 Y31.6556
G01 X15.0876 Y31.6686
G01 X15.0959 Y31.6824
G01 X15.1028 Y31.6970
G01 X15.1083 Y31.7123
G01 X15.1122 Y31.7280
G01 X15.1146 Y31.7440
G01 X15.1154 Y31.7601
G01 X15.1146 Y31.7762
G01 X15.1122 Y31.7922
G01 X15.1083 Y31.8079
G01 X15.1028 Y31.8232
G01 X15.0959 Y31.8378
G01 X15.0876 Y31.8516
G01 X15.0780 Y31.8646
G01 X15.0671 Y31.8766
G01 X15.0551 Y31.8874
G01 X15.0421 Y31.8971
G01 X15.0283 Y31.9054
G01 X15.0137 Y31.9123
G01 X14.9984 Y31.9178
G01 X14.9827 Y31.9217
G01 X14.9668 Y31.9241
G01 X14.9522 Y31.9248
G01 X5.6107 Y31.9249
G01 X5.6107 Y32.5936
G01 X14.9522 Y32.5936
G01 X14.9668 Y32.5944
G01 X14.9827 Y32.5967
G01 X14.9984 Y32.6007
G01 X15.0137 Y32.6061
G01 X15.0283 Y32.6130
G01 X15.0421 Y32.6213
G01 X15.0551 Y32.6310
G01 X15.0671 Y32.6418
G01 X15.0780 Y32.6538
G01 X15.0876 Y32.6668
G01 X15.0959 Y32.6807
G01 X15.1028 Y32.6953
G01 X15.1083 Y32.7105
G01 X15.1122 Y32.7262
G01 X15.1146 Y32.7422
G01 X15.1154 Y32.7583
G01 X15.1146 Y32.7745
G01 X15.1122 Y32.7904
G01 X15.1083 Y32.8061
G01 X15.1028 Y32.8214
G01 X15.0959 Y32.8360
G01 X15.0876 Y32.8498
G01 X15.0780 Y32.8628
G01 X15.0671 Y32.8748
G01 X15.0551 Y32.8857
G01 X15.0421 Y32.8953
G01 X15.0283 Y32.9036
G01 X15.0137 Y32.9105
G01 X14.9984 Y32.9160
G01 X14.9827 Y32.9199
G01 X14.9668 Y32.9223
G01 X14.9522 Y32.9231
G01 X5.6107 Y32.9231
G01 X5.6107 Y33.5943
G01 X14.9522 Y33.5943
G01 X14.9668 Y33.5951
G01 X14.9827 Y33.5975
G01 X14.9984 Y33.6014
G01 X15.0137 Y33.6069
G01 X15.0283 Y33.6138
G01 X15.0421 Y33.6221
G01 X15.0551 Y33.6317
G01 X15.0671 Y33.6426
G01 X15.0780 Y33.6546
G01 X15.0876 Y33.6676
G01 X15.0959 Y33.6814
G01 X15.1028 Y33.6960
G01 X15.1083 Y33.7113
G01 X15.1122 Y33.7270
G01 X15.1146 Y33.7429
G01 X15.1154 Y33.7591
G01 X15.1146 Y33.7752
G01 X15.1122 Y33.7912
G01 X15.1083 Y33.8069
G01 X15.1028 Y33.8221
G01 X15.0959 Y33.8367
G01 X15.0876 Y33.8506
G01 X15.0780 Y33.8636
G01 X15.0671 Y33.8756
G01 X15.0551 Y33.8864
G01 X15.0421 Y33.8961
G01 X15.0283 Y33.9044
G01 X15.0137 Y33.9113
G01 X14.9984 Y33.9167
G01 X14.9827 Y33.9207
G01 X14.9668 Y33.9230
G01 X14.9522 Y33.9238
G01 X5.6107 Y33.9238
G01 X5.6107 Y34.5951
G01 X14.9522 Y34.5951
G01 X14.9668 Y34.5959
G01 X14.9827 Y34.5983
G01 X14.9984 Y34.6022
G01 X15.0137 Y34.6076
G01 X15.0283 Y34.6145
G01 X15.0421 Y34.6228
G01 X15.0551 Y34.6325
G01 X15.0671 Y34.6433
G01 X15.0780 Y34.6553
G01 X15.0876 Y34.6683
G01 X15.0959 Y34.6822
G01 X15.1028 Y34.6968
G01 X15.1083 Y34.7120
G01 X15.1122 Y34.7277
G01 X15.1146 Y34.7437
G01 X15.1154 Y34.7598
G01 X15.1146 Y34.7760
G01 X15.1122 Y34.7920
G01 X15.1083 Y34.8077
G01 X15.1028 Y34.8229
G01 X15.0959 Y34.8375
G01 X15.0876 Y34.8514
G01 X15.0780 Y34.8644
G01 X15.0671 Y34.8763
G01 X15.0551 Y34.8872
G01 X15.0421 Y34.8968
G01 X15.0283 Y34.9051
G01 X15.0137 Y34.9120
G01 X14.9984 Y34.9175
G01 X14.9827 Y34.9214
G01 X14.9668 Y34.9238
G01 X14.9522 Y34.9246
G01 X5.6107 Y34.9246
G01 X5.6107 Y35.5959
G01 X14.9522 Y35.5959
G01 X14.9668 Y35.5966
G01 X14.9827 Y35.5990
G01 X14.9984 Y35.6029
G01 X15.0137 Y35.6084
G01 X15.0283 Y35.6153
G01 X15.0421 Y35.6236
G01 X15.0551 Y35.6333
G01 X15.0671 Y35.6441
G01 X15.0780 Y35.6561
G01 X15.0876 Y35.6691
G01 X15.0959 Y35.6829
G01 X15.1028 Y35.6975
G01 X15.1083 Y35.7128
G01 X15.1122 Y35.7285
G01 X15.1146 Y35.7445
G01 X15.1154 Y35.7606
G01 X15.1146 Y35.7767
G01 X15.1122 Y35.7927
G01 X15.1083 Y35.8084
G01 X15.1028 Y35.8237
G01 X15.0959 Y35.8383
G01 X15.0876 Y35.8521
G01 X15.0780 Y35.8651
G01 X15.0671 Y35.8771
G01 X15.0551 Y35.8879
G01 X15.0421 Y35.8976
G01 X15.0283 Y35.9059
G01 X15.0137 Y35.9128
G01 X14.9984 Y35.9183
G01 X14.9827 Y35.9222
G01 X14.9668 Y35.9246
G01 X14.9522 Y35.9253
G01 X5.6107 Y35.9254
G01 X5.6107 Y36.5941
G01 X14.9522 Y36.5941
G01 X14.9668 Y36.5949
G01 X14.9827 Y36.5972
G01 X14.9984 Y36.6012
G01 X15.0137 Y36.6066
G01 X15.0283 Y36.6135
G01 X15.0421 Y36.6218
G01 X15.0551 Y36.6315
G01 X15.0671 Y36.6423
G01 X15.0780 Y36.6543
G01 X15.0876 Y36.6673
G01 X15.0959 Y36.6812
G01 X15.1028 Y36.6958
G01 X15.1083 Y36.7110
G01 X15.1122 Y36.7267
G01 X15.1146 Y36.7427
G01 X15.1154 Y36.7588
G01 X15.1146 Y36.7750
G01 X15.1122 Y36.7909
G01 X15.1083 Y36.8066
G01 X15.1028 Y36.8219
G01 X15.0959 Y36.8365
G01 X15.0876 Y36.8503
G01 X15.0780 Y36.8633
G01 X15.0671 Y36.8753
G01 X15.0551 Y36.8862
G01 X15.0421 Y36.8958
G01 X15.0283 Y36.9041
G01 X15.0137 Y36.9110
G01 X14.9984 Y36.9165
G01 X14.9827 Y36.9204
G01 X14.9668 Y36.9228
G01 X14.9522 Y36.9236
G01 X5.6107 Y36.9236
G01 X5.6107 Y37.5948
G01 X14.9522 Y37.5948
G01 X14.9668 Y37.5956
G01 X14.9827 Y37.5980
G01 X14.9984 Y37.6019
G01 X15.0137 Y37.6074
G01 X15.0283 Y37.6143
G01 X15.0421 Y37.6226
G01 X15.0551 Y37.6322
G01 X15.0671 Y37.6431
G01 X15.0780 Y37.6551
G01 X15.0876 Y37.6681
G01 X15.0959 Y37.6819
G01 X15.1028 Y37.6965
G01 X15.1083 Y37.7118
G01 X15.1122 Y37.7275
G01 X15.1146 Y37.7434
G01 X15.1154 Y37.7596
G01 X15.1146 Y37.7757
G01 X15.1122 Y37.7917
G01 X15.1083 Y37.8074
G01 X15.1028 Y37.8226
G01 X15.0959 Y37.8372
G01 X15.0876 Y37.8511
G01 X15.0780 Y37.8641
G01 X15.0671 Y37.8761
G01 X15.0551 Y37.8869
G01 X15.0421 Y37.8966
G01 X15.0283 Y37.9049
G01 X15.0137 Y37.9118
G01 X14.9984 Y37.9172
G01 X14.9827 Y37.9212
G01 X14.9668 Y37.9235
G01 X14.9522 Y37.9243
G01 X5.6107 Y37.9243
G01 X5.6107 Y38.5956
G01 X14.9522 Y38.5956
G01 X14.9668 Y38.5964
G01 X14.9827 Y38.5988
G01 X14.9984 Y38.6027
G01 X15.0137 Y38.6081
G01 X15.0283 Y38.6150
G01 X15.0421 Y38.6233
G01 X15.0551 Y38.6330
G01 X15.0671 Y38.6438
G01 X15.0780 Y38.6558
G01 X15.0876 Y38.6688
G01 X15.0959 Y38.6827
G01 X15.1028 Y38.6973
G01 X15.1083 Y38.7125
G01 X15.1122 Y38.7282
G01 X15.1146 Y38.7442
G01 X15.1154 Y38.7603
G01 X15.1146 Y38.7765
G01 X15.1122 Y38.7925
G01 X15.1083 Y38.8082
G01 X15.1028 Y38.8234
G01 X15.0959 Y38.8380
G01 X15.0876 Y38.8519
G01 X15.0780 Y38.8649
G01 X15.0671 Y38.8768
G01 X15.0551 Y38.8877
G01 X15.0421 Y38.8973
G01 X15.0283 Y38.9056
G01 X15.0137 Y38.9125
G01 X14.9984 Y38.9180
G01 X14.9827 Y38.9219
G01 X14.9668 Y38.9243
G01 X14.9522 Y38.9251
G01 X5.6107 Y38.9251
G01 X5.6107 Y39.5938
G01 X14.9522 Y39.5938
G01 X14.9668 Y39.5946
G01 X14.9827 Y39.5970
G01 X14.9984 Y39.6009
G01 X15.0137 Y39.6064
G01 X15.0283 Y39.6133
G01 X15.0421 Y39.6216
G01 X15.0551 Y39.6312
G01 X15.0671 Y39.6421
G01 X15.0780 Y39.6540
G01 X15.0876 Y39.6670
G01 X15.0959 Y39.6809
G01 X15.1028 Y39.6955
G01 X15.1083 Y39.7107
G01 X15.1122 Y39.7264
G01 X15.1146 Y39.7424
G01 X15.1154 Y39.7586
G01 X15.1146 Y39.7747
G01 X15.1122 Y39.7907
G01 X15.1083 Y39.8064
G01 X15.1028 Y39.8216
G01 X15.0959 Y39.8362
G01 X15.0876 Y39.8501
G01 X15.0780 Y39.8631
G01 X15.0671 Y39.8751
G01 X15.0551 Y39.8859
G01 X15.0421 Y39.8956
G01 X15.0283 Y39.9039
G01 X15.0137 Y39.9108
G01 X14.9984 Y39.9162
G01 X14.9827 Y39.9201
G01 X14.9668 Y39.9225
G01 X14.9522 Y39.9233
G01 X5.6107 Y39.9233
G01 X5.6107 Y40.5946
G01 X14.9522 Y40.5946
G01 X14.9668 Y40.5954
G01 X14.9827 Y40.5977
G01 X14.9984 Y40.6017
G01 X15.0137 Y40.6071
G01 X15.0283 Y40.6140
G01 X15.0421 Y40.6223
G01 X15.0551 Y40.6320
G01 X15.0671 Y40.6428
G01 X15.0780 Y40.6548
G01 X15.0876 Y40.6678
G01 X15.0959 Y40.6817
G01 X15.1028 Y40.6963
G01 X15.1083 Y40.7115
G01 X15.1122 Y40.7272
G01 X15.1146 Y40.7432
G01 X15.1154 Y40.7593
G01 X15.1146 Y40.7755
G01 X15.1122 Y40.7914
G01 X15.1083 Y40.8071
G01 X15.1028 Y40.8224
G01 X15.0959 Y40.8370
G01 X15.0876 Y40.8508
G01 X15.0780 Y40.8638
G01 X15.0671 Y40.8758
G01 X15.0551 Y40.8867
G01 X15.0421 Y40.8963
G01 X15.0283 Y40.9046
G01 X15.0137 Y40.9115
G01 X14.9984 Y40.9170
G01 X14.9827 Y40.9209
G01 X14.9668 Y40.9233
G01 X14.9522 Y40.9241
G01 X5.6107 Y40.9241
G01 X5.6107 Y41.5953
G01 X14.9522 Y41.5953
G01 X14.9668 Y41.5961
G01 X14.9827 Y41.5985
G01 X14.9984 Y41.6024
G01 X15.0137 Y41.6079
G01 X15.0283 Y41.6148
G01 X15.0421 Y41.6231
G01 X15.0551 Y41.6327
G01 X15.0671 Y41.6436
G01 X15.0780 Y41.6556
G01 X15.0876 Y41.6686
G01 X15.0959 Y41.6824
G01 X15.1028 Y41.6970
G01 X15.1083 Y41.7123
G01 X15.1122 Y41.7280
G01 X15.1146 Y41.7439
G01 X15.1154 Y41.7601
G01 X15.1146 Y41.7762
G01 X15.1122 Y41.7922
G01 X15.1083 Y41.8079
G01 X15.1028 Y41.8231
G01 X15.0959 Y41.8377
G01 X15.0876 Y41.8516
G01 X15.0780 Y41.8646
G01 X15.0671 Y41.8766
G01 X15.0551 Y41.8874
G01 X15.0421 Y41.8971
G01 X15.0283 Y41.9054
G01 X15.0137 Y41.9123
G01 X14.9984 Y41.9177
G01 X14.9827 Y41.9217
G01 X14.9668 Y41.9240
G01 X14.9522 Y41.9248
G01 X5.6107 Y41.9248
G01 X5.6107 Y42.5936
G01 X14.9522 Y42.5936
G01 X14.9668 Y42.5943
G01 X14.9827 Y42.5967
G01 X14.9984 Y42.6006
G01 X15.0137 Y42.6061
G01 X15.0283 Y42.6130
G01 X15.0421 Y42.6213
G01 X15.0551 Y42.6310
G01 X15.0671 Y42.6418
G01 X15.0780 Y42.6538
G01 X15.0876 Y42.6668
G01 X15.0959 Y42.6806
G01 X15.1028 Y42.6952
G01 X15.1083 Y42.7105
G01 X15.1122 Y42.7262
G01 X15.1146 Y42.7422
G01 X15.1154 Y42.7583
G01 X15.1146 Y42.7744
G01 X15.1122 Y42.7904
G01 X15.1083 Y42.8061
G01 X15.1028 Y42.8214
G01 X15.0959 Y42.8360
G01 X15.0876 Y42.8498
G01 X15.0780 Y42.8628
G01 X15.0671 Y42.8748
G01 X15.0551 Y42.8856
G01 X15.0421 Y42.8953
G01 X15.0283 Y42.9036
G01 X15.0137 Y42.9105
G01 X14.9984 Y42.9160
G01 X14.9827 Y42.9199
G01 X14.9668 Y42.9223
G01 X14.9522 Y42.9230
G01 X5.6107 Y42.9231
G01 X5.6107 Y43.5943
G01 X14.9522 Y43.5943
G01 X14.9698 Y43.5955
G01 X14.9827 Y43.5975
G01 X14.9954 Y43.6006
G01 X15.0137 Y43.6069
G01 X15.0283 Y43.6138
G01 X15.0421 Y43.6221
G01 X15.0575 Y43.6337
G01 X15.0692 Y43.6448
G01 X15.0780 Y43.6545
G01 X15.0858 Y43.6650
G01 X15.0959 Y43.6814
G01 X15.1028 Y43.6960
G01 X15.1083 Y43.7112
G01 X15.1125 Y43.7285
G01 X15.1147 Y43.7445
G01 X15.1153 Y43.7622
G01 X15.1146 Y43.7752
G01 X15.1127 Y43.7881
G01 X15.1087 Y43.8054
G01 X15.1039 Y43.8192
G01 X15.1016 Y43.8250
G01 X15.0959 Y43.8367
G01 X15.0876 Y43.8506
G01 X15.0780 Y43.8636
G01 X15.0692 Y43.8733
G01 X15.0649 Y43.8777
G01 X15.0527 Y43.8883
G01 X15.0421 Y43.8961
G01 X15.0283 Y43.9044
G01 X15.0137 Y43.9113
G01 X15.0014 Y43.9157
G01 X14.9954 Y43.9176
G01 X14.9812 Y43.9209
G01 X14.9668 Y43.9230
G01 X14.9522 Y43.9238
G01 X5.6107 Y43.9238
G01 X5.6107 Y44.5951
G01 X14.9522 Y44.5951
G01 X14.9698 Y44.5962
G01 X14.9827 Y44.5982
G01 X14.9954 Y44.6013
G01 X15.0122 Y44.6070
G01 X15.0269 Y44.6138
G01 X15.0421 Y44.6228
G01 X15.0551 Y44.6325
G01 X15.0671 Y44.6433
G01 X15.0799 Y44.6577
G01 X15.0893 Y44.6710
G01 X15.0959 Y44.6822
G01 X15.1016 Y44.6939
G01 X15.1083 Y44.7120
G01 X15.1122 Y44.7277
G01 X15.1146 Y44.7437
G01 X15.1153 Y44.7629
G01 X15.1146 Y44.7760
G01 X15.1127 Y44.7889
G01 X15.1091 Y44.8046
G01 X15.1039 Y44.8200
G01 X15.1016 Y44.8257
G01 X15.0959 Y44.8375
G01 X15.0876 Y44.8513
G01 X15.0780 Y44.8643
G01 X15.0692 Y44.8741
G01 X15.0649 Y44.8784
G01 X15.0539 Y44.8881
G01 X15.0421 Y44.8968
G01 X15.0296 Y44.9044
G01 X15.0165 Y44.9108
G01 X15.0108 Y44.9131
G01 X14.9984 Y44.9175
G01 X14.9827 Y44.9214
G01 X14.9668 Y44.9238
G01 X14.9522 Y44.9246
G01 X5.6107 Y44.9246
G01 X5.6107 Y45.5958
G01 X14.9522 Y45.5958
G01 X14.9698 Y45.5970
G01 X14.9827 Y45.5990
G01 X14.9954 Y45.6021
G01 X15.0122 Y45.6078
G01 X15.0269 Y45.6146
G01 X15.0421 Y45.6236
G01 X15.0551 Y45.6332
G01 X15.0671 Y45.6441
G01 X15.0799 Y45.6585
G01 X15.0893 Y45.6717
G01 X15.0959 Y45.6829
G01 X15.1016 Y45.6947
G01 X15.1083 Y45.7128
G01 X15.1122 Y45.7285
G01 X15.1146 Y45.7444
G01 X15.1153 Y45.7637
G01 X15.1146 Y45.7767
G01 X15.1127 Y45.7896
G01 X15.1091 Y45.8054
G01 X15.1039 Y45.8207
G01 X15.1016 Y45.8265
G01 X15.0959 Y45.8382
G01 X15.0876 Y45.8521
G01 X15.0780 Y45.8651
G01 X15.0692 Y45.8748
G01 X15.0649 Y45.8792
G01 X15.0539 Y45.8889
G01 X15.0421 Y45.8976
G01 X15.0296 Y45.9051
G01 X15.0165 Y45.9115
G01 X15.0108 Y45.9139
G01 X14.9984 Y45.9182
G01 X14.9827 Y45.9222
G01 X14.9668 Y45.9245
G01 X14.9522 Y45.9253
G01 X5.6107 Y45.9253
G01 X5.6107 Y46.5941
G01 X14.9522 Y46.5941
G01 X14.9683 Y46.5950
G01 X14.9858 Y46.5979
G01 X14.9984 Y46.6011
G01 X15.0108 Y46.6055
G01 X15.0256 Y46.6121
G01 X15.0421 Y46.6218
G01 X15.0551 Y46.6315
G01 X15.0671 Y46.6423
G01 X15.0789 Y46.6555
G01 X15.0893 Y46.6699
G01 X15.0959 Y46.6811
G01 X15.1016 Y46.6929
G01 X15.1078 Y46.7095
G01 X15.1119 Y46.7252
G01 X15.1146 Y46.7427
G01 X15.1154 Y46.7588
G01 X15.1146 Y46.7749
G01 X15.1115 Y46.7940
G01 X15.1083 Y46.8066
G01 X15.1028 Y46.8219
G01 X15.0959 Y46.8365
G01 X15.0893 Y46.8477
G01 X15.0858 Y46.8529
G01 X15.0759 Y46.8657
G01 X15.0671 Y46.8753
G01 X15.0551 Y46.8861
G01 X15.0421 Y46.8958
G01 X15.0309 Y46.9026
G01 X15.0165 Y46.9097
G01 X15.0108 Y46.9121
G01 X14.9984 Y46.9165
G01 X14.9827 Y46.9204
G01 X14.9668 Y46.9228
G01 X14.9522 Y46.9235
G01 X5.6107 Y46.9236
G01 X5.6107 Y47.5948
G01 X14.9522 Y47.5948
G01 X14.9683 Y47.5958
G01 X14.9858 Y47.5986
G01 X14.9984 Y47.6019
G01 X15.0108 Y47.6062
G01 X15.0256 Y47.6129
G01 X15.0421 Y47.6226
G01 X15.0551 Y47.6322
G01 X15.0671 Y47.6431
G01 X15.0789 Y47.6562
G01 X15.0893 Y47.6707
G01 X15.0959 Y47.6819
G01 X15.1016 Y47.6936
G01 X15.1078 Y47.7103
G01 X15.1119 Y47.7259
G01 X15.1146 Y47.7434
G01 X15.1154 Y47.7596
G01 X15.1146 Y47.7757
G01 X15.1115 Y47.7947
G01 X15.1083 Y47.8074
G01 X15.1028 Y47.8226
G01 X15.0959 Y47.8372
G01 X15.0893 Y47.8484
G01 X15.0858 Y47.8537
G01 X15.0759 Y47.8664
G01 X15.0671 Y47.8761
G01 X15.0551 Y47.8869
G01 X15.0421 Y47.8966
G01 X15.0309 Y47.9034
G01 X15.0165 Y47.9105
G01 X15.0108 Y47.9129
G01 X14.9984 Y47.9172
G01 X14.9827 Y47.9211
G01 X14.9668 Y47.9235
G01 X14.9522 Y47.9243
G01 X5.6107 Y47.9243
G01 X5.6107 Y48.5956
G01 X14.9522 Y48.5956
G01 X14.9683 Y48.5965
G01 X14.9858 Y48.5994
G01 X14.9984 Y48.6027
G01 X15.0108 Y48.6070
G01 X15.0256 Y48.6137
G01 X15.0421 Y48.6233
G01 X15.0551 Y48.6330
G01 X15.0671 Y48.6438
G01 X15.0780 Y48.6558
G01 X15.0876 Y48.6688
G01 X15.0973 Y48.6854
G01 X15.1039 Y48.7002
G01 X15.1083 Y48.7125
G01 X15.1115 Y48.7252
G01 X15.1146 Y48.7442
G01 X15.1154 Y48.7603
G01 X15.1146 Y48.7765
G01 X15.1119 Y48.7940
G01 X15.1083 Y48.8081
G01 X15.1028 Y48.8234
G01 X15.0959 Y48.8380
G01 X15.0893 Y48.8492
G01 X15.0858 Y48.8544
G01 X15.0759 Y48.8672
G01 X15.0671 Y48.8768
G01 X15.0551 Y48.8877
G01 X15.0421 Y48.8973
G01 X15.0309 Y48.9041
G01 X15.0165 Y48.9113
G01 X15.0108 Y48.9136
G01 X14.9984 Y48.9180
G01 X14.9827 Y48.9219
G01 X14.9668 Y48.9243
G01 X14.9522 Y48.9251
G01 X5.6107 Y48.9251
G01 X5.6107 Y49.5938
G01 X14.9522 Y49.5938
G01 X14.9683 Y49.5948
G01 X14.9858 Y49.5976
G01 X14.9984 Y49.6009
G01 X15.0108 Y49.6052
G01 X15.0256 Y49.6119
G01 X15.0421 Y49.6215
G01 X15.0551 Y49.6312
G01 X15.0671 Y49.6420
G01 X15.0780 Y49.6540
G01 X15.0876 Y49.6670
G01 X15.0973 Y49.6836
G01 X15.1039 Y49.6984
G01 X15.1083 Y49.7107
G01 X15.1115 Y49.7234
G01 X15.1146 Y49.7424
G01 X15.1154 Y49.7585
G01 X15.1146 Y49.7747
G01 X15.1119 Y49.7922
G01 X15.1083 Y49.8064
G01 X15.1028 Y49.8216
G01 X15.0959 Y49.8362
G01 X15.0893 Y49.8474
G01 X15.0858 Y49.8526
G01 X15.0759 Y49.8654
G01 X15.0671 Y49.8750
G01 X15.0551 Y49.8859
G01 X15.0421 Y49.8955
G01 X15.0309 Y49.9023
G01 X15.0165 Y49.9095
G01 X15.0108 Y49.9119
G01 X14.9984 Y49.9162
G01 X14.9827 Y49.9201
G01 X14.9668 Y49.9225
G01 X14.9522 Y49.9233
G01 X5.6107 Y49.9233
G01 X5.6107 Y50.5946
G01 X14.9522 Y50.5946
G01 X14.9683 Y50.5955
G01 X14.9858 Y50.5984
G01 X14.9984 Y50.6016
G01 X15.0108 Y50.6060
G01 X15.0256 Y50.6126
G01 X15.0421 Y50.6223
G01 X15.0551 Y50.6320
G01 X15.0671 Y50.6428
G01 X15.0780 Y50.6548
G01 X15.0876 Y50.6678
G01 X15.0973 Y50.6844
G01 X15.1039 Y50.6991
G01 X15.1083 Y50.7115
G01 X15.1115 Y50.7241
G01 X15.1146 Y50.7432
G01 X15.1154 Y50.7593
G01 X15.1146 Y50.7754
G01 X15.1119 Y50.7929
G01 X15.1083 Y50.8071
G01 X15.1028 Y50.8224
G01 X15.0959 Y50.8370
G01 X15.0893 Y50.8482
G01 X15.0858 Y50.8534
G01 X15.0759 Y50.8662
G01 X15.0671 Y50.8758
G01 X15.0551 Y50.8866
G01 X15.0421 Y50.8963
G01 X15.0309 Y50.9031
G01 X15.0165 Y50.9102
G01 X15.0108 Y50.9126
G01 X14.9984 Y50.9170
G01 X14.9827 Y50.9209
G01 X14.9668 Y50.9233
G01 X14.9522 Y50.9240
G01 X5.6107 Y50.9241
G01 X5.6107 Y51.5953
G01 X14.9522 Y51.5953
G01 X14.9683 Y51.5963
G01 X14.9858 Y51.5991
G01 X14.9984 Y51.6024
G01 X15.0108 Y51.6067
G01 X15.0256 Y51.6134
G01 X15.0421 Y51.6231
G01 X15.0551 Y51.6327
G01 X15.0671 Y51.6436
G01 X15.0780 Y51.6555
G01 X15.0876 Y51.6685
G01 X15.0973 Y51.6851
G01 X15.1039 Y51.6999
G01 X15.1083 Y51.7122
G01 X15.1115 Y51.7249
G01 X15.1146 Y51.7439
G01 X15.1154 Y51.7601
G01 X15.1146 Y51.7762
G01 X15.1119 Y51.7937
G01 X15.1083 Y51.8079
G01 X15.1028 Y51.8231
G01 X15.0959 Y51.8377
G01 X15.0893 Y51.8489
G01 X15.0858 Y51.8542
G01 X15.0759 Y51.8669
G01 X15.0671 Y51.8766
G01 X15.0551 Y51.8874
G01 X15.0421 Y51.8971
G01 X15.0309 Y51.9039
G01 X15.0165 Y51.9110
G01 X15.0108 Y51.9134
G01 X14.9984 Y51.9177
G01 X14.9827 Y51.9216
G01 X14.9668 Y51.9240
G01 X14.9522 Y51.9248
G01 X5.6107 Y51.9248
G01 X5.6107 Y52.5935
G01 X14.9522 Y52.5935
G01 X14.9683 Y52.5945
G01 X14.9858 Y52.5974
G01 X14.9984 Y52.6006
G01 X15.0108 Y52.6050
G01 X15.0256 Y52.6116
G01 X15.0421 Y52.6213
G01 X15.0551 Y52.6309
G01 X15.0671 Y52.6418
G01 X15.0780 Y52.6538
G01 X15.0876 Y52.6668
G01 X15.0973 Y52.6833
G01 X15.1039 Y52.6981
G01 X15.1083 Y52.7105
G01 X15.1115 Y52.7231
G01 X15.1146 Y52.7421
G01 X15.1154 Y52.7583
G01 X15.1146 Y52.7744
G01 X15.1119 Y52.7919
G01 X15.1083 Y52.8061
G01 X15.1028 Y52.8213
G01 X15.0959 Y52.8359
G01 X15.0893 Y52.8471
G01 X15.0858 Y52.8524
G01 X15.0759 Y52.8651
G01 X15.0671 Y52.8748
G01 X15.0551 Y52.8856
G01 X15.0421 Y52.8953
G01 X15.0309 Y52.9021
G01 X15.0165 Y52.9092
G01 X15.0108 Y52.9116
G01 X14.9984 Y52.9159
G01 X14.9827 Y52.9199
G01 X14.9668 Y52.9222
G01 X14.9522 Y52.9230
G01 X5.6107 Y52.9230
G01 X5.6107 Y53.5943
G01 X14.9522 Y53.5943
G01 X14.9683 Y53.5953
G01 X14.9858 Y53.5981
G01 X14.9984 Y53.6014
G01 X15.0108 Y53.6057
G01 X15.0256 Y53.6124
G01 X15.0421 Y53.6220
G01 X15.0551 Y53.6317
G01 X15.0671 Y53.6425
G01 X15.0780 Y53.6545
G01 X15.0876 Y53.6675
G01 X15.0959 Y53.6814
G01 X15.1028 Y53.6960
G01 X15.1091 Y53.7142
G01 X15.1127 Y53.7300
G01 X15.1146 Y53.7429
G01 X15.1153 Y53.7559
G01 X15.1146 Y53.7752
G01 X15.1122 Y53.7912
G01 X15.1083 Y53.8069
G01 X15.1028 Y53.8221
G01 X15.0959 Y53.8367
G01 X15.0893 Y53.8479
G01 X15.0858 Y53.8531
G01 X15.0759 Y53.8659
G01 X15.0671 Y53.8755
G01 X15.0551 Y53.8864
G01 X15.0421 Y53.8960
G01 X15.0309 Y53.9028
G01 X15.0165 Y53.9100
G01 X15.0108 Y53.9124
G01 X14.9984 Y53.9167
G01 X14.9827 Y53.9206
G01 X14.9668 Y53.9230
G01 X14.9522 Y53.9238
G01 X5.6107 Y53.9238
G01 X5.6107 Y54.5951
G01 X14.9522 Y54.5951
G01 X14.9683 Y54.5960
G01 X14.9858 Y54.5989
G01 X14.9984 Y54.6021
G01 X15.0108 Y54.6065
G01 X15.0256 Y54.6131
G01 X15.0421 Y54.6228
G01 X15.0551 Y54.6325
G01 X15.0671 Y54.6433
G01 X15.0780 Y54.6553
G01 X15.0876 Y54.6683
G01 X15.0959 Y54.6821
G01 X15.1028 Y54.6967
G01 X15.1091 Y54.7150
G01 X15.1127 Y54.7307
G01 X15.1146 Y54.7437
G01 X15.1153 Y54.7567
G01 X15.1146 Y54.7759
G01 X15.1122 Y54.7919
G01 X15.1083 Y54.8076
G01 X15.1028 Y54.8229
G01 X15.0959 Y54.8375
G01 X15.0893 Y54.8487
G01 X15.0858 Y54.8539
G01 X15.0759 Y54.8667
G01 X15.0671 Y54.8763
G01 X15.0551 Y54.8871
G01 X15.0421 Y54.8968
G01 X15.0309 Y54.9036
G01 X15.0165 Y54.9107
G01 X15.0108 Y54.9131
G01 X14.9984 Y54.9175
G01 X14.9827 Y54.9214
G01 X14.9668 Y54.9238
G01 X14.9522 Y54.9245
G01 X5.6107 Y54.9246
G01 X5.6107 Y55.5958
G01 X14.9522 Y55.5958
G01 X14.9683 Y55.5968
G01 X14.9858 Y55.5996
G01 X14.9984 Y55.6029
G01 X15.0108 Y55.6072
G01 X15.0256 Y55.6139
G01 X15.0421 Y55.6236
G01 X15.0551 Y55.6332
G01 X15.0671 Y55.6441
G01 X15.0780 Y55.6560
G01 X15.0876 Y55.6690
G01 X15.0959 Y55.6829
G01 X15.1028 Y55.6975
G01 X15.1091 Y55.7157
G01 X15.1127 Y55.7315
G01 X15.1146 Y55.7444
G01 X15.1153 Y55.7575
G01 X15.1146 Y55.7767
G01 X15.1122 Y55.7927
G01 X15.1083 Y55.8084
G01 X15.1028 Y55.8236
G01 X15.0959 Y55.8382
G01 X15.0893 Y55.8494
G01 X15.0858 Y55.8547
G01 X15.0759 Y55.8674
G01 X15.0671 Y55.8771
G01 X15.0551 Y55.8879
G01 X15.0421 Y55.8976
G01 X15.0309 Y55.9044
G01 X15.0165 Y55.9115
G01 X15.0108 Y55.9139
G01 X14.9984 Y55.9182
G01 X14.9827 Y55.9221
G01 X14.9668 Y55.9245
G01 X14.9522 Y55.9253
G01 X5.6107 Y55.9253
G01 X5.6107 Y56.5940
G01 X14.9522 Y56.5940
G01 X14.9683 Y56.5950
G01 X14.9858 Y56.5979
G01 X14.9984 Y56.6011
G01 X15.0108 Y56.6055
G01 X15.0256 Y56.6121
G01 X15.0421 Y56.6218
G01 X15.0551 Y56.6314
G01 X15.0671 Y56.6423
G01 X15.0780 Y56.6543
G01 X15.0876 Y56.6673
G01 X15.0959 Y56.6811
G01 X15.1028 Y56.6957
G01 X15.1091 Y56.7140
G01 X15.1127 Y56.7297
G01 X15.1146 Y56.7426
G01 X15.1153 Y56.7557
G01 X15.1146 Y56.7749
G01 X15.1122 Y56.7909
G01 X15.1083 Y56.8066
G01 X15.1028 Y56.8218
G01 X15.0959 Y56.8364
G01 X15.0893 Y56.8476
G01 X15.0858 Y56.8529
G01 X15.0759 Y56.8656
G01 X15.0671 Y56.8753
G01 X15.0551 Y56.8861
G01 X15.0421 Y56.8958
G01 X15.0309 Y56.9026
G01 X15.0165 Y56.9097
G01 X15.0108 Y56.9121
G01 X14.9984 Y56.9164
G01 X14.9827 Y56.9204
G01 X14.9668 Y56.9227
G01 X14.9522 Y56.9235
G01 X5.6107 Y56.9235
G01 X5.6107 Y57.5948
G01 X14.9522 Y57.5948
G01 X14.9683 Y57.5958
G01 X14.9858 Y57.5986
G01 X14.9984 Y57.6019
G01 X15.0108 Y57.6062
G01 X15.0256 Y57.6129
G01 X15.0421 Y57.6225
G01 X15.0551 Y57.6322
G01 X15.0671 Y57.6430
G01 X15.0780 Y57.6550
G01 X15.0876 Y57.6680
G01 X15.0959 Y57.6819
G01 X15.1028 Y57.6965
G01 X15.1091 Y57.7147
G01 X15.1127 Y57.7305
G01 X15.1146 Y57.7434
G01 X15.1153 Y57.7564
G01 X15.1146 Y57.7757
G01 X15.1122 Y57.7917
G01 X15.1083 Y57.8074
G01 X15.1028 Y57.8226
G01 X15.0959 Y57.8372
G01 X15.0893 Y57.8484
G01 X15.0858 Y57.8536
G01 X15.0759 Y57.8664
G01 X15.0671 Y57.8760
G01 X15.0551 Y57.8869
G01 X15.0421 Y57.8965
G01 X15.0309 Y57.9033
G01 X15.0165 Y57.9105
G01 X15.0108 Y57.9129
G01 X14.9984 Y57.9172
G01 X14.9827 Y57.9211
G01 X14.9668 Y57.9235
G01 X14.9522 Y57.9243
G01 X5.6107 Y57.9243
G01 X5.6107 Y58.5956
G01 X14.9522 Y58.5956
G01 X14.9683 Y58.5965
G01 X14.9858 Y58.5994
G01 X14.9984 Y58.6026
G01 X15.0108 Y58.6070
G01 X15.0256 Y58.6136
G01 X15.0421 Y58.6233
G01 X15.0551 Y58.6330
G01 X15.0671 Y58.6438
G01 X15.0780 Y58.6558
G01 X15.0876 Y58.6688
G01 X15.0959 Y58.6826
G01 X15.1028 Y58.6972
G01 X15.1091 Y58.7155
G01 X15.1127 Y58.7312
G01 X15.1146 Y58.7442
G01 X15.1153 Y58.7572
G01 X15.1146 Y58.7764
G01 X15.1122 Y58.7924
G01 X15.1083 Y58.8081
G01 X15.1028 Y58.8234
G01 X15.0959 Y58.8380
G01 X15.0893 Y58.8492
G01 X15.0858 Y58.8544
G01 X15.0759 Y58.8672
G01 X15.0671 Y58.8768
G01 X15.0551 Y58.8876
G01 X15.0421 Y58.8973
G01 X15.0309 Y58.9041
G01 X15.0165 Y58.9112
G01 X15.0108 Y58.9136
G01 X14.9984 Y58.9180
G01 X14.9827 Y58.9219
G01 X14.9668 Y58.9243
G01 X14.9522 Y58.9250
G01 X5.6107 Y58.9251
G01 X5.6107 Y59.5938
G01 X14.9522 Y59.5938
G01 X14.9683 Y59.5947
G01 X14.9858 Y59.5976
G01 X14.9984 Y59.6009
G01 X15.0108 Y59.6052
G01 X15.0256 Y59.6119
G01 X15.0421 Y59.6215
G01 X15.0551 Y59.6312
G01 X15.0671 Y59.6420
G01 X15.0780 Y59.6540
G01 X15.0876 Y59.6670
G01 X15.0959 Y59.6809
G01 X15.1028 Y59.6955
G01 X15.1091 Y59.7137
G01 X15.1127 Y59.7295
G01 X15.1146 Y59.7424
G01 X15.1153 Y59.7554
G01 X15.1147 Y59.7731
G01 X15.1125 Y59.7891
G01 X15.1087 Y59.8048
G01 X15.1039 Y59.8187
G01 X15.1016 Y59.8244
G01 X15.0944 Y59.8388
G01 X15.0876 Y59.8500
G01 X15.0780 Y59.8630
G01 X15.0671 Y59.8750
G01 X15.0551 Y59.8859
G01 X15.0421 Y59.8955
G01 X15.0309 Y59.9023
G01 X15.0165 Y59.9095
G01 X15.0108 Y59.9118
G01 X14.9984 Y59.9162
G01 X14.9827 Y59.9201
G01 X14.9668 Y59.9225
G01 X14.9522 Y59.9233
G01 X5.6107 Y59.9233
G01 X5.6107 Y60.5945
G01 X14.9522 Y60.5945
G01 X14.9683 Y60.5955
G01 X14.9858 Y60.5984
G01 X14.9984 Y60.6016
G01 X15.0108 Y60.6060
G01 X15.0256 Y60.6126
G01 X15.0421 Y60.6223
G01 X15.0551 Y60.6319
G01 X15.0671 Y60.6428
G01 X15.0780 Y60.6548
G01 X15.0876 Y60.6678
G01 X15.0959 Y60.6816
G01 X15.1028 Y60.6962
G01 X15.1091 Y60.7145
G01 X15.1127 Y60.7302
G01 X15.1146 Y60.7431
G01 X15.1153 Y60.7562
G01 X15.1147 Y60.7739
G01 X15.1125 Y60.7899
G01 X15.1087 Y60.8056
G01 X15.1039 Y60.8194
G01 X15.1016 Y60.8252
G01 X15.0944 Y60.8396
G01 X15.0876 Y60.8508
G01 X15.0780 Y60.8638
G01 X15.0671 Y60.8758
G01 X15.0551 Y60.8866
G01 X15.0421 Y60.8963
G01 X15.0309 Y60.9031
G01 X15.0165 Y60.9102
G01 X15.0108 Y60.9126
G01 X14.9984 Y60.9169
G01 X14.9827 Y60.9209
G01 X14.9668 Y60.9232
G01 X14.9522 Y60.9240
G01 X5.6107 Y60.9240
G01 X5.6107 Y61.5953
G01 X14.9522 Y61.5953
G01 X14.9683 Y61.5963
G01 X14.9858 Y61.5991
G01 X14.9984 Y61.6024
G01 X15.0108 Y61.6067
G01 X15.0256 Y61.6134
G01 X15.0421 Y61.6230
G01 X15.0551 Y61.6327
G01 X15.0671 Y61.6435
G01 X15.0780 Y61.6555
G01 X15.0876 Y61.6685
G01 X15.0959 Y61.6824
G01 X15.1028 Y61.6970
G01 X15.1091 Y61.7152
G01 X15.1127 Y61.7310
G01 X15.1146 Y61.7439
G01 X15.1153 Y61.7569
G01 X15.1147 Y61.7746
G01 X15.1125 Y61.7906
G01 X15.1087 Y61.8064
G01 X15.1039 Y61.8202
G01 X15.1016 Y61.8260
G01 X15.0944 Y61.8403
G01 X15.0876 Y61.8516
G01 X15.0780 Y61.8646
G01 X15.0671 Y61.8765
G01 X15.0551 Y61.8874
G01 X15.0421 Y61.8970
G01 X15.0309 Y61.9038
G01 X15.0165 Y61.9110
G01 X15.0108 Y61.9134
G01 X14.9984 Y61.9177
G01 X14.9827 Y61.9216
G01 X14.9668 Y61.9240
G01 X14.9522 Y61.9248
G01 X5.6107 Y61.9248
G01 X5.6107 Y62.5554
G01 X16.5483 Y62.5554
G01 X16.5591 Y62.5563
G01 X16.5696 Y62.5591
G01 X16.5780 Y62.5629
G01 X16.5859 Y62.5678
G01 X16.5940 Y62.5750
G01 X16.5999 Y62.5822
G01 X16.6054 Y62.5916
G01 X16.6087 Y62.6002
G01 X16.6107 Y62.6093
G01 X16.6114 Y62.6186
G01 X16.6114 Y66.6191
G01 X16.6105 Y66.6299
G01 X16.6082 Y66.6389
G01 X16.6047 Y66.6475
G01 X16.5990 Y66.6567
G01 X16.5929 Y66.6637
G01 X15.5922 Y67.6645
G01 X15.5839 Y67.6715
G01 X15.5745 Y67.6769
G01 X15.5644 Y67.6807
G01 X15.5537 Y67.6827
G01 X15.5475 Y67.6830
G01 X5.5475 Y67.6830
G01 X5.5414 Y67.6827
G01 X5.5352 Y67.6818
G01 X5.5292 Y67.6803
G01 X5.5234 Y67.6782
G01 X5.5178 Y67.6755
G01 X5.5125 Y67.6723
G01 X5.5075 Y67.6686
G01 X5.5029 Y67.6645
G00 Z2.0000
M05
G00 Z2.0000
G00 Z15.00


