(G-CODE GENERATED BY FLATCAM v8.994 - www.flatcam.org - Version Date: 2020/11/7)

(Name: pcb-B_Cu - Copy.gbr_iso_combined_cnc)
(Type: G-code from Geometry)
(Units: MM)

(Created on Wednesday, 16 August 2023 at 09:10)

(This preprocessor is the default preprocessor used by FlatCAM.)
(It is made to work with MACH3 compatible motion controllers.)

(TOOL DIAMETER: 0.2161 mm)
(Feedrate_XY: 120.0 mm/min)
(Feedrate_Z: 60.0 mm/min)
(Feedrate rapids 1500.0 mm/min)

(Z_Cut: -0.03 mm)
(Z_Move: 2.0 mm)
(Z Start: None mm)
(Z End: 15.0 mm)
(X,Y End: None mm)
(Steps per circle: 64)
(Preprocessor Geometry: default)

(X range:    1.1396 ...   65.3560  mm)
(Y range:    1.1095 ...   13.3271  mm)

(Spindle Speed: 0.0 RPM)
G21
G90
G94

G01 F120.00

M5
G00 Z15.0000
G00 X0.0000 Y0.0000
T2M6    
(MSG, Change to Tool Dia = 0.2161)
M0
G00 Z15.0000

M03
G01 F120.00
G00 X1.1712 Y2.1419
G01 F60.00
G01 Z-0.0300
G01 F120.00
G01 X2.1739 Y1.1393
G01 X2.1798 Y1.1340
G01 X2.1884 Y1.1277
G01 X2.1974 Y1.1223
G01 X2.2070 Y1.1177
G01 X2.2145 Y1.1150
G01 X2.2247 Y1.1121
G01 X2.2352 Y1.1103
G01 X2.2457 Y1.1095
G01 X59.2485 Y1.1095
G01 X59.2591 Y1.1100
G01 X59.2670 Y1.1111
G01 X59.2748 Y1.1127
G01 X59.2849 Y1.1158
G01 X59.2923 Y1.1188
G01 X59.3018 Y1.1235
G01 X59.3085 Y1.1277
G01 X59.3171 Y1.1340
G01 X59.3230 Y1.1393
G01 X59.3303 Y1.1470
G01 X59.3369 Y1.1553
G01 X59.3412 Y1.1620
G01 X59.3462 Y1.1714
G01 X59.3493 Y1.1787
G01 X59.3527 Y1.1887
G01 X59.3545 Y1.1965
G01 X59.3560 Y1.2070
G01 X59.3566 Y1.2176
G01 X59.3565 Y2.2210
G01 X59.3558 Y2.2315
G01 X59.3539 Y2.2420
G01 X59.3511 Y2.2522
G01 X59.3462 Y2.2645
G01 X59.3398 Y2.2761
G01 X59.3337 Y2.2848
G01 X59.3268 Y2.2928
G01 X59.3185 Y2.3007
G01 X59.3185 Y11.6214
G01 X59.3175 Y11.6419
G01 X59.3149 Y11.6597
G01 X59.3102 Y11.6797
G01 X59.3035 Y11.6992
G01 X59.2949 Y11.7179
G01 X59.2860 Y11.7333
G01 X59.2801 Y11.7423
G01 X59.2725 Y11.7524
G01 X59.2674 Y11.7584
G01 X59.2552 Y11.7715
G01 X59.2439 Y11.7817
G01 X59.2377 Y11.7867
G01 X59.2253 Y11.7957
G01 X59.2076 Y11.8063
G01 X59.1891 Y11.8151
G01 X59.1697 Y11.8220
G01 X59.1497 Y11.8270
G01 X59.1294 Y11.8300
G01 X59.1088 Y11.8310
G01 X59.0909 Y11.8303
G01 X59.0706 Y11.8275
G01 X59.0531 Y11.8234
G01 X59.0454 Y11.8212
G01 X59.0335 Y11.8170
G01 X59.0237 Y11.8129
G01 X59.0077 Y11.8050
G01 X58.9901 Y11.7942
G01 X58.9738 Y11.7817
G01 X58.9587 Y11.7678
G01 X58.9468 Y11.7544
G01 X58.9345 Y11.7379
G01 X58.9239 Y11.7202
G01 X58.9151 Y11.7017
G01 X58.9082 Y11.6822
G01 X58.9032 Y11.6623
G01 X58.9002 Y11.6419
G01 X58.8993 Y11.6267
G01 X58.8992 Y2.3264
G01 X58.3177 Y2.3264
G01 X58.3177 Y11.6241
G01 X58.3167 Y11.6419
G01 X58.3137 Y11.6623
G01 X58.3087 Y11.6822
G01 X58.3017 Y11.7017
G01 X58.2930 Y11.7202
G01 X58.2824 Y11.7379
G01 X58.2701 Y11.7544
G01 X58.2563 Y11.7696
G01 X58.2411 Y11.7834
G01 X58.2245 Y11.7957
G01 X58.2069 Y11.8063
G01 X58.1883 Y11.8151
G01 X58.1689 Y11.8220
G01 X58.1489 Y11.8270
G01 X58.1286 Y11.8300
G01 X58.1081 Y11.8310
G01 X58.0875 Y11.8300
G01 X58.0672 Y11.8270
G01 X58.0472 Y11.8220
G01 X58.0278 Y11.8151
G01 X58.0092 Y11.8063
G01 X57.9916 Y11.7957
G01 X57.9750 Y11.7834
G01 X57.9598 Y11.7696
G01 X57.9460 Y11.7544
G01 X57.9337 Y11.7379
G01 X57.9232 Y11.7202
G01 X57.9144 Y11.7017
G01 X57.9074 Y11.6822
G01 X57.9024 Y11.6623
G01 X57.8994 Y11.6419
G01 X57.8984 Y11.6241
G01 X57.8984 Y2.3264
G01 X57.3169 Y2.3264
G01 X57.3169 Y11.6241
G01 X57.3159 Y11.6419
G01 X57.3129 Y11.6623
G01 X57.3079 Y11.6822
G01 X57.3010 Y11.7017
G01 X57.2922 Y11.7202
G01 X57.2816 Y11.7379
G01 X57.2693 Y11.7544
G01 X57.2555 Y11.7696
G01 X57.2403 Y11.7834
G01 X57.2238 Y11.7957
G01 X57.2061 Y11.8063
G01 X57.1876 Y11.8151
G01 X57.1681 Y11.8220
G01 X57.1482 Y11.8270
G01 X57.1278 Y11.8300
G01 X57.1073 Y11.8310
G01 X57.0868 Y11.8300
G01 X57.0664 Y11.8270
G01 X57.0465 Y11.8220
G01 X57.0270 Y11.8151
G01 X57.0085 Y11.8063
G01 X56.9908 Y11.7957
G01 X56.9743 Y11.7834
G01 X56.9591 Y11.7696
G01 X56.9453 Y11.7544
G01 X56.9330 Y11.7379
G01 X56.9224 Y11.7202
G01 X56.9136 Y11.7017
G01 X56.9067 Y11.6822
G01 X56.9017 Y11.6623
G01 X56.8987 Y11.6419
G01 X56.8977 Y11.6241
G01 X56.8976 Y2.3264
G01 X56.3187 Y2.3264
G01 X56.3187 Y11.6241
G01 X56.3177 Y11.6419
G01 X56.3147 Y11.6623
G01 X56.3097 Y11.6822
G01 X56.3028 Y11.7017
G01 X56.2940 Y11.7202
G01 X56.2834 Y11.7379
G01 X56.2711 Y11.7544
G01 X56.2573 Y11.7696
G01 X56.2421 Y11.7834
G01 X56.2255 Y11.7957
G01 X56.2079 Y11.8063
G01 X56.1893 Y11.8151
G01 X56.1699 Y11.8220
G01 X56.1500 Y11.8270
G01 X56.1296 Y11.8300
G01 X56.1091 Y11.8310
G01 X56.0885 Y11.8300
G01 X56.0682 Y11.8270
G01 X56.0482 Y11.8220
G01 X56.0288 Y11.8151
G01 X56.0103 Y11.8063
G01 X55.9926 Y11.7957
G01 X55.9761 Y11.7834
G01 X55.9608 Y11.7696
G01 X55.9470 Y11.7544
G01 X55.9347 Y11.7379
G01 X55.9242 Y11.7202
G01 X55.9154 Y11.7017
G01 X55.9084 Y11.6822
G01 X55.9035 Y11.6623
G01 X55.9004 Y11.6419
G01 X55.8995 Y11.6241
G01 X55.8994 Y2.3264
G01 X55.3180 Y2.3264
G01 X55.3179 Y11.6241
G01 X55.3170 Y11.6419
G01 X55.3139 Y11.6623
G01 X55.3090 Y11.6822
G01 X55.3020 Y11.7017
G01 X55.2932 Y11.7202
G01 X55.2827 Y11.7379
G01 X55.2704 Y11.7544
G01 X55.2566 Y11.7696
G01 X55.2413 Y11.7834
G01 X55.2248 Y11.7957
G01 X55.2071 Y11.8063
G01 X55.1886 Y11.8151
G01 X55.1692 Y11.8220
G01 X55.1492 Y11.8270
G01 X55.1289 Y11.8300
G01 X55.1083 Y11.8310
G01 X55.0878 Y11.8300
G01 X55.0674 Y11.8270
G01 X55.0475 Y11.8220
G01 X55.0281 Y11.8151
G01 X55.0095 Y11.8063
G01 X54.9919 Y11.7957
G01 X54.9753 Y11.7834
G01 X54.9601 Y11.7696
G01 X54.9463 Y11.7544
G01 X54.9340 Y11.7379
G01 X54.9234 Y11.7202
G01 X54.9146 Y11.7017
G01 X54.9077 Y11.6822
G01 X54.9027 Y11.6623
G01 X54.8997 Y11.6419
G01 X54.8987 Y11.6241
G01 X54.8987 Y2.3264
G01 X54.3172 Y2.3264
G01 X54.3172 Y11.6241
G01 X54.3162 Y11.6419
G01 X54.3132 Y11.6623
G01 X54.3082 Y11.6822
G01 X54.3012 Y11.7017
G01 X54.2925 Y11.7202
G01 X54.2819 Y11.7379
G01 X54.2696 Y11.7544
G01 X54.2558 Y11.7696
G01 X54.2406 Y11.7834
G01 X54.2240 Y11.7957
G01 X54.2064 Y11.8063
G01 X54.1878 Y11.8151
G01 X54.1684 Y11.8220
G01 X54.1484 Y11.8270
G01 X54.1281 Y11.8300
G01 X54.1076 Y11.8310
G01 X54.0870 Y11.8300
G01 X54.0667 Y11.8270
G01 X54.0467 Y11.8220
G01 X54.0273 Y11.8151
G01 X54.0087 Y11.8063
G01 X53.9911 Y11.7957
G01 X53.9745 Y11.7834
G01 X53.9593 Y11.7696
G01 X53.9455 Y11.7544
G01 X53.9332 Y11.7379
G01 X53.9227 Y11.7202
G01 X53.9139 Y11.7017
G01 X53.9069 Y11.6822
G01 X53.9019 Y11.6623
G01 X53.8989 Y11.6419
G01 X53.8979 Y11.6241
G01 X53.8979 Y2.3264
G01 X53.3164 Y2.3264
G01 X53.3164 Y11.6241
G01 X53.3154 Y11.6419
G01 X53.3124 Y11.6623
G01 X53.3074 Y11.6822
G01 X53.3005 Y11.7017
G01 X53.2917 Y11.7202
G01 X53.2811 Y11.7379
G01 X53.2688 Y11.7544
G01 X53.2550 Y11.7696
G01 X53.2398 Y11.7834
G01 X53.2233 Y11.7957
G01 X53.2056 Y11.8063
G01 X53.1871 Y11.8151
G01 X53.1676 Y11.8220
G01 X53.1477 Y11.8270
G01 X53.1273 Y11.8300
G01 X53.1068 Y11.8310
G01 X53.0863 Y11.8300
G01 X53.0659 Y11.8270
G01 X53.0460 Y11.8220
G01 X53.0265 Y11.8151
G01 X53.0080 Y11.8063
G01 X52.9903 Y11.7957
G01 X52.9738 Y11.7834
G01 X52.9586 Y11.7696
G01 X52.9448 Y11.7544
G01 X52.9325 Y11.7379
G01 X52.9219 Y11.7202
G01 X52.9131 Y11.7017
G01 X52.9062 Y11.6822
G01 X52.9012 Y11.6623
G01 X52.8982 Y11.6419
G01 X52.8972 Y11.6241
G01 X52.8971 Y2.3264
G01 X52.3182 Y2.3264
G01 X52.3182 Y11.6241
G01 X52.3172 Y11.6419
G01 X52.3142 Y11.6623
G01 X52.3092 Y11.6822
G01 X52.3023 Y11.7017
G01 X52.2935 Y11.7202
G01 X52.2829 Y11.7379
G01 X52.2706 Y11.7544
G01 X52.2568 Y11.7696
G01 X52.2416 Y11.7834
G01 X52.2250 Y11.7957
G01 X52.2074 Y11.8063
G01 X52.1888 Y11.8151
G01 X52.1694 Y11.8220
G01 X52.1495 Y11.8270
G01 X52.1291 Y11.8300
G01 X52.1086 Y11.8310
G01 X52.0880 Y11.8300
G01 X52.0677 Y11.8270
G01 X52.0477 Y11.8220
G01 X52.0283 Y11.8151
G01 X52.0098 Y11.8063
G01 X51.9921 Y11.7957
G01 X51.9756 Y11.7834
G01 X51.9603 Y11.7696
G01 X51.9465 Y11.7544
G01 X51.9342 Y11.7379
G01 X51.9237 Y11.7202
G01 X51.9149 Y11.7017
G01 X51.9079 Y11.6822
G01 X51.9030 Y11.6623
G01 X51.8999 Y11.6419
G01 X51.8990 Y11.6241
G01 X51.8989 Y2.3264
G01 X51.3175 Y2.3264
G01 X51.3174 Y11.6241
G01 X51.3165 Y11.6419
G01 X51.3134 Y11.6623
G01 X51.3085 Y11.6822
G01 X51.3015 Y11.7017
G01 X51.2927 Y11.7202
G01 X51.2822 Y11.7379
G01 X51.2699 Y11.7544
G01 X51.2561 Y11.7696
G01 X51.2408 Y11.7834
G01 X51.2243 Y11.7957
G01 X51.2066 Y11.8063
G01 X51.1881 Y11.8151
G01 X51.1687 Y11.8220
G01 X51.1487 Y11.8270
G01 X51.1284 Y11.8300
G01 X51.1078 Y11.8310
G01 X51.0873 Y11.8300
G01 X51.0669 Y11.8270
G01 X51.0470 Y11.8220
G01 X51.0276 Y11.8151
G01 X51.0090 Y11.8063
G01 X50.9914 Y11.7957
G01 X50.9748 Y11.7834
G01 X50.9596 Y11.7696
G01 X50.9458 Y11.7544
G01 X50.9335 Y11.7379
G01 X50.9229 Y11.7202
G01 X50.9141 Y11.7017
G01 X50.9072 Y11.6822
G01 X50.9022 Y11.6623
G01 X50.8992 Y11.6419
G01 X50.8982 Y11.6241
G01 X50.8982 Y2.3264
G01 X50.3167 Y2.3264
G01 X50.3167 Y11.6241
G01 X50.3157 Y11.6419
G01 X50.3127 Y11.6623
G01 X50.3077 Y11.6822
G01 X50.3007 Y11.7017
G01 X50.2920 Y11.7202
G01 X50.2814 Y11.7379
G01 X50.2691 Y11.7544
G01 X50.2553 Y11.7696
G01 X50.2401 Y11.7834
G01 X50.2235 Y11.7957
G01 X50.2059 Y11.8063
G01 X50.1873 Y11.8151
G01 X50.1679 Y11.8220
G01 X50.1479 Y11.8270
G01 X50.1276 Y11.8300
G01 X50.1071 Y11.8310
G01 X50.0865 Y11.8300
G01 X50.0662 Y11.8270
G01 X50.0462 Y11.8220
G01 X50.0268 Y11.8151
G01 X50.0082 Y11.8063
G01 X49.9906 Y11.7957
G01 X49.9740 Y11.7834
G01 X49.9588 Y11.7696
G01 X49.9450 Y11.7544
G01 X49.9327 Y11.7379
G01 X49.9222 Y11.7202
G01 X49.9134 Y11.7017
G01 X49.9064 Y11.6822
G01 X49.9014 Y11.6623
G01 X49.8984 Y11.6419
G01 X49.8974 Y11.6241
G01 X49.8974 Y2.3264
G01 X49.3185 Y2.3264
G01 X49.3185 Y11.6241
G01 X49.3175 Y11.6419
G01 X49.3145 Y11.6623
G01 X49.3095 Y11.6822
G01 X49.3025 Y11.7017
G01 X49.2937 Y11.7202
G01 X49.2832 Y11.7379
G01 X49.2709 Y11.7544
G01 X49.2571 Y11.7696
G01 X49.2419 Y11.7834
G01 X49.2253 Y11.7957
G01 X49.2077 Y11.8063
G01 X49.1891 Y11.8151
G01 X49.1697 Y11.8220
G01 X49.1497 Y11.8270
G01 X49.1294 Y11.8300
G01 X49.1088 Y11.8310
G01 X49.0883 Y11.8300
G01 X49.0680 Y11.8270
G01 X49.0480 Y11.8220
G01 X49.0286 Y11.8151
G01 X49.0100 Y11.8063
G01 X48.9924 Y11.7957
G01 X48.9758 Y11.7834
G01 X48.9606 Y11.7696
G01 X48.9468 Y11.7544
G01 X48.9345 Y11.7379
G01 X48.9239 Y11.7202
G01 X48.9152 Y11.7017
G01 X48.9082 Y11.6822
G01 X48.9032 Y11.6623
G01 X48.9002 Y11.6419
G01 X48.8992 Y11.6241
G01 X48.8992 Y2.3264
G01 X48.3177 Y2.3264
G01 X48.3177 Y11.6241
G01 X48.3167 Y11.6419
G01 X48.3137 Y11.6623
G01 X48.3087 Y11.6822
G01 X48.3018 Y11.7017
G01 X48.2930 Y11.7202
G01 X48.2824 Y11.7379
G01 X48.2701 Y11.7544
G01 X48.2563 Y11.7696
G01 X48.2411 Y11.7834
G01 X48.2245 Y11.7957
G01 X48.2069 Y11.8063
G01 X48.1883 Y11.8151
G01 X48.1689 Y11.8220
G01 X48.1490 Y11.8270
G01 X48.1286 Y11.8300
G01 X48.1081 Y11.8310
G01 X48.0875 Y11.8300
G01 X48.0672 Y11.8270
G01 X48.0472 Y11.8220
G01 X48.0278 Y11.8151
G01 X48.0093 Y11.8063
G01 X47.9916 Y11.7957
G01 X47.9751 Y11.7834
G01 X47.9598 Y11.7696
G01 X47.9460 Y11.7544
G01 X47.9337 Y11.7379
G01 X47.9232 Y11.7202
G01 X47.9144 Y11.7017
G01 X47.9074 Y11.6822
G01 X47.9025 Y11.6623
G01 X47.8994 Y11.6419
G01 X47.8985 Y11.6241
G01 X47.8984 Y2.3264
G01 X47.3170 Y2.3264
G01 X47.3169 Y11.6241
G01 X47.3160 Y11.6419
G01 X47.3129 Y11.6623
G01 X47.3080 Y11.6822
G01 X47.3010 Y11.7017
G01 X47.2922 Y11.7202
G01 X47.2817 Y11.7379
G01 X47.2694 Y11.7544
G01 X47.2556 Y11.7696
G01 X47.2403 Y11.7834
G01 X47.2238 Y11.7957
G01 X47.2061 Y11.8063
G01 X47.1876 Y11.8151
G01 X47.1682 Y11.8220
G01 X47.1482 Y11.8270
G01 X47.1279 Y11.8300
G01 X47.1073 Y11.8310
G01 X47.0868 Y11.8300
G01 X47.0664 Y11.8270
G01 X47.0465 Y11.8220
G01 X47.0271 Y11.8151
G01 X47.0085 Y11.8063
G01 X46.9909 Y11.7957
G01 X46.9743 Y11.7834
G01 X46.9591 Y11.7696
G01 X46.9453 Y11.7544
G01 X46.9330 Y11.7379
G01 X46.9224 Y11.7202
G01 X46.9136 Y11.7017
G01 X46.9067 Y11.6822
G01 X46.9017 Y11.6623
G01 X46.8987 Y11.6419
G01 X46.8977 Y11.6241
G01 X46.8977 Y2.3264
G01 X46.3187 Y2.3264
G01 X46.3187 Y11.6241
G01 X46.3177 Y11.6419
G01 X46.3147 Y11.6623
G01 X46.3097 Y11.6822
G01 X46.3028 Y11.7017
G01 X46.2940 Y11.7202
G01 X46.2834 Y11.7379
G01 X46.2711 Y11.7544
G01 X46.2573 Y11.7696
G01 X46.2421 Y11.7834
G01 X46.2256 Y11.7957
G01 X46.2079 Y11.8063
G01 X46.1894 Y11.8151
G01 X46.1699 Y11.8220
G01 X46.1500 Y11.8270
G01 X46.1296 Y11.8300
G01 X46.1091 Y11.8310
G01 X46.0886 Y11.8300
G01 X46.0682 Y11.8270
G01 X46.0483 Y11.8220
G01 X46.0288 Y11.8151
G01 X46.0103 Y11.8063
G01 X45.9926 Y11.7957
G01 X45.9761 Y11.7834
G01 X45.9609 Y11.7696
G01 X45.9471 Y11.7544
G01 X45.9348 Y11.7379
G01 X45.9242 Y11.7202
G01 X45.9154 Y11.7017
G01 X45.9085 Y11.6822
G01 X45.9035 Y11.6623
G01 X45.9005 Y11.6419
G01 X45.8995 Y11.6241
G01 X45.8994 Y2.3264
G01 X45.3180 Y2.3264
G01 X45.3180 Y11.6241
G01 X45.3170 Y11.6419
G01 X45.3140 Y11.6623
G01 X45.3090 Y11.6822
G01 X45.3020 Y11.7017
G01 X45.2932 Y11.7202
G01 X45.2827 Y11.7379
G01 X45.2704 Y11.7544
G01 X45.2566 Y11.7696
G01 X45.2414 Y11.7834
G01 X45.2248 Y11.7957
G01 X45.2072 Y11.8063
G01 X45.1886 Y11.8151
G01 X45.1692 Y11.8220
G01 X45.1492 Y11.8270
G01 X45.1289 Y11.8300
G01 X45.1083 Y11.8310
G01 X45.0878 Y11.8300
G01 X45.0675 Y11.8270
G01 X45.0475 Y11.8220
G01 X45.0281 Y11.8151
G01 X45.0095 Y11.8063
G01 X44.9919 Y11.7957
G01 X44.9753 Y11.7834
G01 X44.9601 Y11.7696
G01 X44.9463 Y11.7544
G01 X44.9340 Y11.7379
G01 X44.9234 Y11.7202
G01 X44.9147 Y11.7017
G01 X44.9077 Y11.6822
G01 X44.9027 Y11.6623
G01 X44.8997 Y11.6419
G01 X44.8987 Y11.6241
G01 X44.8987 Y2.3264
G01 X44.3172 Y2.3264
G01 X44.3172 Y11.6241
G01 X44.3162 Y11.6419
G01 X44.3132 Y11.6623
G01 X44.3082 Y11.6822
G01 X44.3013 Y11.7017
G01 X44.2925 Y11.7202
G01 X44.2819 Y11.7379
G01 X44.2696 Y11.7544
G01 X44.2558 Y11.7696
G01 X44.2406 Y11.7834
G01 X44.2240 Y11.7957
G01 X44.2064 Y11.8063
G01 X44.1878 Y11.8151
G01 X44.1684 Y11.8220
G01 X44.1485 Y11.8270
G01 X44.1281 Y11.8300
G01 X44.1076 Y11.8310
G01 X44.0870 Y11.8300
G01 X44.0667 Y11.8270
G01 X44.0467 Y11.8220
G01 X44.0273 Y11.8151
G01 X44.0088 Y11.8063
G01 X43.9911 Y11.7957
G01 X43.9746 Y11.7834
G01 X43.9593 Y11.7696
G01 X43.9455 Y11.7544
G01 X43.9332 Y11.7379
G01 X43.9227 Y11.7202
G01 X43.9139 Y11.7017
G01 X43.9069 Y11.6822
G01 X43.9020 Y11.6623
G01 X43.8989 Y11.6419
G01 X43.8980 Y11.6241
G01 X43.8979 Y2.3264
G01 X43.3165 Y2.3264
G01 X43.3164 Y11.6241
G01 X43.3155 Y11.6419
G01 X43.3124 Y11.6623
G01 X43.3075 Y11.6822
G01 X43.3005 Y11.7017
G01 X43.2917 Y11.7202
G01 X43.2812 Y11.7379
G01 X43.2689 Y11.7544
G01 X43.2551 Y11.7696
G01 X43.2398 Y11.7834
G01 X43.2233 Y11.7957
G01 X43.2056 Y11.8063
G01 X43.1871 Y11.8151
G01 X43.1677 Y11.8220
G01 X43.1477 Y11.8270
G01 X43.1274 Y11.8300
G01 X43.1068 Y11.8310
G01 X43.0863 Y11.8300
G01 X43.0659 Y11.8270
G01 X43.0460 Y11.8220
G01 X43.0266 Y11.8151
G01 X43.0080 Y11.8063
G01 X42.9904 Y11.7957
G01 X42.9738 Y11.7834
G01 X42.9586 Y11.7696
G01 X42.9448 Y11.7544
G01 X42.9325 Y11.7379
G01 X42.9219 Y11.7202
G01 X42.9131 Y11.7017
G01 X42.9062 Y11.6822
G01 X42.9012 Y11.6623
G01 X42.8982 Y11.6419
G01 X42.8972 Y11.6241
G01 X42.8972 Y2.3264
G01 X42.3182 Y2.3264
G01 X42.3182 Y11.6241
G01 X42.3172 Y11.6419
G01 X42.3151 Y11.6570
G01 X42.3137 Y11.6649
G01 X42.3100 Y11.6797
G01 X42.3023 Y11.7017
G01 X42.2922 Y11.7225
G01 X42.2844 Y11.7356
G01 X42.2798 Y11.7423
G01 X42.2706 Y11.7544
G01 X42.2587 Y11.7678
G01 X42.2416 Y11.7834
G01 X42.2273 Y11.7942
G01 X42.2205 Y11.7986
G01 X42.2074 Y11.8063
G01 X42.1913 Y11.8140
G01 X42.1694 Y11.8220
G01 X42.1521 Y11.8265
G01 X42.1442 Y11.8279
G01 X42.1291 Y11.8300
G01 X42.1139 Y11.8309
G01 X42.1059 Y11.8310
G01 X42.0881 Y11.8300
G01 X42.0651 Y11.8265
G01 X42.0478 Y11.8220
G01 X42.0333 Y11.8170
G01 X42.0259 Y11.8140
G01 X42.0121 Y11.8075
G01 X41.9967 Y11.7986
G01 X41.9899 Y11.7942
G01 X41.9756 Y11.7834
G01 X41.9642 Y11.7733
G01 X41.9585 Y11.7678
G01 X41.9466 Y11.7544
G01 X41.9358 Y11.7401
G01 X41.9314 Y11.7333
G01 X41.9237 Y11.7202
G01 X41.9160 Y11.7041
G01 X41.9080 Y11.6822
G01 X41.9035 Y11.6649
G01 X41.9021 Y11.6570
G01 X41.9000 Y11.6419
G01 X41.8990 Y11.6214
G01 X41.8989 Y2.3264
G01 X41.3175 Y2.3264
G01 X41.3175 Y11.6241
G01 X41.3165 Y11.6419
G01 X41.3144 Y11.6570
G01 X41.3129 Y11.6649
G01 X41.3092 Y11.6797
G01 X41.3015 Y11.7017
G01 X41.2915 Y11.7225
G01 X41.2836 Y11.7356
G01 X41.2791 Y11.7423
G01 X41.2699 Y11.7544
G01 X41.2579 Y11.7678
G01 X41.2409 Y11.7834
G01 X41.2265 Y11.7942
G01 X41.2198 Y11.7986
G01 X41.2067 Y11.8063
G01 X41.1906 Y11.8140
G01 X41.1687 Y11.8220
G01 X41.1513 Y11.8265
G01 X41.1435 Y11.8279
G01 X41.1284 Y11.8300
G01 X41.1131 Y11.8309
G01 X41.1052 Y11.8310
G01 X41.0873 Y11.8300
G01 X41.0644 Y11.8265
G01 X41.0470 Y11.8220
G01 X41.0326 Y11.8170
G01 X41.0251 Y11.8140
G01 X41.0113 Y11.8075
G01 X40.9959 Y11.7986
G01 X40.9892 Y11.7942
G01 X40.9748 Y11.7834
G01 X40.9634 Y11.7733
G01 X40.9578 Y11.7678
G01 X40.9458 Y11.7544
G01 X40.9350 Y11.7401
G01 X40.9306 Y11.7333
G01 X40.9229 Y11.7202
G01 X40.9152 Y11.7041
G01 X40.9072 Y11.6822
G01 X40.9028 Y11.6649
G01 X40.9013 Y11.6570
G01 X40.8992 Y11.6419
G01 X40.8982 Y11.6214
G01 X40.8982 Y2.3264
G01 X40.3167 Y2.3264
G01 X40.3167 Y11.6241
G01 X40.3157 Y11.6419
G01 X40.3136 Y11.6570
G01 X40.3122 Y11.6649
G01 X40.3085 Y11.6797
G01 X40.3008 Y11.7017
G01 X40.2907 Y11.7225
G01 X40.2829 Y11.7356
G01 X40.2783 Y11.7423
G01 X40.2691 Y11.7544
G01 X40.2572 Y11.7678
G01 X40.2401 Y11.7834
G01 X40.2213 Y11.7972
G01 X40.2059 Y11.8063
G01 X40.1922 Y11.8129
G01 X40.1849 Y11.8161
G01 X40.1705 Y11.8212
G01 X40.1480 Y11.8270
G01 X40.1250 Y11.8303
G01 X40.1097 Y11.8310
G01 X40.1018 Y11.8309
G01 X40.0865 Y11.8300
G01 X40.0688 Y11.8275
G01 X40.0462 Y11.8220
G01 X40.0293 Y11.8161
G01 X40.0219 Y11.8129
G01 X40.0083 Y11.8063
G01 X39.9929 Y11.7972
G01 X39.9741 Y11.7834
G01 X39.9588 Y11.7696
G01 X39.9485 Y11.7584
G01 X39.9434 Y11.7524
G01 X39.9327 Y11.7379
G01 X39.9222 Y11.7202
G01 X39.9156 Y11.7066
G01 X39.9124 Y11.6992
G01 X39.9064 Y11.6822
G01 X39.9020 Y11.6649
G01 X39.9005 Y11.6570
G01 X39.8984 Y11.6419
G01 X39.8975 Y11.6241
G01 X39.8974 Y2.3264
G01 X39.3185 Y2.3264
G01 X39.3185 Y11.6241
G01 X39.3175 Y11.6419
G01 X39.3154 Y11.6570
G01 X39.3139 Y11.6649
G01 X39.3102 Y11.6797
G01 X39.3025 Y11.7017
G01 X39.2925 Y11.7225
G01 X39.2847 Y11.7356
G01 X39.2801 Y11.7423
G01 X39.2709 Y11.7544
G01 X39.2589 Y11.7678
G01 X39.2419 Y11.7834
G01 X39.2231 Y11.7972
G01 X39.2077 Y11.8063
G01 X39.1940 Y11.8129
G01 X39.1866 Y11.8161
G01 X39.1722 Y11.8212
G01 X39.1497 Y11.8270
G01 X39.1268 Y11.8303
G01 X39.1115 Y11.8310
G01 X39.1036 Y11.8309
G01 X39.0883 Y11.8300
G01 X39.0706 Y11.8275
G01 X39.0480 Y11.8220
G01 X39.0261 Y11.8140
G01 X39.0100 Y11.8063
G01 X38.9969 Y11.7986
G01 X38.9902 Y11.7942
G01 X38.9758 Y11.7834
G01 X38.9606 Y11.7696
G01 X38.9503 Y11.7584
G01 X38.9452 Y11.7524
G01 X38.9345 Y11.7379
G01 X38.9240 Y11.7202
G01 X38.9174 Y11.7066
G01 X38.9142 Y11.6992
G01 X38.9082 Y11.6822
G01 X38.9038 Y11.6649
G01 X38.9023 Y11.6570
G01 X38.9002 Y11.6419
G01 X38.8992 Y11.6241
G01 X38.8992 Y2.3264
G01 X38.3177 Y2.3264
G01 X38.3177 Y11.6241
G01 X38.3170 Y11.6393
G01 X38.3161 Y11.6472
G01 X38.3137 Y11.6623
G01 X38.3101 Y11.6771
G01 X38.3079 Y11.6848
G01 X38.3028 Y11.6992
G01 X38.2930 Y11.7202
G01 X38.2809 Y11.7401
G01 X38.2718 Y11.7524
G01 X38.2667 Y11.7584
G01 X38.2563 Y11.7696
G01 X38.2451 Y11.7800
G01 X38.2391 Y11.7851
G01 X38.2246 Y11.7957
G01 X38.2092 Y11.8050
G01 X38.2023 Y11.8086
G01 X38.1884 Y11.8151
G01 X38.1740 Y11.8204
G01 X38.1664 Y11.8228
G01 X38.1516 Y11.8265
G01 X38.1286 Y11.8300
G01 X38.1108 Y11.8310
G01 X38.1028 Y11.8309
G01 X38.0876 Y11.8300
G01 X38.0725 Y11.8279
G01 X38.0646 Y11.8265
G01 X38.0498 Y11.8228
G01 X38.0278 Y11.8151
G01 X38.0093 Y11.8063
G01 X37.9962 Y11.7986
G01 X37.9894 Y11.7942
G01 X37.9751 Y11.7834
G01 X37.9599 Y11.7696
G01 X37.9495 Y11.7584
G01 X37.9444 Y11.7524
G01 X37.9338 Y11.7379
G01 X37.9232 Y11.7202
G01 X37.9166 Y11.7066
G01 X37.9134 Y11.6992
G01 X37.9075 Y11.6822
G01 X37.9030 Y11.6649
G01 X37.9016 Y11.6570
G01 X37.8995 Y11.6419
G01 X37.8985 Y11.6241
G01 X37.8984 Y2.3264
G01 X37.3170 Y2.3264
G01 X37.3170 Y11.6241
G01 X37.3162 Y11.6393
G01 X37.3153 Y11.6472
G01 X37.3130 Y11.6623
G01 X37.3094 Y11.6771
G01 X37.3072 Y11.6848
G01 X37.3020 Y11.6992
G01 X37.2922 Y11.7202
G01 X37.2801 Y11.7401
G01 X37.2710 Y11.7524
G01 X37.2659 Y11.7584
G01 X37.2556 Y11.7696
G01 X37.2444 Y11.7800
G01 X37.2383 Y11.7851
G01 X37.2238 Y11.7957
G01 X37.2084 Y11.8050
G01 X37.2015 Y11.8086
G01 X37.1876 Y11.8151
G01 X37.1732 Y11.8204
G01 X37.1656 Y11.8228
G01 X37.1508 Y11.8265
G01 X37.1279 Y11.8300
G01 X37.1100 Y11.8310
G01 X37.1020 Y11.8309
G01 X37.0868 Y11.8300
G01 X37.0717 Y11.8279
G01 X37.0639 Y11.8265
G01 X37.0490 Y11.8228
G01 X37.0271 Y11.8151
G01 X37.0085 Y11.8063
G01 X36.9954 Y11.7986
G01 X36.9887 Y11.7942
G01 X36.9743 Y11.7834
G01 X36.9591 Y11.7696
G01 X36.9488 Y11.7584
G01 X36.9436 Y11.7524
G01 X36.9330 Y11.7379
G01 X36.9224 Y11.7202
G01 X36.9158 Y11.7066
G01 X36.9127 Y11.6992
G01 X36.9067 Y11.6822
G01 X36.9023 Y11.6649
G01 X36.9008 Y11.6570
G01 X36.8987 Y11.6419
G01 X36.8977 Y11.6241
G01 X36.8977 Y2.3264
G01 X36.3188 Y2.3264
G01 X36.3187 Y11.6241
G01 X36.3180 Y11.6393
G01 X36.3171 Y11.6472
G01 X36.3147 Y11.6623
G01 X36.3112 Y11.6771
G01 X36.3089 Y11.6848
G01 X36.3038 Y11.6992
G01 X36.2940 Y11.7202
G01 X36.2819 Y11.7401
G01 X36.2728 Y11.7524
G01 X36.2677 Y11.7584
G01 X36.2574 Y11.7696
G01 X36.2461 Y11.7800
G01 X36.2401 Y11.7851
G01 X36.2256 Y11.7957
G01 X36.2102 Y11.8050
G01 X36.2033 Y11.8086
G01 X36.1894 Y11.8151
G01 X36.1750 Y11.8204
G01 X36.1674 Y11.8228
G01 X36.1526 Y11.8265
G01 X36.1297 Y11.8300
G01 X36.1065 Y11.8310
G01 X36.0912 Y11.8303
G01 X36.0833 Y11.8294
G01 X36.0682 Y11.8270
G01 X36.0534 Y11.8234
G01 X36.0457 Y11.8212
G01 X36.0313 Y11.8161
G01 X36.0150 Y11.8086
G01 X36.0058 Y11.8037
G01 X35.9927 Y11.7957
G01 X35.9782 Y11.7851
G01 X35.9647 Y11.7733
G01 X35.9590 Y11.7678
G01 X35.9471 Y11.7544
G01 X35.9363 Y11.7401
G01 X35.9268 Y11.7248
G01 X35.9219 Y11.7156
G01 X35.9154 Y11.7017
G01 X35.9093 Y11.6848
G01 X35.9071 Y11.6771
G01 X35.9030 Y11.6597
G01 X35.9005 Y11.6419
G01 X35.8995 Y11.6241
G01 X35.8995 Y2.3264
G01 X35.3180 Y2.3264
G01 X35.3180 Y11.6241
G01 X35.3172 Y11.6393
G01 X35.3164 Y11.6472
G01 X35.3140 Y11.6623
G01 X35.3104 Y11.6771
G01 X35.3082 Y11.6848
G01 X35.3030 Y11.6992
G01 X35.2933 Y11.7202
G01 X35.2812 Y11.7401
G01 X35.2721 Y11.7524
G01 X35.2669 Y11.7584
G01 X35.2566 Y11.7696
G01 X35.2454 Y11.7800
G01 X35.2393 Y11.7851
G01 X35.2248 Y11.7957
G01 X35.2095 Y11.8050
G01 X35.2025 Y11.8086
G01 X35.1886 Y11.8151
G01 X35.1743 Y11.8204
G01 X35.1667 Y11.8228
G01 X35.1518 Y11.8265
G01 X35.1289 Y11.8300
G01 X35.1057 Y11.8310
G01 X35.0905 Y11.8303
G01 X35.0826 Y11.8294
G01 X35.0675 Y11.8270
G01 X35.0526 Y11.8234
G01 X35.0450 Y11.8212
G01 X35.0306 Y11.8161
G01 X35.0142 Y11.8086
G01 X35.0050 Y11.8037
G01 X34.9919 Y11.7957
G01 X34.9774 Y11.7851
G01 X34.9639 Y11.7733
G01 X34.9583 Y11.7678
G01 X34.9463 Y11.7544
G01 X34.9356 Y11.7401
G01 X34.9260 Y11.7248
G01 X34.9211 Y11.7156
G01 X34.9147 Y11.7017
G01 X34.9085 Y11.6848
G01 X34.9063 Y11.6771
G01 X34.9022 Y11.6597
G01 X34.8997 Y11.6419
G01 X34.8987 Y11.6241
G01 X34.8987 Y2.3264
G01 X34.3172 Y2.3264
G01 X34.3172 Y11.6241
G01 X34.3165 Y11.6393
G01 X34.3156 Y11.6472
G01 X34.3132 Y11.6623
G01 X34.3096 Y11.6771
G01 X34.3074 Y11.6848
G01 X34.3023 Y11.6992
G01 X34.2925 Y11.7202
G01 X34.2804 Y11.7401
G01 X34.2713 Y11.7524
G01 X34.2662 Y11.7584
G01 X34.2558 Y11.7696
G01 X34.2446 Y11.7800
G01 X34.2386 Y11.7851
G01 X34.2241 Y11.7957
G01 X34.2041 Y11.8075
G01 X34.1903 Y11.8140
G01 X34.1829 Y11.8170
G01 X34.1684 Y11.8220
G01 X34.1537 Y11.8259
G01 X34.1459 Y11.8275
G01 X34.1308 Y11.8297
G01 X34.1076 Y11.8310
G01 X34.0844 Y11.8297
G01 X34.0693 Y11.8275
G01 X34.0615 Y11.8259
G01 X34.0468 Y11.8220
G01 X34.0323 Y11.8170
G01 X34.0224 Y11.8129
G01 X34.0065 Y11.8050
G01 X33.9911 Y11.7957
G01 X33.9766 Y11.7851
G01 X33.9632 Y11.7733
G01 X33.9575 Y11.7678
G01 X33.9456 Y11.7544
G01 X33.9348 Y11.7401
G01 X33.9253 Y11.7248
G01 X33.9204 Y11.7156
G01 X33.9139 Y11.7017
G01 X33.9078 Y11.6848
G01 X33.9056 Y11.6771
G01 X33.9015 Y11.6597
G01 X33.8990 Y11.6419
G01 X33.8980 Y11.6241
G01 X33.8979 Y2.3264
G01 X33.3165 Y2.3264
G01 X33.3165 Y11.6241
G01 X33.3157 Y11.6393
G01 X33.3148 Y11.6472
G01 X33.3125 Y11.6623
G01 X33.3089 Y11.6771
G01 X33.3067 Y11.6848
G01 X33.3015 Y11.6992
G01 X33.2917 Y11.7202
G01 X33.2796 Y11.7401
G01 X33.2705 Y11.7524
G01 X33.2654 Y11.7584
G01 X33.2551 Y11.7696
G01 X33.2439 Y11.7800
G01 X33.2378 Y11.7851
G01 X33.2255 Y11.7942
G01 X33.2057 Y11.8063
G01 X33.1846 Y11.8161
G01 X33.1702 Y11.8212
G01 X33.1626 Y11.8234
G01 X33.1477 Y11.8270
G01 X33.1326 Y11.8294
G01 X33.1247 Y11.8303
G01 X33.1095 Y11.8310
G01 X33.0863 Y11.8300
G01 X33.0634 Y11.8265
G01 X33.0485 Y11.8228
G01 X33.0409 Y11.8204
G01 X33.0266 Y11.8151
G01 X33.0103 Y11.8075
G01 X32.9949 Y11.7986
G01 X32.9860 Y11.7926
G01 X32.9738 Y11.7834
G01 X32.9586 Y11.7696
G01 X32.9448 Y11.7544
G01 X32.9356 Y11.7423
G01 X32.9296 Y11.7333
G01 X32.9207 Y11.7179
G01 X32.9132 Y11.7017
G01 X32.9070 Y11.6848
G01 X32.9048 Y11.6771
G01 X32.9007 Y11.6597
G01 X32.8982 Y11.6419
G01 X32.8972 Y11.6241
G01 X32.8972 Y2.3264
G01 X32.3183 Y2.3264
G01 X32.3182 Y11.6241
G01 X32.3175 Y11.6393
G01 X32.3166 Y11.6472
G01 X32.3142 Y11.6623
G01 X32.3107 Y11.6771
G01 X32.3084 Y11.6848
G01 X32.3033 Y11.6992
G01 X32.2935 Y11.7202
G01 X32.2814 Y11.7401
G01 X32.2723 Y11.7524
G01 X32.2672 Y11.7584
G01 X32.2569 Y11.7696
G01 X32.2456 Y11.7800
G01 X32.2396 Y11.7851
G01 X32.2273 Y11.7942
G01 X32.2074 Y11.8063
G01 X32.1889 Y11.8151
G01 X32.1669 Y11.8228
G01 X32.1521 Y11.8265
G01 X32.1443 Y11.8279
G01 X32.1292 Y11.8300
G01 X32.1139 Y11.8309
G01 X32.1060 Y11.8310
G01 X32.0907 Y11.8303
G01 X32.0677 Y11.8270
G01 X32.0452 Y11.8212
G01 X32.0284 Y11.8151
G01 X32.0121 Y11.8075
G01 X31.9967 Y11.7986
G01 X31.9878 Y11.7926
G01 X31.9756 Y11.7834
G01 X31.9604 Y11.7696
G01 X31.9466 Y11.7544
G01 X31.9374 Y11.7423
G01 X31.9314 Y11.7333
G01 X31.9225 Y11.7179
G01 X31.9149 Y11.7017
G01 X31.9088 Y11.6848
G01 X31.9066 Y11.6771
G01 X31.9025 Y11.6597
G01 X31.9000 Y11.6419
G01 X31.8990 Y11.6241
G01 X31.8990 Y2.3264
G01 X31.3175 Y2.3264
G01 X31.3175 Y11.6241
G01 X31.3167 Y11.6393
G01 X31.3159 Y11.6472
G01 X31.3135 Y11.6623
G01 X31.3099 Y11.6771
G01 X31.3077 Y11.6848
G01 X31.3025 Y11.6992
G01 X31.2928 Y11.7202
G01 X31.2807 Y11.7401
G01 X31.2716 Y11.7524
G01 X31.2664 Y11.7584
G01 X31.2561 Y11.7696
G01 X31.2449 Y11.7800
G01 X31.2388 Y11.7851
G01 X31.2265 Y11.7942
G01 X31.2067 Y11.8063
G01 X31.1881 Y11.8151
G01 X31.1662 Y11.8228
G01 X31.1513 Y11.8265
G01 X31.1435 Y11.8279
G01 X31.1284 Y11.8300
G01 X31.1132 Y11.8309
G01 X31.1052 Y11.8310
G01 X31.0900 Y11.8303
G01 X31.0670 Y11.8270
G01 X31.0445 Y11.8212
G01 X31.0276 Y11.8151
G01 X31.0114 Y11.8075
G01 X30.9959 Y11.7986
G01 X30.9870 Y11.7926
G01 X30.9748 Y11.7834
G01 X30.9596 Y11.7696
G01 X30.9458 Y11.7544
G01 X30.9366 Y11.7423
G01 X30.9307 Y11.7333
G01 X30.9218 Y11.7179
G01 X30.9142 Y11.7017
G01 X30.9080 Y11.6848
G01 X30.9058 Y11.6771
G01 X30.9017 Y11.6597
G01 X30.8992 Y11.6419
G01 X30.8982 Y11.6241
G01 X30.8982 Y2.3264
G01 X30.3167 Y2.3264
G01 X30.3167 Y11.6241
G01 X30.3160 Y11.6393
G01 X30.3151 Y11.6472
G01 X30.3127 Y11.6623
G01 X30.3091 Y11.6771
G01 X30.3069 Y11.6848
G01 X30.3018 Y11.6992
G01 X30.2920 Y11.7202
G01 X30.2814 Y11.7379
G01 X30.2674 Y11.7564
G01 X30.2572 Y11.7678
G01 X30.2515 Y11.7733
G01 X30.2401 Y11.7834
G01 X30.2280 Y11.7926
G01 X30.2213 Y11.7972
G01 X30.2082 Y11.8050
G01 X30.1874 Y11.8151
G01 X30.1679 Y11.8220
G01 X30.1454 Y11.8275
G01 X30.1303 Y11.8297
G01 X30.1224 Y11.8304
G01 X30.1071 Y11.8310
G01 X30.0918 Y11.8304
G01 X30.0839 Y11.8297
G01 X30.0688 Y11.8275
G01 X30.0463 Y11.8220
G01 X30.0268 Y11.8151
G01 X30.0129 Y11.8086
G01 X30.0037 Y11.8037
G01 X29.9884 Y11.7942
G01 X29.9741 Y11.7834
G01 X29.9607 Y11.7715
G01 X29.9485 Y11.7584
G01 X29.9418 Y11.7503
G01 X29.9328 Y11.7379
G01 X29.9222 Y11.7202
G01 X29.9134 Y11.7017
G01 X29.9081 Y11.6873
G01 X29.9051 Y11.6771
G01 X29.9010 Y11.6597
G01 X29.8985 Y11.6419
G01 X29.8975 Y11.6241
G01 X29.8974 Y2.3264
G01 X29.3185 Y2.3264
G01 X29.3185 Y11.6241
G01 X29.3177 Y11.6393
G01 X29.3169 Y11.6472
G01 X29.3145 Y11.6623
G01 X29.3109 Y11.6771
G01 X29.3087 Y11.6848
G01 X29.3036 Y11.6992
G01 X29.2938 Y11.7202
G01 X29.2832 Y11.7379
G01 X29.2692 Y11.7564
G01 X29.2590 Y11.7678
G01 X29.2533 Y11.7733
G01 X29.2419 Y11.7834
G01 X29.2297 Y11.7926
G01 X29.2231 Y11.7972
G01 X29.2100 Y11.8050
G01 X29.1891 Y11.8151
G01 X29.1697 Y11.8220
G01 X29.1471 Y11.8275
G01 X29.1320 Y11.8297
G01 X29.1241 Y11.8304
G01 X29.1089 Y11.8310
G01 X29.0936 Y11.8304
G01 X29.0857 Y11.8297
G01 X29.0706 Y11.8275
G01 X29.0480 Y11.8220
G01 X29.0286 Y11.8151
G01 X29.0147 Y11.8086
G01 X29.0055 Y11.8037
G01 X28.9902 Y11.7942
G01 X28.9759 Y11.7834
G01 X28.9625 Y11.7715
G01 X28.9503 Y11.7584
G01 X28.9436 Y11.7503
G01 X28.9345 Y11.7379
G01 X28.9240 Y11.7202
G01 X28.9152 Y11.7017
G01 X28.9099 Y11.6873
G01 X28.9068 Y11.6771
G01 X28.9028 Y11.6597
G01 X28.9002 Y11.6419
G01 X28.8993 Y11.6241
G01 X28.8992 Y2.3264
G01 X28.3178 Y2.3264
G01 X28.3177 Y11.6241
G01 X28.3170 Y11.6393
G01 X28.3161 Y11.6472
G01 X28.3137 Y11.6623
G01 X28.3102 Y11.6771
G01 X28.3079 Y11.6848
G01 X28.3028 Y11.6992
G01 X28.2930 Y11.7202
G01 X28.2825 Y11.7379
G01 X28.2685 Y11.7564
G01 X28.2582 Y11.7678
G01 X28.2525 Y11.7733
G01 X28.2411 Y11.7834
G01 X28.2290 Y11.7926
G01 X28.2223 Y11.7972
G01 X28.2092 Y11.8050
G01 X28.1884 Y11.8151
G01 X28.1690 Y11.8220
G01 X28.1464 Y11.8275
G01 X28.1313 Y11.8297
G01 X28.1234 Y11.8304
G01 X28.1081 Y11.8310
G01 X28.0929 Y11.8304
G01 X28.0850 Y11.8297
G01 X28.0699 Y11.8275
G01 X28.0473 Y11.8220
G01 X28.0279 Y11.8151
G01 X28.0140 Y11.8086
G01 X28.0048 Y11.8037
G01 X27.9894 Y11.7942
G01 X27.9751 Y11.7834
G01 X27.9618 Y11.7715
G01 X27.9495 Y11.7584
G01 X27.9428 Y11.7503
G01 X27.9338 Y11.7379
G01 X27.9232 Y11.7202
G01 X27.9144 Y11.7017
G01 X27.9092 Y11.6873
G01 X27.9061 Y11.6771
G01 X27.9020 Y11.6597
G01 X27.8995 Y11.6419
G01 X27.8985 Y11.6241
G01 X27.8985 Y2.3264
G01 X27.3170 Y2.3264
G01 X27.3170 Y11.6241
G01 X27.3162 Y11.6393
G01 X27.3154 Y11.6472
G01 X27.3130 Y11.6623
G01 X27.3094 Y11.6771
G01 X27.3072 Y11.6848
G01 X27.3020 Y11.6992
G01 X27.2923 Y11.7202
G01 X27.2817 Y11.7379
G01 X27.2677 Y11.7564
G01 X27.2574 Y11.7678
G01 X27.2518 Y11.7733
G01 X27.2404 Y11.7834
G01 X27.2282 Y11.7926
G01 X27.2216 Y11.7972
G01 X27.2085 Y11.8050
G01 X27.1876 Y11.8151
G01 X27.1682 Y11.8220
G01 X27.1456 Y11.8275
G01 X27.1253 Y11.8303
G01 X27.1100 Y11.8310
G01 X27.1021 Y11.8309
G01 X27.0868 Y11.8300
G01 X27.0717 Y11.8279
G01 X27.0639 Y11.8265
G01 X27.0491 Y11.8228
G01 X27.0321 Y11.8170
G01 X27.0222 Y11.8129
G01 X27.0085 Y11.8063
G01 X26.9909 Y11.7957
G01 X26.9743 Y11.7834
G01 X26.9610 Y11.7715
G01 X26.9488 Y11.7584
G01 X26.9421 Y11.7503
G01 X26.9330 Y11.7379
G01 X26.9225 Y11.7202
G01 X26.9137 Y11.7017
G01 X26.9084 Y11.6873
G01 X26.9053 Y11.6771
G01 X26.9012 Y11.6597
G01 X26.8987 Y11.6419
G01 X26.8977 Y11.6241
G01 X26.8977 Y2.3264
G01 X26.3188 Y2.3264
G01 X26.3188 Y11.6241
G01 X26.3180 Y11.6393
G01 X26.3171 Y11.6472
G01 X26.3148 Y11.6623
G01 X26.3112 Y11.6771
G01 X26.3090 Y11.6848
G01 X26.3038 Y11.6992
G01 X26.2940 Y11.7202
G01 X26.2835 Y11.7379
G01 X26.2695 Y11.7564
G01 X26.2592 Y11.7678
G01 X26.2536 Y11.7733
G01 X26.2422 Y11.7834
G01 X26.2300 Y11.7926
G01 X26.2233 Y11.7972
G01 X26.2102 Y11.8050
G01 X26.1894 Y11.8151
G01 X26.1700 Y11.8220
G01 X26.1474 Y11.8275
G01 X26.1270 Y11.8303
G01 X26.1118 Y11.8310
G01 X26.1038 Y11.8309
G01 X26.0886 Y11.8300
G01 X26.0735 Y11.8279
G01 X26.0657 Y11.8265
G01 X26.0508 Y11.8228
G01 X26.0339 Y11.8170
G01 X26.0240 Y11.8129
G01 X26.0103 Y11.8063
G01 X25.9927 Y11.7957
G01 X25.9761 Y11.7834
G01 X25.9628 Y11.7715
G01 X25.9506 Y11.7584
G01 X25.9438 Y11.7503
G01 X25.9348 Y11.7379
G01 X25.9242 Y11.7202
G01 X25.9155 Y11.7017
G01 X25.9102 Y11.6873
G01 X25.9071 Y11.6771
G01 X25.9030 Y11.6597
G01 X25.9005 Y11.6419
G01 X25.8995 Y11.6241
G01 X25.8995 Y2.3264
G01 X25.3180 Y2.3264
G01 X25.3180 Y11.6241
G01 X25.3172 Y11.6393
G01 X25.3164 Y11.6472
G01 X25.3140 Y11.6623
G01 X25.3104 Y11.6771
G01 X25.3082 Y11.6848
G01 X25.3031 Y11.6992
G01 X25.2933 Y11.7202
G01 X25.2827 Y11.7379
G01 X25.2687 Y11.7564
G01 X25.2585 Y11.7678
G01 X25.2528 Y11.7733
G01 X25.2414 Y11.7834
G01 X25.2292 Y11.7926
G01 X25.2226 Y11.7972
G01 X25.2095 Y11.8050
G01 X25.1886 Y11.8151
G01 X25.1692 Y11.8220
G01 X25.1466 Y11.8275
G01 X25.1263 Y11.8303
G01 X25.1110 Y11.8310
G01 X25.1031 Y11.8309
G01 X25.0878 Y11.8300
G01 X25.0727 Y11.8279
G01 X25.0649 Y11.8265
G01 X25.0501 Y11.8228
G01 X25.0331 Y11.8170
G01 X25.0232 Y11.8129
G01 X25.0096 Y11.8063
G01 X24.9919 Y11.7957
G01 X24.9754 Y11.7834
G01 X24.9620 Y11.7715
G01 X24.9498 Y11.7584
G01 X24.9431 Y11.7503
G01 X24.9340 Y11.7379
G01 X24.9235 Y11.7202
G01 X24.9147 Y11.7017
G01 X24.9094 Y11.6873
G01 X24.9063 Y11.6771
G01 X24.9023 Y11.6597
G01 X24.8997 Y11.6419
G01 X24.8988 Y11.6241
G01 X24.8987 Y2.3264
G01 X24.3173 Y2.3264
G01 X24.3172 Y11.6241
G01 X24.3165 Y11.6393
G01 X24.3156 Y11.6472
G01 X24.3132 Y11.6623
G01 X24.3097 Y11.6771
G01 X24.3074 Y11.6848
G01 X24.3023 Y11.6992
G01 X24.2937 Y11.7179
G01 X24.2820 Y11.7379
G01 X24.2697 Y11.7544
G01 X24.2540 Y11.7715
G01 X24.2427 Y11.7817
G01 X24.2365 Y11.7867
G01 X24.2241 Y11.7957
G01 X24.2110 Y11.8037
G01 X24.2041 Y11.8075
G01 X24.1903 Y11.8140
G01 X24.1685 Y11.8220
G01 X24.1485 Y11.8270
G01 X24.1255 Y11.8303
G01 X24.1103 Y11.8310
G01 X24.1023 Y11.8309
G01 X24.0871 Y11.8300
G01 X24.0720 Y11.8279
G01 X24.0641 Y11.8265
G01 X24.0519 Y11.8234
G01 X24.0417 Y11.8204
G01 X24.0249 Y11.8140
G01 X24.0088 Y11.8063
G01 X23.9912 Y11.7957
G01 X23.9746 Y11.7834
G01 X23.9632 Y11.7733
G01 X23.9557 Y11.7658
G01 X23.9439 Y11.7524
G01 X23.9333 Y11.7379
G01 X23.9240 Y11.7225
G01 X23.9161 Y11.7066
G01 X23.9120 Y11.6967
G01 X23.9070 Y11.6822
G01 X23.9020 Y11.6623
G01 X23.8990 Y11.6419
G01 X23.8980 Y11.6241
G01 X23.8980 Y2.3264
G01 X23.3165 Y2.3264
G01 X23.3165 Y11.6241
G01 X23.3157 Y11.6393
G01 X23.3149 Y11.6472
G01 X23.3125 Y11.6623
G01 X23.3089 Y11.6771
G01 X23.3067 Y11.6848
G01 X23.3015 Y11.6992
G01 X23.2930 Y11.7179
G01 X23.2812 Y11.7379
G01 X23.2689 Y11.7544
G01 X23.2532 Y11.7715
G01 X23.2419 Y11.7817
G01 X23.2357 Y11.7867
G01 X23.2233 Y11.7957
G01 X23.2102 Y11.8037
G01 X23.2034 Y11.8075
G01 X23.1896 Y11.8140
G01 X23.1677 Y11.8220
G01 X23.1477 Y11.8270
G01 X23.1248 Y11.8303
G01 X23.1095 Y11.8310
G01 X23.1016 Y11.8309
G01 X23.0863 Y11.8300
G01 X23.0712 Y11.8279
G01 X23.0634 Y11.8265
G01 X23.0511 Y11.8234
G01 X23.0410 Y11.8204
G01 X23.0241 Y11.8140
G01 X23.0080 Y11.8063
G01 X22.9904 Y11.7957
G01 X22.9738 Y11.7834
G01 X22.9624 Y11.7733
G01 X22.9550 Y11.7658
G01 X22.9432 Y11.7524
G01 X22.9325 Y11.7379
G01 X22.9232 Y11.7225
G01 X22.9154 Y11.7066
G01 X22.9113 Y11.6967
G01 X22.9062 Y11.6822
G01 X22.9012 Y11.6623
G01 X22.8982 Y11.6419
G01 X22.8972 Y11.6241
G01 X22.8972 Y2.3264
G01 X22.3183 Y2.3264
G01 X22.3183 Y11.6241
G01 X22.3170 Y11.6446
G01 X22.3148 Y11.6597
G01 X22.3131 Y11.6675
G01 X22.3093 Y11.6822
G01 X22.3042 Y11.6967
G01 X22.3013 Y11.7041
G01 X22.2959 Y11.7156
G01 X22.2923 Y11.7225
G01 X22.2844 Y11.7356
G01 X22.2707 Y11.7544
G01 X22.2569 Y11.7696
G01 X22.2396 Y11.7851
G01 X22.2273 Y11.7942
G01 X22.2206 Y11.7986
G01 X22.2075 Y11.8063
G01 X22.1938 Y11.8129
G01 X22.1864 Y11.8161
G01 X22.1720 Y11.8212
G01 X22.1521 Y11.8265
G01 X22.1292 Y11.8300
G01 X22.1086 Y11.8310
G01 X22.0855 Y11.8297
G01 X22.0704 Y11.8275
G01 X22.0626 Y11.8259
G01 X22.0478 Y11.8220
G01 X22.0284 Y11.8151
G01 X22.0098 Y11.8063
G01 X21.9944 Y11.7972
G01 X21.9798 Y11.7867
G01 X21.9716 Y11.7800
G01 X21.9604 Y11.7696
G01 X21.9466 Y11.7544
G01 X21.9343 Y11.7379
G01 X21.9250 Y11.7225
G01 X21.9171 Y11.7066
G01 X21.9130 Y11.6967
G01 X21.9080 Y11.6822
G01 X21.9030 Y11.6623
G01 X21.9000 Y11.6419
G01 X21.8990 Y11.6241
G01 X21.8990 Y2.3264
G01 X21.3175 Y2.3264
G01 X21.3175 Y11.6241
G01 X21.3162 Y11.6446
G01 X21.3140 Y11.6597
G01 X21.3123 Y11.6675
G01 X21.3085 Y11.6822
G01 X21.3035 Y11.6967
G01 X21.3005 Y11.7041
G01 X21.2951 Y11.7156
G01 X21.2915 Y11.7225
G01 X21.2837 Y11.7356
G01 X21.2699 Y11.7544
G01 X21.2561 Y11.7696
G01 X21.2388 Y11.7851
G01 X21.2266 Y11.7942
G01 X21.2198 Y11.7986
G01 X21.2067 Y11.8063
G01 X21.1930 Y11.8129
G01 X21.1857 Y11.8161
G01 X21.1713 Y11.8212
G01 X21.1514 Y11.8265
G01 X21.1284 Y11.8300
G01 X21.1079 Y11.8310
G01 X21.0847 Y11.8297
G01 X21.0696 Y11.8275
G01 X21.0618 Y11.8259
G01 X21.0470 Y11.8220
G01 X21.0276 Y11.8151
G01 X21.0091 Y11.8063
G01 X20.9937 Y11.7972
G01 X20.9790 Y11.7867
G01 X20.9709 Y11.7800
G01 X20.9596 Y11.7696
G01 X20.9458 Y11.7544
G01 X20.9335 Y11.7379
G01 X20.9242 Y11.7225
G01 X20.9164 Y11.7066
G01 X20.9123 Y11.6967
G01 X20.9072 Y11.6822
G01 X20.9023 Y11.6623
G01 X20.8992 Y11.6419
G01 X20.8983 Y11.6241
G01 X20.8982 Y2.3264
G01 X20.3168 Y2.3264
G01 X20.3167 Y11.6241
G01 X20.3155 Y11.6446
G01 X20.3132 Y11.6597
G01 X20.3116 Y11.6675
G01 X20.3078 Y11.6822
G01 X20.3027 Y11.6967
G01 X20.2997 Y11.7041
G01 X20.2944 Y11.7156
G01 X20.2908 Y11.7225
G01 X20.2829 Y11.7356
G01 X20.2692 Y11.7544
G01 X20.2554 Y11.7696
G01 X20.2381 Y11.7851
G01 X20.2213 Y11.7972
G01 X20.2082 Y11.8050
G01 X20.2013 Y11.8086
G01 X20.1898 Y11.8140
G01 X20.1824 Y11.8170
G01 X20.1680 Y11.8220
G01 X20.1532 Y11.8259
G01 X20.1454 Y11.8275
G01 X20.1303 Y11.8297
G01 X20.1071 Y11.8310
G01 X20.0866 Y11.8300
G01 X20.0636 Y11.8265
G01 X20.0463 Y11.8220
G01 X20.0269 Y11.8151
G01 X20.0083 Y11.8063
G01 X19.9952 Y11.7986
G01 X19.9863 Y11.7926
G01 X19.9721 Y11.7817
G01 X19.9589 Y11.7696
G01 X19.9451 Y11.7544
G01 X19.9328 Y11.7379
G01 X19.9235 Y11.7225
G01 X19.9156 Y11.7066
G01 X19.9115 Y11.6967
G01 X19.9065 Y11.6822
G01 X19.9015 Y11.6623
G01 X19.8985 Y11.6419
G01 X19.8975 Y11.6241
G01 X19.8975 Y2.3264
G01 X19.3185 Y2.3264
G01 X19.3185 Y11.6241
G01 X19.3172 Y11.6446
G01 X19.3150 Y11.6597
G01 X19.3134 Y11.6675
G01 X19.3095 Y11.6822
G01 X19.3045 Y11.6967
G01 X19.3015 Y11.7041
G01 X19.2961 Y11.7156
G01 X19.2925 Y11.7225
G01 X19.2847 Y11.7356
G01 X19.2709 Y11.7544
G01 X19.2571 Y11.7696
G01 X19.2399 Y11.7851
G01 X19.2231 Y11.7972
G01 X19.2100 Y11.8050
G01 X19.2031 Y11.8086
G01 X19.1916 Y11.8140
G01 X19.1842 Y11.8170
G01 X19.1697 Y11.8220
G01 X19.1550 Y11.8259
G01 X19.1472 Y11.8275
G01 X19.1321 Y11.8297
G01 X19.1089 Y11.8310
G01 X19.0884 Y11.8300
G01 X19.0654 Y11.8265
G01 X19.0481 Y11.8220
G01 X19.0286 Y11.8151
G01 X19.0101 Y11.8063
G01 X18.9970 Y11.7986
G01 X18.9880 Y11.7926
G01 X18.9739 Y11.7817
G01 X18.9607 Y11.7696
G01 X18.9469 Y11.7544
G01 X18.9346 Y11.7379
G01 X18.9253 Y11.7225
G01 X18.9174 Y11.7066
G01 X18.9133 Y11.6967
G01 X18.9083 Y11.6822
G01 X18.9033 Y11.6623
G01 X18.9003 Y11.6419
G01 X18.8993 Y11.6241
G01 X18.8992 Y2.3264
G01 X18.3178 Y2.3264
G01 X18.3178 Y11.6241
G01 X18.3165 Y11.6446
G01 X18.3143 Y11.6597
G01 X18.3126 Y11.6675
G01 X18.3088 Y11.6822
G01 X18.3037 Y11.6967
G01 X18.3008 Y11.7041
G01 X18.2954 Y11.7156
G01 X18.2918 Y11.7225
G01 X18.2839 Y11.7356
G01 X18.2702 Y11.7544
G01 X18.2564 Y11.7696
G01 X18.2391 Y11.7851
G01 X18.2223 Y11.7972
G01 X18.2092 Y11.8050
G01 X18.2023 Y11.8086
G01 X18.1909 Y11.8140
G01 X18.1834 Y11.8170
G01 X18.1690 Y11.8220
G01 X18.1542 Y11.8259
G01 X18.1464 Y11.8275
G01 X18.1313 Y11.8297
G01 X18.1081 Y11.8310
G01 X18.0876 Y11.8300
G01 X18.0647 Y11.8265
G01 X18.0473 Y11.8220
G01 X18.0279 Y11.8151
G01 X18.0093 Y11.8063
G01 X17.9962 Y11.7986
G01 X17.9873 Y11.7926
G01 X17.9731 Y11.7817
G01 X17.9599 Y11.7696
G01 X17.9461 Y11.7544
G01 X17.9338 Y11.7379
G01 X17.9245 Y11.7225
G01 X17.9166 Y11.7066
G01 X17.9125 Y11.6967
G01 X17.9075 Y11.6822
G01 X17.9025 Y11.6623
G01 X17.8995 Y11.6419
G01 X17.8985 Y11.6241
G01 X17.8985 Y2.3264
G01 X17.3170 Y2.3264
G01 X17.3170 Y11.6241
G01 X17.3157 Y11.6446
G01 X17.3135 Y11.6597
G01 X17.3118 Y11.6675
G01 X17.3080 Y11.6822
G01 X17.3030 Y11.6967
G01 X17.3000 Y11.7041
G01 X17.2946 Y11.7156
G01 X17.2910 Y11.7225
G01 X17.2832 Y11.7356
G01 X17.2694 Y11.7544
G01 X17.2556 Y11.7696
G01 X17.2383 Y11.7851
G01 X17.2216 Y11.7972
G01 X17.2085 Y11.8050
G01 X17.2015 Y11.8086
G01 X17.1901 Y11.8140
G01 X17.1827 Y11.8170
G01 X17.1682 Y11.8220
G01 X17.1534 Y11.8259
G01 X17.1456 Y11.8275
G01 X17.1305 Y11.8297
G01 X17.1074 Y11.8310
G01 X17.0868 Y11.8300
G01 X17.0639 Y11.8265
G01 X17.0465 Y11.8220
G01 X17.0271 Y11.8151
G01 X17.0086 Y11.8063
G01 X16.9955 Y11.7986
G01 X16.9865 Y11.7926
G01 X16.9723 Y11.7817
G01 X16.9591 Y11.7696
G01 X16.9453 Y11.7544
G01 X16.9330 Y11.7379
G01 X16.9237 Y11.7225
G01 X16.9159 Y11.7066
G01 X16.9118 Y11.6967
G01 X16.9067 Y11.6822
G01 X16.9018 Y11.6623
G01 X16.8987 Y11.6419
G01 X16.8978 Y11.6241
G01 X16.8977 Y2.3264
G01 X16.3188 Y2.3264
G01 X16.3188 Y11.6241
G01 X16.3175 Y11.6446
G01 X16.3153 Y11.6597
G01 X16.3136 Y11.6675
G01 X16.3098 Y11.6822
G01 X16.3048 Y11.6967
G01 X16.3018 Y11.7041
G01 X16.2964 Y11.7156
G01 X16.2928 Y11.7225
G01 X16.2850 Y11.7356
G01 X16.2712 Y11.7544
G01 X16.2574 Y11.7696
G01 X16.2401 Y11.7851
G01 X16.2234 Y11.7972
G01 X16.2103 Y11.8050
G01 X16.2033 Y11.8086
G01 X16.1919 Y11.8140
G01 X16.1844 Y11.8170
G01 X16.1700 Y11.8220
G01 X16.1552 Y11.8259
G01 X16.1474 Y11.8275
G01 X16.1323 Y11.8297
G01 X16.1092 Y11.8310
G01 X16.0886 Y11.8300
G01 X16.0657 Y11.8265
G01 X16.0483 Y11.8220
G01 X16.0289 Y11.8151
G01 X16.0103 Y11.8063
G01 X15.9972 Y11.7986
G01 X15.9883 Y11.7926
G01 X15.9741 Y11.7817
G01 X15.9609 Y11.7696
G01 X15.9471 Y11.7544
G01 X15.9348 Y11.7379
G01 X15.9255 Y11.7225
G01 X15.9177 Y11.7066
G01 X15.9136 Y11.6967
G01 X15.9085 Y11.6822
G01 X15.9035 Y11.6623
G01 X15.9005 Y11.6419
G01 X15.8995 Y11.6241
G01 X15.8995 Y2.3264
G01 X15.3180 Y2.3264
G01 X15.3180 Y11.6241
G01 X15.3167 Y11.6446
G01 X15.3145 Y11.6597
G01 X15.3129 Y11.6675
G01 X15.3090 Y11.6822
G01 X15.3040 Y11.6967
G01 X15.3010 Y11.7041
G01 X15.2956 Y11.7156
G01 X15.2920 Y11.7225
G01 X15.2842 Y11.7356
G01 X15.2721 Y11.7524
G01 X15.2566 Y11.7696
G01 X15.2414 Y11.7834
G01 X15.2249 Y11.7957
G01 X15.2049 Y11.8075
G01 X15.1862 Y11.8161
G01 X15.1718 Y11.8212
G01 X15.1641 Y11.8234
G01 X15.1519 Y11.8265
G01 X15.1440 Y11.8279
G01 X15.1289 Y11.8300
G01 X15.1137 Y11.8309
G01 X15.1057 Y11.8310
G01 X15.0905 Y11.8303
G01 X15.0675 Y11.8270
G01 X15.0476 Y11.8220
G01 X15.0306 Y11.8161
G01 X15.0119 Y11.8075
G01 X14.9965 Y11.7986
G01 X14.9875 Y11.7926
G01 X14.9734 Y11.7817
G01 X14.9602 Y11.7696
G01 X14.9464 Y11.7544
G01 X14.9341 Y11.7379
G01 X14.9248 Y11.7225
G01 X14.9169 Y11.7066
G01 X14.9128 Y11.6967
G01 X14.9078 Y11.6822
G01 X14.9028 Y11.6623
G01 X14.8998 Y11.6419
G01 X14.8988 Y11.6241
G01 X14.8987 Y2.3264
G01 X14.3173 Y2.3264
G01 X14.3173 Y11.6241
G01 X14.3160 Y11.6446
G01 X14.3138 Y11.6597
G01 X14.3121 Y11.6675
G01 X14.3083 Y11.6822
G01 X14.3032 Y11.6967
G01 X14.3003 Y11.7041
G01 X14.2949 Y11.7156
G01 X14.2913 Y11.7225
G01 X14.2834 Y11.7356
G01 X14.2713 Y11.7524
G01 X14.2559 Y11.7696
G01 X14.2407 Y11.7834
G01 X14.2241 Y11.7957
G01 X14.2041 Y11.8075
G01 X14.1854 Y11.8161
G01 X14.1710 Y11.8212
G01 X14.1634 Y11.8234
G01 X14.1511 Y11.8265
G01 X14.1433 Y11.8279
G01 X14.1282 Y11.8300
G01 X14.1129 Y11.8309
G01 X14.1050 Y11.8310
G01 X14.0897 Y11.8303
G01 X14.0668 Y11.8270
G01 X14.0468 Y11.8220
G01 X14.0299 Y11.8161
G01 X14.0111 Y11.8075
G01 X13.9957 Y11.7986
G01 X13.9868 Y11.7926
G01 X13.9726 Y11.7817
G01 X13.9594 Y11.7696
G01 X13.9456 Y11.7544
G01 X13.9333 Y11.7379
G01 X13.9240 Y11.7225
G01 X13.9161 Y11.7066
G01 X13.9120 Y11.6967
G01 X13.9070 Y11.6822
G01 X13.9020 Y11.6623
G01 X13.8990 Y11.6419
G01 X13.8980 Y11.6241
G01 X13.8980 Y2.3264
G01 X13.3165 Y2.3264
G01 X13.3165 Y11.6241
G01 X13.3152 Y11.6446
G01 X13.3130 Y11.6597
G01 X13.3113 Y11.6675
G01 X13.3075 Y11.6822
G01 X13.3025 Y11.6967
G01 X13.2995 Y11.7041
G01 X13.2941 Y11.7156
G01 X13.2905 Y11.7225
G01 X13.2827 Y11.7356
G01 X13.2706 Y11.7524
G01 X13.2551 Y11.7696
G01 X13.2399 Y11.7834
G01 X13.2233 Y11.7957
G01 X13.2034 Y11.8075
G01 X13.1847 Y11.8161
G01 X13.1703 Y11.8212
G01 X13.1626 Y11.8234
G01 X13.1504 Y11.8265
G01 X13.1425 Y11.8279
G01 X13.1274 Y11.8300
G01 X13.1122 Y11.8309
G01 X13.1042 Y11.8310
G01 X13.0890 Y11.8303
G01 X13.0660 Y11.8270
G01 X13.0460 Y11.8220
G01 X13.0291 Y11.8161
G01 X13.0104 Y11.8075
G01 X12.9950 Y11.7986
G01 X12.9860 Y11.7926
G01 X12.9718 Y11.7817
G01 X12.9586 Y11.7696
G01 X12.9448 Y11.7544
G01 X12.9325 Y11.7379
G01 X12.9232 Y11.7225
G01 X12.9154 Y11.7066
G01 X12.9113 Y11.6967
G01 X12.9062 Y11.6822
G01 X12.9013 Y11.6623
G01 X12.8982 Y11.6419
G01 X12.8973 Y11.6241
G01 X12.8972 Y2.3264
G01 X12.3183 Y2.3264
G01 X12.3183 Y11.6241
G01 X12.3170 Y11.6446
G01 X12.3148 Y11.6597
G01 X12.3131 Y11.6675
G01 X12.3093 Y11.6822
G01 X12.3043 Y11.6967
G01 X12.3013 Y11.7041
G01 X12.2959 Y11.7156
G01 X12.2923 Y11.7225
G01 X12.2845 Y11.7356
G01 X12.2724 Y11.7524
G01 X12.2569 Y11.7696
G01 X12.2417 Y11.7834
G01 X12.2251 Y11.7957
G01 X12.2052 Y11.8075
G01 X12.1864 Y11.8161
G01 X12.1720 Y11.8212
G01 X12.1644 Y11.8234
G01 X12.1521 Y11.8265
G01 X12.1443 Y11.8279
G01 X12.1292 Y11.8300
G01 X12.1140 Y11.8309
G01 X12.1060 Y11.8310
G01 X12.0908 Y11.8303
G01 X12.0678 Y11.8270
G01 X12.0478 Y11.8220
G01 X12.0309 Y11.8161
G01 X12.0122 Y11.8075
G01 X11.9967 Y11.7986
G01 X11.9878 Y11.7926
G01 X11.9736 Y11.7817
G01 X11.9604 Y11.7696
G01 X11.9466 Y11.7544
G01 X11.9343 Y11.7379
G01 X11.9250 Y11.7225
G01 X11.9172 Y11.7066
G01 X11.9131 Y11.6967
G01 X11.9080 Y11.6822
G01 X11.9030 Y11.6623
G01 X11.9000 Y11.6419
G01 X11.8990 Y11.6241
G01 X11.8990 Y2.3264
G01 X11.3175 Y2.3264
G01 X11.3175 Y11.6241
G01 X11.3162 Y11.6446
G01 X11.3140 Y11.6597
G01 X11.3124 Y11.6675
G01 X11.3085 Y11.6822
G01 X11.3035 Y11.6967
G01 X11.3005 Y11.7041
G01 X11.2951 Y11.7156
G01 X11.2915 Y11.7225
G01 X11.2837 Y11.7356
G01 X11.2716 Y11.7524
G01 X11.2561 Y11.7696
G01 X11.2409 Y11.7834
G01 X11.2244 Y11.7957
G01 X11.2044 Y11.8075
G01 X11.1857 Y11.8161
G01 X11.1713 Y11.8212
G01 X11.1636 Y11.8234
G01 X11.1514 Y11.8265
G01 X11.1435 Y11.8279
G01 X11.1284 Y11.8300
G01 X11.1132 Y11.8309
G01 X11.1052 Y11.8310
G01 X11.0900 Y11.8303
G01 X11.0670 Y11.8270
G01 X11.0471 Y11.8220
G01 X11.0301 Y11.8161
G01 X11.0114 Y11.8075
G01 X10.9960 Y11.7986
G01 X10.9870 Y11.7926
G01 X10.9729 Y11.7817
G01 X10.9597 Y11.7696
G01 X10.9459 Y11.7544
G01 X10.9336 Y11.7379
G01 X10.9243 Y11.7225
G01 X10.9164 Y11.7066
G01 X10.9123 Y11.6967
G01 X10.9073 Y11.6822
G01 X10.9023 Y11.6623
G01 X10.8993 Y11.6419
G01 X10.8983 Y11.6241
G01 X10.8982 Y2.3264
G01 X10.3168 Y2.3264
G01 X10.3168 Y11.6241
G01 X10.3155 Y11.6446
G01 X10.3133 Y11.6597
G01 X10.3116 Y11.6675
G01 X10.3078 Y11.6822
G01 X10.3027 Y11.6967
G01 X10.2998 Y11.7041
G01 X10.2944 Y11.7156
G01 X10.2908 Y11.7225
G01 X10.2829 Y11.7356
G01 X10.2708 Y11.7524
G01 X10.2554 Y11.7696
G01 X10.2402 Y11.7834
G01 X10.2236 Y11.7957
G01 X10.2036 Y11.8075
G01 X10.1849 Y11.8161
G01 X10.1705 Y11.8212
G01 X10.1629 Y11.8234
G01 X10.1506 Y11.8265
G01 X10.1428 Y11.8279
G01 X10.1277 Y11.8300
G01 X10.1124 Y11.8309
G01 X10.1045 Y11.8310
G01 X10.0892 Y11.8303
G01 X10.0663 Y11.8270
G01 X10.0463 Y11.8220
G01 X10.0294 Y11.8161
G01 X10.0106 Y11.8075
G01 X9.9952 Y11.7986
G01 X9.9863 Y11.7926
G01 X9.9721 Y11.7817
G01 X9.9589 Y11.7696
G01 X9.9451 Y11.7544
G01 X9.9328 Y11.7379
G01 X9.9235 Y11.7225
G01 X9.9156 Y11.7066
G01 X9.9115 Y11.6967
G01 X9.9065 Y11.6822
G01 X9.9015 Y11.6623
G01 X9.8985 Y11.6419
G01 X9.8975 Y11.6241
G01 X9.8975 Y2.3264
G01 X9.3186 Y2.3264
G01 X9.3185 Y11.6241
G01 X9.3173 Y11.6446
G01 X9.3150 Y11.6597
G01 X9.3134 Y11.6675
G01 X9.3096 Y11.6822
G01 X9.3045 Y11.6967
G01 X9.3015 Y11.7041
G01 X9.2962 Y11.7156
G01 X9.2926 Y11.7225
G01 X9.2847 Y11.7356
G01 X9.2726 Y11.7524
G01 X9.2572 Y11.7696
G01 X9.2419 Y11.7834
G01 X9.2254 Y11.7957
G01 X9.2054 Y11.8075
G01 X9.1867 Y11.8161
G01 X9.1723 Y11.8212
G01 X9.1646 Y11.8234
G01 X9.1524 Y11.8265
G01 X9.1446 Y11.8279
G01 X9.1295 Y11.8300
G01 X9.1142 Y11.8309
G01 X9.1063 Y11.8310
G01 X9.0910 Y11.8303
G01 X9.0707 Y11.8275
G01 X9.0506 Y11.8228
G01 X9.0336 Y11.8170
G01 X9.0238 Y11.8129
G01 X9.0124 Y11.8075
G01 X9.0056 Y11.8037
G01 X8.9925 Y11.7957
G01 X8.9759 Y11.7834
G01 X8.9607 Y11.7696
G01 X8.9486 Y11.7564
G01 X8.9377 Y11.7423
G01 X8.9317 Y11.7333
G01 X8.9228 Y11.7179
G01 X8.9142 Y11.6992
G01 X8.9083 Y11.6822
G01 X8.9033 Y11.6623
G01 X8.9003 Y11.6419
G01 X8.8993 Y11.6241
G01 X8.8993 Y2.3264
G01 X8.3178 Y2.3264
G01 X8.3178 Y11.6241
G01 X8.3165 Y11.6446
G01 X8.3143 Y11.6597
G01 X8.3126 Y11.6675
G01 X8.3088 Y11.6822
G01 X8.3038 Y11.6967
G01 X8.3008 Y11.7041
G01 X8.2954 Y11.7156
G01 X8.2918 Y11.7225
G01 X8.2840 Y11.7356
G01 X8.2719 Y11.7524
G01 X8.2564 Y11.7696
G01 X8.2412 Y11.7834
G01 X8.2246 Y11.7957
G01 X8.2047 Y11.8075
G01 X8.1859 Y11.8161
G01 X8.1715 Y11.8212
G01 X8.1639 Y11.8234
G01 X8.1516 Y11.8265
G01 X8.1438 Y11.8279
G01 X8.1287 Y11.8300
G01 X8.1135 Y11.8309
G01 X8.1055 Y11.8310
G01 X8.0903 Y11.8303
G01 X8.0699 Y11.8275
G01 X8.0499 Y11.8228
G01 X8.0329 Y11.8170
G01 X8.0230 Y11.8129
G01 X8.0117 Y11.8075
G01 X8.0048 Y11.8037
G01 X7.9917 Y11.7957
G01 X7.9751 Y11.7834
G01 X7.9599 Y11.7696
G01 X7.9478 Y11.7564
G01 X7.9369 Y11.7423
G01 X7.9310 Y11.7333
G01 X7.9221 Y11.7179
G01 X7.9135 Y11.6992
G01 X7.9075 Y11.6822
G01 X7.9025 Y11.6623
G01 X7.8995 Y11.6419
G01 X7.8985 Y11.6241
G01 X7.8985 Y2.3264
G01 X7.3170 Y2.3264
G01 X7.3170 Y11.6241
G01 X7.3157 Y11.6446
G01 X7.3135 Y11.6597
G01 X7.3119 Y11.6675
G01 X7.3080 Y11.6822
G01 X7.3030 Y11.6967
G01 X7.3000 Y11.7041
G01 X7.2946 Y11.7156
G01 X7.2910 Y11.7225
G01 X7.2832 Y11.7356
G01 X7.2711 Y11.7524
G01 X7.2556 Y11.7696
G01 X7.2404 Y11.7834
G01 X7.2239 Y11.7957
G01 X7.2039 Y11.8075
G01 X7.1852 Y11.8161
G01 X7.1708 Y11.8212
G01 X7.1631 Y11.8234
G01 X7.1509 Y11.8265
G01 X7.1430 Y11.8279
G01 X7.1279 Y11.8300
G01 X7.1127 Y11.8309
G01 X7.1047 Y11.8310
G01 X7.0895 Y11.8303
G01 X7.0691 Y11.8275
G01 X7.0491 Y11.8228
G01 X7.0321 Y11.8170
G01 X7.0222 Y11.8129
G01 X7.0109 Y11.8075
G01 X7.0040 Y11.8037
G01 X6.9909 Y11.7957
G01 X6.9744 Y11.7834
G01 X6.9592 Y11.7696
G01 X6.9471 Y11.7564
G01 X6.9362 Y11.7423
G01 X6.9302 Y11.7333
G01 X6.9213 Y11.7179
G01 X6.9127 Y11.6992
G01 X6.9068 Y11.6822
G01 X6.9018 Y11.6623
G01 X6.8988 Y11.6419
G01 X6.8978 Y11.6241
G01 X6.8977 Y2.3264
G01 X6.3569 Y2.3264
G01 X6.3569 Y13.2191
G01 X6.3564 Y13.2297
G01 X6.3553 Y13.2375
G01 X6.3530 Y13.2479
G01 X6.3497 Y13.2579
G01 X6.3466 Y13.2653
G01 X6.3429 Y13.2723
G01 X6.3387 Y13.2791
G01 X6.3341 Y13.2855
G01 X6.3289 Y13.2916
G01 X6.3234 Y13.2973
G01 X6.3174 Y13.3026
G01 X6.3111 Y13.3074
G01 X6.3044 Y13.3117
G01 X6.2975 Y13.3156
G01 X6.2902 Y13.3189
G01 X6.2828 Y13.3217
G01 X6.2751 Y13.3239
G01 X6.2674 Y13.3255
G01 X6.2595 Y13.3266
G01 X6.2515 Y13.3271
G01 X2.2484 Y13.3271
G01 X2.2378 Y13.3266
G01 X2.2299 Y13.3255
G01 X2.2221 Y13.3239
G01 X2.2145 Y13.3217
G01 X2.2070 Y13.3189
G01 X2.1998 Y13.3156
G01 X2.1928 Y13.3117
G01 X2.1862 Y13.3074
G01 X2.1798 Y13.3026
G01 X2.1739 Y13.2973
G01 X1.1712 Y12.2947
G01 X1.1658 Y12.2889
G01 X1.1593 Y12.2805
G01 X1.1536 Y12.2716
G01 X1.1499 Y12.2645
G01 X1.1468 Y12.2572
G01 X1.1435 Y12.2471
G01 X1.1412 Y12.2368
G01 X1.1401 Y12.2289
G01 X1.1396 Y12.2183
G01 X1.1396 Y2.2183
G01 X1.1401 Y2.2077
G01 X1.1416 Y2.1972
G01 X1.1442 Y2.1870
G01 X1.1478 Y2.1770
G01 X1.1523 Y2.1674
G01 X1.1578 Y2.1583
G01 X1.1641 Y2.1498
G01 X1.1712 Y2.1419
G00 Z2.0000
G00 X7.2471 Y12.1103
G01 F60.00
G01 Z-0.0300
G01 F120.00
G01 X7.3981 Y12.1103
G01 X7.3982 Y2.8151
G01 X7.3991 Y2.7972
G01 X7.4022 Y2.7769
G01 X7.4071 Y2.7569
G01 X7.4131 Y2.7400
G01 X7.4217 Y2.7213
G01 X7.4306 Y2.7058
G01 X7.4365 Y2.6969
G01 X7.4474 Y2.6827
G01 X7.4595 Y2.6695
G01 X7.4748 Y2.6557
G01 X7.4913 Y2.6434
G01 X7.5044 Y2.6354
G01 X7.5113 Y2.6317
G01 X7.5226 Y2.6263
G01 X7.5325 Y2.6222
G01 X7.5495 Y2.6164
G01 X7.5695 Y2.6116
G01 X7.5899 Y2.6089
G01 X7.6051 Y2.6081
G01 X7.6131 Y2.6082
G01 X7.6283 Y2.6091
G01 X7.6434 Y2.6112
G01 X7.6513 Y2.6127
G01 X7.6635 Y2.6157
G01 X7.6712 Y2.6179
G01 X7.6856 Y2.6231
G01 X7.7043 Y2.6317
G01 X7.7242 Y2.6434
G01 X7.7408 Y2.6557
G01 X7.7560 Y2.6695
G01 X7.7715 Y2.6868
G01 X7.7836 Y2.7036
G01 X7.7914 Y2.7167
G01 X7.7950 Y2.7236
G01 X7.8004 Y2.7350
G01 X7.8034 Y2.7425
G01 X7.8084 Y2.7569
G01 X7.8122 Y2.7717
G01 X7.8139 Y2.7795
G01 X7.8161 Y2.7946
G01 X7.8174 Y2.8151
G01 X7.8174 Y12.1103
G01 X8.3989 Y12.1103
G01 X8.3989 Y2.8151
G01 X8.3999 Y2.7972
G01 X8.4029 Y2.7769
G01 X8.4079 Y2.7569
G01 X8.4149 Y2.7375
G01 X8.4236 Y2.7189
G01 X8.4342 Y2.7013
G01 X8.4465 Y2.6847
G01 X8.4603 Y2.6695
G01 X8.4755 Y2.6557
G01 X8.4921 Y2.6434
G01 X8.5097 Y2.6329
G01 X8.5283 Y2.6241
G01 X8.5477 Y2.6171
G01 X8.5677 Y2.6121
G01 X8.5880 Y2.6091
G01 X8.6085 Y2.6081
G01 X8.6291 Y2.6091
G01 X8.6494 Y2.6121
G01 X8.6694 Y2.6171
G01 X8.6888 Y2.6241
G01 X8.7074 Y2.6329
G01 X8.7250 Y2.6434
G01 X8.7416 Y2.6557
G01 X8.7568 Y2.6695
G01 X8.7706 Y2.6847
G01 X8.7829 Y2.7013
G01 X8.7934 Y2.7189
G01 X8.8022 Y2.7375
G01 X8.8092 Y2.7569
G01 X8.8142 Y2.7769
G01 X8.8172 Y2.7972
G01 X8.8182 Y2.8151
G01 X8.8182 Y12.1103
G01 X9.3997 Y12.1103
G01 X9.3997 Y2.8151
G01 X9.4007 Y2.7972
G01 X9.4037 Y2.7769
G01 X9.4087 Y2.7569
G01 X9.4156 Y2.7375
G01 X9.4244 Y2.7189
G01 X9.4350 Y2.7013
G01 X9.4473 Y2.6847
G01 X9.4611 Y2.6695
G01 X9.4763 Y2.6557
G01 X9.4928 Y2.6434
G01 X9.5105 Y2.6329
G01 X9.5290 Y2.6241
G01 X9.5485 Y2.6171
G01 X9.5684 Y2.6121
G01 X9.5888 Y2.6091
G01 X9.6093 Y2.6081
G01 X9.6298 Y2.6091
G01 X9.6502 Y2.6121
G01 X9.6701 Y2.6171
G01 X9.6896 Y2.6241
G01 X9.7081 Y2.6329
G01 X9.7258 Y2.6434
G01 X9.7423 Y2.6557
G01 X9.7575 Y2.6695
G01 X9.7713 Y2.6847
G01 X9.7836 Y2.7013
G01 X9.7942 Y2.7189
G01 X9.8030 Y2.7375
G01 X9.8099 Y2.7569
G01 X9.8149 Y2.7769
G01 X9.8179 Y2.7972
G01 X9.8189 Y2.8151
G01 X9.8190 Y12.1103
G01 X10.3979 Y12.1103
G01 X10.3979 Y2.8151
G01 X10.3989 Y2.7972
G01 X10.4019 Y2.7769
G01 X10.4069 Y2.7569
G01 X10.4138 Y2.7375
G01 X10.4226 Y2.7189
G01 X10.4332 Y2.7013
G01 X10.4455 Y2.6847
G01 X10.4593 Y2.6695
G01 X10.4745 Y2.6557
G01 X10.4911 Y2.6434
G01 X10.5087 Y2.6329
G01 X10.5273 Y2.6241
G01 X10.5467 Y2.6171
G01 X10.5666 Y2.6121
G01 X10.5870 Y2.6091
G01 X10.6075 Y2.6081
G01 X10.6281 Y2.6091
G01 X10.6484 Y2.6121
G01 X10.6684 Y2.6171
G01 X10.6878 Y2.6241
G01 X10.7063 Y2.6329
G01 X10.7240 Y2.6434
G01 X10.7405 Y2.6557
G01 X10.7558 Y2.6695
G01 X10.7696 Y2.6847
G01 X10.7819 Y2.7013
G01 X10.7924 Y2.7189
G01 X10.8012 Y2.7375
G01 X10.8082 Y2.7569
G01 X10.8131 Y2.7769
G01 X10.8162 Y2.7972
G01 X10.8171 Y2.8151
G01 X10.8172 Y12.1103
G01 X11.3986 Y12.1103
G01 X11.3987 Y2.8151
G01 X11.3996 Y2.7972
G01 X11.4027 Y2.7769
G01 X11.4076 Y2.7569
G01 X11.4146 Y2.7375
G01 X11.4234 Y2.7189
G01 X11.4339 Y2.7013
G01 X11.4462 Y2.6847
G01 X11.4600 Y2.6695
G01 X11.4753 Y2.6557
G01 X11.4918 Y2.6434
G01 X11.5095 Y2.6329
G01 X11.5280 Y2.6241
G01 X11.5474 Y2.6171
G01 X11.5674 Y2.6121
G01 X11.5877 Y2.6091
G01 X11.6083 Y2.6081
G01 X11.6288 Y2.6091
G01 X11.6492 Y2.6121
G01 X11.6691 Y2.6171
G01 X11.6885 Y2.6241
G01 X11.7071 Y2.6329
G01 X11.7247 Y2.6434
G01 X11.7413 Y2.6557
G01 X11.7565 Y2.6695
G01 X11.7703 Y2.6847
G01 X11.7826 Y2.7013
G01 X11.7932 Y2.7189
G01 X11.8020 Y2.7375
G01 X11.8089 Y2.7569
G01 X11.8139 Y2.7769
G01 X11.8169 Y2.7972
G01 X11.8179 Y2.8151
G01 X11.8179 Y12.1103
G01 X12.3994 Y12.1103
G01 X12.3994 Y2.8151
G01 X12.4004 Y2.7972
G01 X12.4034 Y2.7769
G01 X12.4084 Y2.7569
G01 X12.4154 Y2.7375
G01 X12.4241 Y2.7189
G01 X12.4347 Y2.7013
G01 X12.4470 Y2.6847
G01 X12.4608 Y2.6695
G01 X12.4760 Y2.6557
G01 X12.4926 Y2.6434
G01 X12.5102 Y2.6329
G01 X12.5288 Y2.6241
G01 X12.5482 Y2.6171
G01 X12.5682 Y2.6121
G01 X12.5885 Y2.6091
G01 X12.6090 Y2.6081
G01 X12.6296 Y2.6091
G01 X12.6499 Y2.6121
G01 X12.6699 Y2.6171
G01 X12.6893 Y2.6241
G01 X12.7079 Y2.6329
G01 X12.7255 Y2.6434
G01 X12.7421 Y2.6557
G01 X12.7573 Y2.6695
G01 X12.7711 Y2.6847
G01 X12.7834 Y2.7013
G01 X12.7939 Y2.7189
G01 X12.8027 Y2.7375
G01 X12.8097 Y2.7569
G01 X12.8147 Y2.7769
G01 X12.8177 Y2.7972
G01 X12.8187 Y2.8151
G01 X12.8187 Y12.1103
G01 X13.3976 Y12.1103
G01 X13.3976 Y2.8151
G01 X13.3986 Y2.7972
G01 X13.4016 Y2.7769
G01 X13.4066 Y2.7569
G01 X13.4136 Y2.7375
G01 X13.4224 Y2.7189
G01 X13.4329 Y2.7013
G01 X13.4452 Y2.6847
G01 X13.4590 Y2.6695
G01 X13.4742 Y2.6557
G01 X13.4908 Y2.6434
G01 X13.5084 Y2.6329
G01 X13.5270 Y2.6241
G01 X13.5464 Y2.6171
G01 X13.5664 Y2.6121
G01 X13.5867 Y2.6091
G01 X13.6073 Y2.6081
G01 X13.6278 Y2.6091
G01 X13.6481 Y2.6121
G01 X13.6681 Y2.6171
G01 X13.6875 Y2.6241
G01 X13.7061 Y2.6329
G01 X13.7237 Y2.6434
G01 X13.7403 Y2.6557
G01 X13.7555 Y2.6695
G01 X13.7693 Y2.6847
G01 X13.7816 Y2.7013
G01 X13.7922 Y2.7189
G01 X13.8009 Y2.7375
G01 X13.8079 Y2.7569
G01 X13.8129 Y2.7769
G01 X13.8159 Y2.7972
G01 X13.8169 Y2.8151
G01 X13.8169 Y12.1103
G01 X14.3984 Y12.1103
G01 X14.3984 Y2.8151
G01 X14.3994 Y2.7972
G01 X14.4024 Y2.7769
G01 X14.4074 Y2.7569
G01 X14.4143 Y2.7375
G01 X14.4231 Y2.7189
G01 X14.4337 Y2.7013
G01 X14.4460 Y2.6847
G01 X14.4598 Y2.6695
G01 X14.4750 Y2.6557
G01 X14.4916 Y2.6434
G01 X14.5092 Y2.6329
G01 X14.5278 Y2.6241
G01 X14.5472 Y2.6171
G01 X14.5671 Y2.6121
G01 X14.5875 Y2.6091
G01 X14.6080 Y2.6081
G01 X14.6286 Y2.6091
G01 X14.6489 Y2.6121
G01 X14.6689 Y2.6171
G01 X14.6883 Y2.6241
G01 X14.7068 Y2.6329
G01 X14.7245 Y2.6434
G01 X14.7410 Y2.6557
G01 X14.7563 Y2.6695
G01 X14.7701 Y2.6847
G01 X14.7824 Y2.7013
G01 X14.7929 Y2.7189
G01 X14.8017 Y2.7375
G01 X14.8087 Y2.7569
G01 X14.8136 Y2.7769
G01 X14.8167 Y2.7972
G01 X14.8176 Y2.8151
G01 X14.8177 Y12.1103
G01 X15.3991 Y12.1103
G01 X15.3992 Y2.8151
G01 X15.4001 Y2.7972
G01 X15.4032 Y2.7769
G01 X15.4081 Y2.7569
G01 X15.4151 Y2.7375
G01 X15.4239 Y2.7189
G01 X15.4344 Y2.7013
G01 X15.4467 Y2.6847
G01 X15.4605 Y2.6695
G01 X15.4758 Y2.6557
G01 X15.4923 Y2.6434
G01 X15.5100 Y2.6329
G01 X15.5285 Y2.6241
G01 X15.5479 Y2.6171
G01 X15.5679 Y2.6121
G01 X15.5882 Y2.6091
G01 X15.6088 Y2.6081
G01 X15.6293 Y2.6091
G01 X15.6497 Y2.6121
G01 X15.6696 Y2.6171
G01 X15.6890 Y2.6241
G01 X15.7076 Y2.6329
G01 X15.7252 Y2.6434
G01 X15.7418 Y2.6557
G01 X15.7570 Y2.6695
G01 X15.7708 Y2.6847
G01 X15.7831 Y2.7013
G01 X15.7937 Y2.7189
G01 X15.8025 Y2.7375
G01 X15.8094 Y2.7569
G01 X15.8144 Y2.7769
G01 X15.8174 Y2.7972
G01 X15.8184 Y2.8151
G01 X15.8184 Y12.1103
G01 X16.3974 Y12.1103
G01 X16.3974 Y2.8151
G01 X16.3984 Y2.7972
G01 X16.4014 Y2.7769
G01 X16.4064 Y2.7569
G01 X16.4133 Y2.7375
G01 X16.4221 Y2.7189
G01 X16.4327 Y2.7013
G01 X16.4450 Y2.6847
G01 X16.4588 Y2.6695
G01 X16.4740 Y2.6557
G01 X16.4905 Y2.6434
G01 X16.5082 Y2.6329
G01 X16.5267 Y2.6241
G01 X16.5462 Y2.6171
G01 X16.5661 Y2.6121
G01 X16.5865 Y2.6091
G01 X16.6070 Y2.6081
G01 X16.6275 Y2.6091
G01 X16.6479 Y2.6121
G01 X16.6678 Y2.6171
G01 X16.6873 Y2.6241
G01 X16.7058 Y2.6329
G01 X16.7235 Y2.6434
G01 X16.7400 Y2.6557
G01 X16.7552 Y2.6695
G01 X16.7690 Y2.6847
G01 X16.7813 Y2.7013
G01 X16.7919 Y2.7189
G01 X16.8007 Y2.7375
G01 X16.8076 Y2.7569
G01 X16.8126 Y2.7769
G01 X16.8156 Y2.7972
G01 X16.8166 Y2.8151
G01 X16.8167 Y12.1103
G01 X17.3981 Y12.1103
G01 X17.3981 Y2.8151
G01 X17.3991 Y2.7972
G01 X17.4021 Y2.7769
G01 X17.4071 Y2.7569
G01 X17.4141 Y2.7375
G01 X17.4229 Y2.7189
G01 X17.4334 Y2.7013
G01 X17.4457 Y2.6847
G01 X17.4595 Y2.6695
G01 X17.4747 Y2.6557
G01 X17.4913 Y2.6434
G01 X17.5089 Y2.6329
G01 X17.5275 Y2.6241
G01 X17.5469 Y2.6171
G01 X17.5669 Y2.6121
G01 X17.5872 Y2.6091
G01 X17.6078 Y2.6081
G01 X17.6283 Y2.6091
G01 X17.6486 Y2.6121
G01 X17.6686 Y2.6171
G01 X17.6880 Y2.6241
G01 X17.7066 Y2.6329
G01 X17.7242 Y2.6434
G01 X17.7408 Y2.6557
G01 X17.7560 Y2.6695
G01 X17.7698 Y2.6847
G01 X17.7821 Y2.7013
G01 X17.7927 Y2.7189
G01 X17.8014 Y2.7375
G01 X17.8084 Y2.7569
G01 X17.8134 Y2.7769
G01 X17.8164 Y2.7972
G01 X17.8174 Y2.8151
G01 X17.8174 Y12.1103
G01 X18.3989 Y12.1103
G01 X18.3989 Y2.8151
G01 X18.3999 Y2.7972
G01 X18.4029 Y2.7769
G01 X18.4079 Y2.7569
G01 X18.4148 Y2.7375
G01 X18.4236 Y2.7189
G01 X18.4342 Y2.7013
G01 X18.4465 Y2.6847
G01 X18.4603 Y2.6695
G01 X18.4755 Y2.6557
G01 X18.4921 Y2.6434
G01 X18.5097 Y2.6329
G01 X18.5283 Y2.6241
G01 X18.5477 Y2.6171
G01 X18.5676 Y2.6121
G01 X18.5880 Y2.6091
G01 X18.6085 Y2.6081
G01 X18.6291 Y2.6091
G01 X18.6494 Y2.6121
G01 X18.6694 Y2.6171
G01 X18.6888 Y2.6241
G01 X18.7073 Y2.6329
G01 X18.7250 Y2.6434
G01 X18.7415 Y2.6557
G01 X18.7568 Y2.6695
G01 X18.7706 Y2.6847
G01 X18.7829 Y2.7013
G01 X18.7934 Y2.7189
G01 X18.8022 Y2.7375
G01 X18.8092 Y2.7569
G01 X18.8141 Y2.7769
G01 X18.8172 Y2.7972
G01 X18.8181 Y2.8151
G01 X18.8182 Y12.1103
G01 X19.3996 Y12.1103
G01 X19.3997 Y2.8151
G01 X19.4006 Y2.7972
G01 X19.4037 Y2.7769
G01 X19.4086 Y2.7569
G01 X19.4156 Y2.7375
G01 X19.4244 Y2.7189
G01 X19.4349 Y2.7013
G01 X19.4472 Y2.6847
G01 X19.4610 Y2.6695
G01 X19.4763 Y2.6557
G01 X19.4928 Y2.6434
G01 X19.5105 Y2.6329
G01 X19.5290 Y2.6241
G01 X19.5484 Y2.6171
G01 X19.5684 Y2.6121
G01 X19.5887 Y2.6091
G01 X19.6093 Y2.6081
G01 X19.6298 Y2.6091
G01 X19.6502 Y2.6121
G01 X19.6701 Y2.6171
G01 X19.6895 Y2.6241
G01 X19.7081 Y2.6329
G01 X19.7257 Y2.6434
G01 X19.7423 Y2.6557
G01 X19.7575 Y2.6695
G01 X19.7713 Y2.6847
G01 X19.7836 Y2.7013
G01 X19.7942 Y2.7189
G01 X19.8030 Y2.7375
G01 X19.8099 Y2.7569
G01 X19.8149 Y2.7769
G01 X19.8179 Y2.7972
G01 X19.8189 Y2.8151
G01 X19.8189 Y12.1103
G01 X20.3979 Y12.1103
G01 X20.3979 Y2.8151
G01 X20.3989 Y2.7972
G01 X20.4019 Y2.7769
G01 X20.4069 Y2.7569
G01 X20.4138 Y2.7375
G01 X20.4226 Y2.7189
G01 X20.4332 Y2.7013
G01 X20.4455 Y2.6847
G01 X20.4593 Y2.6695
G01 X20.4745 Y2.6557
G01 X20.4910 Y2.6434
G01 X20.5087 Y2.6329
G01 X20.5272 Y2.6241
G01 X20.5467 Y2.6171
G01 X20.5666 Y2.6121
G01 X20.5870 Y2.6091
G01 X20.6075 Y2.6081
G01 X20.6280 Y2.6091
G01 X20.6484 Y2.6121
G01 X20.6683 Y2.6171
G01 X20.6878 Y2.6241
G01 X20.7063 Y2.6329
G01 X20.7240 Y2.6434
G01 X20.7405 Y2.6557
G01 X20.7557 Y2.6695
G01 X20.7695 Y2.6847
G01 X20.7818 Y2.7013
G01 X20.7924 Y2.7189
G01 X20.8012 Y2.7375
G01 X20.8081 Y2.7569
G01 X20.8131 Y2.7769
G01 X20.8161 Y2.7972
G01 X20.8171 Y2.8151
G01 X20.8172 Y12.1103
G01 X21.3986 Y12.1103
G01 X21.3986 Y2.8151
G01 X21.3996 Y2.7972
G01 X21.4026 Y2.7769
G01 X21.4076 Y2.7569
G01 X21.4146 Y2.7375
G01 X21.4234 Y2.7189
G01 X21.4339 Y2.7013
G01 X21.4462 Y2.6847
G01 X21.4600 Y2.6695
G01 X21.4752 Y2.6557
G01 X21.4918 Y2.6434
G01 X21.5094 Y2.6329
G01 X21.5280 Y2.6241
G01 X21.5474 Y2.6171
G01 X21.5674 Y2.6121
G01 X21.5877 Y2.6091
G01 X21.6083 Y2.6081
G01 X21.6288 Y2.6091
G01 X21.6491 Y2.6121
G01 X21.6691 Y2.6171
G01 X21.6885 Y2.6241
G01 X21.7071 Y2.6329
G01 X21.7247 Y2.6434
G01 X21.7413 Y2.6557
G01 X21.7565 Y2.6695
G01 X21.7703 Y2.6847
G01 X21.7826 Y2.7013
G01 X21.7932 Y2.7189
G01 X21.8019 Y2.7375
G01 X21.8089 Y2.7569
G01 X21.8139 Y2.7769
G01 X21.8169 Y2.7972
G01 X21.8179 Y2.8151
G01 X21.8179 Y12.1103
G01 X22.3994 Y12.1103
G01 X22.3994 Y2.8151
G01 X22.4004 Y2.7972
G01 X22.4034 Y2.7769
G01 X22.4084 Y2.7569
G01 X22.4153 Y2.7375
G01 X22.4241 Y2.7189
G01 X22.4347 Y2.7013
G01 X22.4470 Y2.6847
G01 X22.4608 Y2.6695
G01 X22.4760 Y2.6557
G01 X22.4926 Y2.6434
G01 X22.5102 Y2.6329
G01 X22.5288 Y2.6241
G01 X22.5482 Y2.6171
G01 X22.5681 Y2.6121
G01 X22.5885 Y2.6091
G01 X22.6090 Y2.6081
G01 X22.6296 Y2.6091
G01 X22.6499 Y2.6121
G01 X22.6699 Y2.6171
G01 X22.6893 Y2.6241
G01 X22.7078 Y2.6329
G01 X22.7255 Y2.6434
G01 X22.7420 Y2.6557
G01 X22.7573 Y2.6695
G01 X22.7711 Y2.6847
G01 X22.7834 Y2.7013
G01 X22.7939 Y2.7189
G01 X22.8027 Y2.7375
G01 X22.8097 Y2.7569
G01 X22.8146 Y2.7769
G01 X22.8177 Y2.7972
G01 X22.8186 Y2.8151
G01 X22.8187 Y12.1103
G01 X23.3976 Y12.1103
G01 X23.3976 Y2.8151
G01 X23.3986 Y2.7972
G01 X23.4016 Y2.7769
G01 X23.4066 Y2.7569
G01 X23.4136 Y2.7375
G01 X23.4223 Y2.7189
G01 X23.4329 Y2.7013
G01 X23.4452 Y2.6847
G01 X23.4590 Y2.6695
G01 X23.4742 Y2.6557
G01 X23.4908 Y2.6434
G01 X23.5084 Y2.6329
G01 X23.5270 Y2.6241
G01 X23.5464 Y2.6171
G01 X23.5664 Y2.6121
G01 X23.5867 Y2.6091
G01 X23.6072 Y2.6081
G01 X23.6278 Y2.6091
G01 X23.6481 Y2.6121
G01 X23.6681 Y2.6171
G01 X23.6875 Y2.6241
G01 X23.7061 Y2.6329
G01 X23.7237 Y2.6434
G01 X23.7403 Y2.6557
G01 X23.7555 Y2.6695
G01 X23.7693 Y2.6847
G01 X23.7816 Y2.7013
G01 X23.7921 Y2.7189
G01 X23.8009 Y2.7375
G01 X23.8079 Y2.7569
G01 X23.8129 Y2.7769
G01 X23.8159 Y2.7972
G01 X23.8169 Y2.8151
G01 X23.8169 Y12.1103
G01 X24.3984 Y12.1103
G01 X24.3984 Y2.8151
G01 X24.3994 Y2.7972
G01 X24.4024 Y2.7769
G01 X24.4074 Y2.7569
G01 X24.4143 Y2.7375
G01 X24.4231 Y2.7189
G01 X24.4337 Y2.7013
G01 X24.4460 Y2.6847
G01 X24.4598 Y2.6695
G01 X24.4750 Y2.6557
G01 X24.4915 Y2.6434
G01 X24.5092 Y2.6329
G01 X24.5277 Y2.6241
G01 X24.5472 Y2.6171
G01 X24.5671 Y2.6121
G01 X24.5875 Y2.6091
G01 X24.6080 Y2.6081
G01 X24.6285 Y2.6091
G01 X24.6489 Y2.6121
G01 X24.6688 Y2.6171
G01 X24.6883 Y2.6241
G01 X24.7068 Y2.6329
G01 X24.7245 Y2.6434
G01 X24.7410 Y2.6557
G01 X24.7562 Y2.6695
G01 X24.7700 Y2.6847
G01 X24.7823 Y2.7013
G01 X24.7929 Y2.7189
G01 X24.8017 Y2.7375
G01 X24.8086 Y2.7569
G01 X24.8136 Y2.7769
G01 X24.8166 Y2.7972
G01 X24.8176 Y2.8151
G01 X24.8177 Y12.1103
G01 X25.3991 Y12.1103
G01 X25.3991 Y2.8151
G01 X25.4001 Y2.7972
G01 X25.4031 Y2.7769
G01 X25.4081 Y2.7569
G01 X25.4151 Y2.7375
G01 X25.4239 Y2.7189
G01 X25.4344 Y2.7013
G01 X25.4467 Y2.6847
G01 X25.4605 Y2.6695
G01 X25.4757 Y2.6557
G01 X25.4923 Y2.6434
G01 X25.5099 Y2.6329
G01 X25.5285 Y2.6241
G01 X25.5479 Y2.6171
G01 X25.5679 Y2.6121
G01 X25.5882 Y2.6091
G01 X25.6088 Y2.6081
G01 X25.6293 Y2.6091
G01 X25.6496 Y2.6121
G01 X25.6696 Y2.6171
G01 X25.6890 Y2.6241
G01 X25.7076 Y2.6329
G01 X25.7252 Y2.6434
G01 X25.7418 Y2.6557
G01 X25.7570 Y2.6695
G01 X25.7708 Y2.6847
G01 X25.7831 Y2.7013
G01 X25.7937 Y2.7189
G01 X25.8024 Y2.7375
G01 X25.8094 Y2.7569
G01 X25.8144 Y2.7769
G01 X25.8174 Y2.7972
G01 X25.8184 Y2.8151
G01 X25.8184 Y12.1103
G01 X26.3973 Y12.1103
G01 X26.3974 Y2.8151
G01 X26.3983 Y2.7972
G01 X26.4014 Y2.7769
G01 X26.4063 Y2.7569
G01 X26.4133 Y2.7375
G01 X26.4221 Y2.7189
G01 X26.4326 Y2.7013
G01 X26.4449 Y2.6847
G01 X26.4587 Y2.6695
G01 X26.4740 Y2.6557
G01 X26.4905 Y2.6434
G01 X26.5082 Y2.6329
G01 X26.5267 Y2.6241
G01 X26.5461 Y2.6171
G01 X26.5661 Y2.6121
G01 X26.5864 Y2.6091
G01 X26.6070 Y2.6081
G01 X26.6275 Y2.6091
G01 X26.6479 Y2.6121
G01 X26.6678 Y2.6171
G01 X26.6872 Y2.6241
G01 X26.7058 Y2.6329
G01 X26.7234 Y2.6434
G01 X26.7400 Y2.6557
G01 X26.7552 Y2.6695
G01 X26.7690 Y2.6847
G01 X26.7813 Y2.7013
G01 X26.7919 Y2.7189
G01 X26.8007 Y2.7375
G01 X26.8076 Y2.7569
G01 X26.8126 Y2.7769
G01 X26.8156 Y2.7972
G01 X26.8166 Y2.8151
G01 X26.8166 Y12.1103
G01 X27.3981 Y12.1103
G01 X27.3981 Y2.8151
G01 X27.3991 Y2.7972
G01 X27.4021 Y2.7769
G01 X27.4071 Y2.7569
G01 X27.4141 Y2.7375
G01 X27.4228 Y2.7189
G01 X27.4334 Y2.7013
G01 X27.4457 Y2.6847
G01 X27.4595 Y2.6695
G01 X27.4747 Y2.6557
G01 X27.4913 Y2.6434
G01 X27.5089 Y2.6329
G01 X27.5275 Y2.6241
G01 X27.5469 Y2.6171
G01 X27.5669 Y2.6121
G01 X27.5872 Y2.6091
G01 X27.6077 Y2.6081
G01 X27.6283 Y2.6091
G01 X27.6486 Y2.6121
G01 X27.6686 Y2.6171
G01 X27.6880 Y2.6241
G01 X27.7066 Y2.6329
G01 X27.7242 Y2.6434
G01 X27.7408 Y2.6557
G01 X27.7560 Y2.6695
G01 X27.7698 Y2.6847
G01 X27.7821 Y2.7013
G01 X27.7926 Y2.7189
G01 X27.8014 Y2.7375
G01 X27.8084 Y2.7569
G01 X27.8134 Y2.7769
G01 X27.8164 Y2.7972
G01 X27.8174 Y2.8151
G01 X27.8174 Y12.1103
G01 X28.3989 Y12.1103
G01 X28.3989 Y2.8151
G01 X28.3999 Y2.7972
G01 X28.4029 Y2.7769
G01 X28.4079 Y2.7569
G01 X28.4148 Y2.7375
G01 X28.4236 Y2.7189
G01 X28.4342 Y2.7013
G01 X28.4465 Y2.6847
G01 X28.4603 Y2.6695
G01 X28.4755 Y2.6557
G01 X28.4920 Y2.6434
G01 X28.5097 Y2.6329
G01 X28.5282 Y2.6241
G01 X28.5477 Y2.6171
G01 X28.5676 Y2.6121
G01 X28.5880 Y2.6091
G01 X28.6085 Y2.6081
G01 X28.6290 Y2.6091
G01 X28.6494 Y2.6121
G01 X28.6693 Y2.6171
G01 X28.6888 Y2.6241
G01 X28.7073 Y2.6329
G01 X28.7250 Y2.6434
G01 X28.7415 Y2.6557
G01 X28.7567 Y2.6695
G01 X28.7705 Y2.6847
G01 X28.7828 Y2.7013
G01 X28.7934 Y2.7189
G01 X28.8022 Y2.7375
G01 X28.8091 Y2.7569
G01 X28.8141 Y2.7769
G01 X28.8171 Y2.7972
G01 X28.8181 Y2.8151
G01 X28.8182 Y12.1103
G01 X29.3996 Y12.1103
G01 X29.3996 Y2.8151
G01 X29.4006 Y2.7972
G01 X29.4036 Y2.7769
G01 X29.4086 Y2.7569
G01 X29.4156 Y2.7375
G01 X29.4244 Y2.7189
G01 X29.4349 Y2.7013
G01 X29.4472 Y2.6847
G01 X29.4610 Y2.6695
G01 X29.4762 Y2.6557
G01 X29.4928 Y2.6434
G01 X29.5104 Y2.6329
G01 X29.5290 Y2.6241
G01 X29.5484 Y2.6171
G01 X29.5684 Y2.6121
G01 X29.5887 Y2.6091
G01 X29.6093 Y2.6081
G01 X29.6298 Y2.6091
G01 X29.6501 Y2.6121
G01 X29.6701 Y2.6171
G01 X29.6895 Y2.6241
G01 X29.7081 Y2.6329
G01 X29.7257 Y2.6434
G01 X29.7423 Y2.6557
G01 X29.7575 Y2.6695
G01 X29.7713 Y2.6847
G01 X29.7836 Y2.7013
G01 X29.7942 Y2.7189
G01 X29.8029 Y2.7375
G01 X29.8099 Y2.7569
G01 X29.8149 Y2.7769
G01 X29.8179 Y2.7972
G01 X29.8189 Y2.8151
G01 X29.8189 Y12.1103
G01 X30.3978 Y12.1103
G01 X30.3979 Y2.8151
G01 X30.3988 Y2.7972
G01 X30.4019 Y2.7769
G01 X30.4068 Y2.7569
G01 X30.4138 Y2.7375
G01 X30.4226 Y2.7189
G01 X30.4331 Y2.7013
G01 X30.4454 Y2.6847
G01 X30.4592 Y2.6695
G01 X30.4745 Y2.6557
G01 X30.4910 Y2.6434
G01 X30.5087 Y2.6329
G01 X30.5272 Y2.6241
G01 X30.5466 Y2.6171
G01 X30.5666 Y2.6121
G01 X30.5869 Y2.6091
G01 X30.6075 Y2.6081
G01 X30.6280 Y2.6091
G01 X30.6484 Y2.6121
G01 X30.6683 Y2.6171
G01 X30.6877 Y2.6241
G01 X30.7063 Y2.6329
G01 X30.7239 Y2.6434
G01 X30.7405 Y2.6557
G01 X30.7557 Y2.6695
G01 X30.7695 Y2.6847
G01 X30.7818 Y2.7013
G01 X30.7924 Y2.7189
G01 X30.8012 Y2.7375
G01 X30.8081 Y2.7569
G01 X30.8131 Y2.7769
G01 X30.8161 Y2.7972
G01 X30.8171 Y2.8151
G01 X30.8171 Y12.1103
G01 X31.3986 Y12.1103
G01 X31.3986 Y2.8151
G01 X31.3996 Y2.7972
G01 X31.4026 Y2.7769
G01 X31.4076 Y2.7569
G01 X31.4146 Y2.7375
G01 X31.4233 Y2.7189
G01 X31.4339 Y2.7013
G01 X31.4462 Y2.6847
G01 X31.4600 Y2.6695
G01 X31.4752 Y2.6557
G01 X31.4918 Y2.6434
G01 X31.5094 Y2.6329
G01 X31.5280 Y2.6241
G01 X31.5474 Y2.6171
G01 X31.5674 Y2.6121
G01 X31.5877 Y2.6091
G01 X31.6082 Y2.6081
G01 X31.6288 Y2.6091
G01 X31.6491 Y2.6121
G01 X31.6691 Y2.6171
G01 X31.6885 Y2.6241
G01 X31.7071 Y2.6329
G01 X31.7247 Y2.6434
G01 X31.7413 Y2.6557
G01 X31.7565 Y2.6695
G01 X31.7703 Y2.6847
G01 X31.7826 Y2.7013
G01 X31.7931 Y2.7189
G01 X31.8019 Y2.7375
G01 X31.8089 Y2.7569
G01 X31.8139 Y2.7769
G01 X31.8169 Y2.7972
G01 X31.8179 Y2.8151
G01 X31.8179 Y12.1103
G01 X32.3994 Y12.1103
G01 X32.3994 Y2.8151
G01 X32.4004 Y2.7972
G01 X32.4034 Y2.7769
G01 X32.4084 Y2.7569
G01 X32.4153 Y2.7375
G01 X32.4241 Y2.7189
G01 X32.4347 Y2.7013
G01 X32.4470 Y2.6847
G01 X32.4608 Y2.6695
G01 X32.4760 Y2.6557
G01 X32.4925 Y2.6434
G01 X32.5102 Y2.6329
G01 X32.5287 Y2.6241
G01 X32.5482 Y2.6171
G01 X32.5681 Y2.6121
G01 X32.5885 Y2.6091
G01 X32.6090 Y2.6081
G01 X32.6295 Y2.6091
G01 X32.6499 Y2.6121
G01 X32.6698 Y2.6171
G01 X32.6893 Y2.6241
G01 X32.7078 Y2.6329
G01 X32.7255 Y2.6434
G01 X32.7420 Y2.6557
G01 X32.7572 Y2.6695
G01 X32.7710 Y2.6847
G01 X32.7833 Y2.7013
G01 X32.7939 Y2.7189
G01 X32.8027 Y2.7375
G01 X32.8096 Y2.7569
G01 X32.8146 Y2.7769
G01 X32.8176 Y2.7972
G01 X32.8186 Y2.8151
G01 X32.8187 Y12.1103
G01 X33.3976 Y12.1103
G01 X33.3976 Y2.8151
G01 X33.3986 Y2.7972
G01 X33.4016 Y2.7769
G01 X33.4066 Y2.7569
G01 X33.4135 Y2.7375
G01 X33.4223 Y2.7189
G01 X33.4329 Y2.7013
G01 X33.4452 Y2.6847
G01 X33.4590 Y2.6695
G01 X33.4742 Y2.6557
G01 X33.4908 Y2.6434
G01 X33.5084 Y2.6329
G01 X33.5270 Y2.6241
G01 X33.5464 Y2.6171
G01 X33.5663 Y2.6121
G01 X33.5867 Y2.6091
G01 X33.6072 Y2.6081
G01 X33.6278 Y2.6091
G01 X33.6481 Y2.6121
G01 X33.6681 Y2.6171
G01 X33.6875 Y2.6241
G01 X33.7060 Y2.6329
G01 X33.7237 Y2.6434
G01 X33.7402 Y2.6557
G01 X33.7555 Y2.6695
G01 X33.7693 Y2.6847
G01 X33.7816 Y2.7013
G01 X33.7921 Y2.7189
G01 X33.8009 Y2.7375
G01 X33.8079 Y2.7569
G01 X33.8128 Y2.7769
G01 X33.8159 Y2.7972
G01 X33.8168 Y2.8151
G01 X33.8169 Y12.1103
G01 X34.3983 Y12.1103
G01 X34.3984 Y2.8151
G01 X34.3993 Y2.7972
G01 X34.4024 Y2.7769
G01 X34.4073 Y2.7569
G01 X34.4143 Y2.7375
G01 X34.4231 Y2.7189
G01 X34.4336 Y2.7013
G01 X34.4459 Y2.6847
G01 X34.4597 Y2.6695
G01 X34.4750 Y2.6557
G01 X34.4915 Y2.6434
G01 X34.5092 Y2.6329
G01 X34.5277 Y2.6241
G01 X34.5471 Y2.6171
G01 X34.5671 Y2.6121
G01 X34.5874 Y2.6091
G01 X34.6080 Y2.6081
G01 X34.6285 Y2.6091
G01 X34.6489 Y2.6121
G01 X34.6688 Y2.6171
G01 X34.6882 Y2.6241
G01 X34.7068 Y2.6329
G01 X34.7244 Y2.6434
G01 X34.7410 Y2.6557
G01 X34.7562 Y2.6695
G01 X34.7700 Y2.6847
G01 X34.7823 Y2.7013
G01 X34.7929 Y2.7189
G01 X34.8017 Y2.7375
G01 X34.8086 Y2.7569
G01 X34.8136 Y2.7769
G01 X34.8166 Y2.7972
G01 X34.8176 Y2.8151
G01 X34.8176 Y12.1103
G01 X35.3991 Y12.1103
G01 X35.3991 Y2.8151
G01 X35.4001 Y2.7972
G01 X35.4031 Y2.7769
G01 X35.4081 Y2.7569
G01 X35.4151 Y2.7375
G01 X35.4238 Y2.7189
G01 X35.4344 Y2.7013
G01 X35.4467 Y2.6847
G01 X35.4605 Y2.6695
G01 X35.4757 Y2.6557
G01 X35.4923 Y2.6434
G01 X35.5099 Y2.6329
G01 X35.5285 Y2.6241
G01 X35.5479 Y2.6171
G01 X35.5679 Y2.6121
G01 X35.5882 Y2.6091
G01 X35.6087 Y2.6081
G01 X35.6293 Y2.6091
G01 X35.6496 Y2.6121
G01 X35.6696 Y2.6171
G01 X35.6890 Y2.6241
G01 X35.7076 Y2.6329
G01 X35.7252 Y2.6434
G01 X35.7418 Y2.6557
G01 X35.7570 Y2.6695
G01 X35.7708 Y2.6847
G01 X35.7831 Y2.7013
G01 X35.7936 Y2.7189
G01 X35.8024 Y2.7375
G01 X35.8094 Y2.7569
G01 X35.8144 Y2.7769
G01 X35.8174 Y2.7972
G01 X35.8184 Y2.8151
G01 X35.8184 Y12.1103
G01 X36.3973 Y12.1103
G01 X36.3973 Y2.8151
G01 X36.3983 Y2.7972
G01 X36.4013 Y2.7769
G01 X36.4063 Y2.7569
G01 X36.4133 Y2.7375
G01 X36.4221 Y2.7189
G01 X36.4326 Y2.7013
G01 X36.4449 Y2.6847
G01 X36.4587 Y2.6695
G01 X36.4739 Y2.6557
G01 X36.4905 Y2.6434
G01 X36.5081 Y2.6329
G01 X36.5267 Y2.6241
G01 X36.5461 Y2.6171
G01 X36.5661 Y2.6121
G01 X36.5864 Y2.6091
G01 X36.6070 Y2.6081
G01 X36.6275 Y2.6091
G01 X36.6478 Y2.6121
G01 X36.6678 Y2.6171
G01 X36.6872 Y2.6241
G01 X36.7058 Y2.6329
G01 X36.7234 Y2.6434
G01 X36.7400 Y2.6557
G01 X36.7552 Y2.6695
G01 X36.7690 Y2.6847
G01 X36.7813 Y2.7013
G01 X36.7919 Y2.7189
G01 X36.8006 Y2.7375
G01 X36.8076 Y2.7569
G01 X36.8126 Y2.7769
G01 X36.8156 Y2.7972
G01 X36.8166 Y2.8151
G01 X36.8166 Y12.1103
G01 X37.3981 Y12.1103
G01 X37.3981 Y2.8151
G01 X37.3991 Y2.7972
G01 X37.4021 Y2.7769
G01 X37.4071 Y2.7569
G01 X37.4140 Y2.7375
G01 X37.4228 Y2.7189
G01 X37.4334 Y2.7013
G01 X37.4457 Y2.6847
G01 X37.4595 Y2.6695
G01 X37.4747 Y2.6557
G01 X37.4913 Y2.6434
G01 X37.5089 Y2.6329
G01 X37.5275 Y2.6241
G01 X37.5469 Y2.6171
G01 X37.5668 Y2.6121
G01 X37.5872 Y2.6091
G01 X37.6077 Y2.6081
G01 X37.6283 Y2.6091
G01 X37.6486 Y2.6121
G01 X37.6686 Y2.6171
G01 X37.6880 Y2.6241
G01 X37.7065 Y2.6329
G01 X37.7242 Y2.6434
G01 X37.7407 Y2.6557
G01 X37.7560 Y2.6695
G01 X37.7698 Y2.6847
G01 X37.7821 Y2.7013
G01 X37.7926 Y2.7189
G01 X37.8014 Y2.7375
G01 X37.8084 Y2.7569
G01 X37.8133 Y2.7769
G01 X37.8164 Y2.7972
G01 X37.8173 Y2.8151
G01 X37.8174 Y12.1103
G01 X38.3988 Y12.1103
G01 X38.3989 Y2.8151
G01 X38.3998 Y2.7972
G01 X38.4029 Y2.7769
G01 X38.4078 Y2.7569
G01 X38.4148 Y2.7375
G01 X38.4236 Y2.7189
G01 X38.4341 Y2.7013
G01 X38.4464 Y2.6847
G01 X38.4602 Y2.6695
G01 X38.4755 Y2.6557
G01 X38.4920 Y2.6434
G01 X38.5097 Y2.6329
G01 X38.5282 Y2.6241
G01 X38.5476 Y2.6171
G01 X38.5676 Y2.6121
G01 X38.5879 Y2.6091
G01 X38.6085 Y2.6081
G01 X38.6290 Y2.6091
G01 X38.6494 Y2.6121
G01 X38.6693 Y2.6171
G01 X38.6887 Y2.6241
G01 X38.7073 Y2.6329
G01 X38.7249 Y2.6434
G01 X38.7415 Y2.6557
G01 X38.7567 Y2.6695
G01 X38.7705 Y2.6847
G01 X38.7828 Y2.7013
G01 X38.7934 Y2.7189
G01 X38.8022 Y2.7375
G01 X38.8091 Y2.7569
G01 X38.8141 Y2.7769
G01 X38.8171 Y2.7972
G01 X38.8181 Y2.8151
G01 X38.8181 Y12.1103
G01 X39.3996 Y12.1103
G01 X39.3996 Y2.8151
G01 X39.4006 Y2.7972
G01 X39.4036 Y2.7769
G01 X39.4086 Y2.7569
G01 X39.4156 Y2.7375
G01 X39.4243 Y2.7189
G01 X39.4349 Y2.7013
G01 X39.4472 Y2.6847
G01 X39.4610 Y2.6695
G01 X39.4762 Y2.6557
G01 X39.4928 Y2.6434
G01 X39.5104 Y2.6329
G01 X39.5290 Y2.6241
G01 X39.5484 Y2.6171
G01 X39.5684 Y2.6121
G01 X39.5887 Y2.6091
G01 X39.6092 Y2.6081
G01 X39.6298 Y2.6091
G01 X39.6501 Y2.6121
G01 X39.6701 Y2.6171
G01 X39.6895 Y2.6241
G01 X39.7081 Y2.6329
G01 X39.7257 Y2.6434
G01 X39.7423 Y2.6557
G01 X39.7575 Y2.6695
G01 X39.7713 Y2.6847
G01 X39.7836 Y2.7013
G01 X39.7941 Y2.7189
G01 X39.8029 Y2.7375
G01 X39.8099 Y2.7569
G01 X39.8149 Y2.7769
G01 X39.8179 Y2.7972
G01 X39.8189 Y2.8151
G01 X39.8189 Y12.1103
G01 X40.3978 Y12.1103
G01 X40.3978 Y2.8151
G01 X40.3988 Y2.7972
G01 X40.4018 Y2.7769
G01 X40.4068 Y2.7569
G01 X40.4138 Y2.7375
G01 X40.4226 Y2.7189
G01 X40.4331 Y2.7013
G01 X40.4454 Y2.6847
G01 X40.4592 Y2.6695
G01 X40.4744 Y2.6557
G01 X40.4910 Y2.6434
G01 X40.5086 Y2.6329
G01 X40.5272 Y2.6241
G01 X40.5466 Y2.6171
G01 X40.5666 Y2.6121
G01 X40.5869 Y2.6091
G01 X40.6075 Y2.6081
G01 X40.6280 Y2.6091
G01 X40.6483 Y2.6121
G01 X40.6683 Y2.6171
G01 X40.6877 Y2.6241
G01 X40.7063 Y2.6329
G01 X40.7239 Y2.6434
G01 X40.7405 Y2.6557
G01 X40.7557 Y2.6695
G01 X40.7695 Y2.6847
G01 X40.7818 Y2.7013
G01 X40.7924 Y2.7189
G01 X40.8011 Y2.7375
G01 X40.8081 Y2.7569
G01 X40.8131 Y2.7769
G01 X40.8161 Y2.7972
G01 X40.8171 Y2.8151
G01 X40.8171 Y12.1103
G01 X41.3986 Y12.1103
G01 X41.3986 Y2.8151
G01 X41.3996 Y2.7972
G01 X41.4026 Y2.7769
G01 X41.4076 Y2.7569
G01 X41.4145 Y2.7375
G01 X41.4233 Y2.7189
G01 X41.4339 Y2.7013
G01 X41.4462 Y2.6847
G01 X41.4600 Y2.6695
G01 X41.4752 Y2.6557
G01 X41.4918 Y2.6434
G01 X41.5094 Y2.6329
G01 X41.5280 Y2.6241
G01 X41.5474 Y2.6171
G01 X41.5673 Y2.6121
G01 X41.5877 Y2.6091
G01 X41.6082 Y2.6081
G01 X41.6288 Y2.6091
G01 X41.6491 Y2.6121
G01 X41.6691 Y2.6171
G01 X41.6885 Y2.6241
G01 X41.7070 Y2.6329
G01 X41.7247 Y2.6434
G01 X41.7412 Y2.6557
G01 X41.7565 Y2.6695
G01 X41.7703 Y2.6847
G01 X41.7826 Y2.7013
G01 X41.7931 Y2.7189
G01 X41.8019 Y2.7375
G01 X41.8089 Y2.7569
G01 X41.8138 Y2.7769
G01 X41.8169 Y2.7972
G01 X41.8178 Y2.8151
G01 X41.8179 Y12.1103
G01 X42.3993 Y12.1103
G01 X42.3994 Y2.8151
G01 X42.4003 Y2.7972
G01 X42.4034 Y2.7769
G01 X42.4083 Y2.7569
G01 X42.4153 Y2.7375
G01 X42.4241 Y2.7189
G01 X42.4346 Y2.7013
G01 X42.4469 Y2.6847
G01 X42.4607 Y2.6695
G01 X42.4760 Y2.6557
G01 X42.4925 Y2.6434
G01 X42.5102 Y2.6329
G01 X42.5287 Y2.6241
G01 X42.5481 Y2.6171
G01 X42.5681 Y2.6121
G01 X42.5884 Y2.6091
G01 X42.6090 Y2.6081
G01 X42.6295 Y2.6091
G01 X42.6499 Y2.6121
G01 X42.6698 Y2.6171
G01 X42.6892 Y2.6241
G01 X42.7078 Y2.6329
G01 X42.7254 Y2.6434
G01 X42.7420 Y2.6557
G01 X42.7572 Y2.6695
G01 X42.7710 Y2.6847
G01 X42.7833 Y2.7013
G01 X42.7939 Y2.7189
G01 X42.8027 Y2.7375
G01 X42.8096 Y2.7569
G01 X42.8146 Y2.7769
G01 X42.8176 Y2.7972
G01 X42.8186 Y2.8151
G01 X42.8186 Y12.1103
G01 X43.3976 Y12.1103
G01 X43.3976 Y2.8151
G01 X43.3986 Y2.7972
G01 X43.4016 Y2.7769
G01 X43.4066 Y2.7569
G01 X43.4135 Y2.7375
G01 X43.4223 Y2.7189
G01 X43.4329 Y2.7013
G01 X43.4452 Y2.6847
G01 X43.4590 Y2.6695
G01 X43.4742 Y2.6557
G01 X43.4907 Y2.6434
G01 X43.5084 Y2.6329
G01 X43.5269 Y2.6241
G01 X43.5464 Y2.6171
G01 X43.5663 Y2.6121
G01 X43.5867 Y2.6091
G01 X43.6072 Y2.6081
G01 X43.6277 Y2.6091
G01 X43.6481 Y2.6121
G01 X43.6680 Y2.6171
G01 X43.6875 Y2.6241
G01 X43.7060 Y2.6329
G01 X43.7237 Y2.6434
G01 X43.7402 Y2.6557
G01 X43.7554 Y2.6695
G01 X43.7692 Y2.6847
G01 X43.7815 Y2.7013
G01 X43.7921 Y2.7189
G01 X43.8009 Y2.7375
G01 X43.8078 Y2.7569
G01 X43.8128 Y2.7769
G01 X43.8158 Y2.7972
G01 X43.8168 Y2.8151
G01 X43.8169 Y12.1103
G01 X44.3983 Y12.1103
G01 X44.3983 Y2.8151
G01 X44.3993 Y2.7972
G01 X44.4023 Y2.7769
G01 X44.4073 Y2.7569
G01 X44.4143 Y2.7375
G01 X44.4231 Y2.7189
G01 X44.4336 Y2.7013
G01 X44.4459 Y2.6847
G01 X44.4597 Y2.6695
G01 X44.4749 Y2.6557
G01 X44.4915 Y2.6434
G01 X44.5091 Y2.6329
G01 X44.5277 Y2.6241
G01 X44.5471 Y2.6171
G01 X44.5671 Y2.6121
G01 X44.5874 Y2.6091
G01 X44.6080 Y2.6081
G01 X44.6285 Y2.6091
G01 X44.6488 Y2.6121
G01 X44.6688 Y2.6171
G01 X44.6882 Y2.6241
G01 X44.7068 Y2.6329
G01 X44.7244 Y2.6434
G01 X44.7410 Y2.6557
G01 X44.7562 Y2.6695
G01 X44.7700 Y2.6847
G01 X44.7823 Y2.7013
G01 X44.7929 Y2.7189
G01 X44.8016 Y2.7375
G01 X44.8086 Y2.7569
G01 X44.8136 Y2.7769
G01 X44.8166 Y2.7972
G01 X44.8176 Y2.8151
G01 X44.8176 Y12.1103
G01 X45.3991 Y12.1103
G01 X45.3991 Y2.8151
G01 X45.4001 Y2.7972
G01 X45.4031 Y2.7769
G01 X45.4081 Y2.7569
G01 X45.4150 Y2.7375
G01 X45.4238 Y2.7189
G01 X45.4344 Y2.7013
G01 X45.4467 Y2.6847
G01 X45.4605 Y2.6695
G01 X45.4757 Y2.6557
G01 X45.4923 Y2.6434
G01 X45.5099 Y2.6329
G01 X45.5285 Y2.6241
G01 X45.5479 Y2.6171
G01 X45.5678 Y2.6121
G01 X45.5882 Y2.6091
G01 X45.6087 Y2.6081
G01 X45.6293 Y2.6091
G01 X45.6496 Y2.6121
G01 X45.6696 Y2.6171
G01 X45.6890 Y2.6241
G01 X45.7075 Y2.6329
G01 X45.7252 Y2.6434
G01 X45.7417 Y2.6557
G01 X45.7570 Y2.6695
G01 X45.7708 Y2.6847
G01 X45.7831 Y2.7013
G01 X45.7936 Y2.7189
G01 X45.8024 Y2.7375
G01 X45.8094 Y2.7569
G01 X45.8143 Y2.7769
G01 X45.8174 Y2.7972
G01 X45.8183 Y2.8151
G01 X45.8184 Y12.1103
G01 X46.3973 Y12.1103
G01 X46.3973 Y2.8151
G01 X46.3983 Y2.7972
G01 X46.4013 Y2.7769
G01 X46.4063 Y2.7569
G01 X46.4133 Y2.7375
G01 X46.4220 Y2.7189
G01 X46.4326 Y2.7013
G01 X46.4449 Y2.6847
G01 X46.4587 Y2.6695
G01 X46.4739 Y2.6557
G01 X46.4905 Y2.6434
G01 X46.5081 Y2.6329
G01 X46.5267 Y2.6241
G01 X46.5461 Y2.6171
G01 X46.5661 Y2.6121
G01 X46.5864 Y2.6091
G01 X46.6069 Y2.6081
G01 X46.6275 Y2.6091
G01 X46.6478 Y2.6121
G01 X46.6678 Y2.6171
G01 X46.6872 Y2.6241
G01 X46.7058 Y2.6329
G01 X46.7234 Y2.6434
G01 X46.7400 Y2.6557
G01 X46.7552 Y2.6695
G01 X46.7690 Y2.6847
G01 X46.7813 Y2.7013
G01 X46.7918 Y2.7189
G01 X46.8006 Y2.7375
G01 X46.8076 Y2.7569
G01 X46.8126 Y2.7769
G01 X46.8156 Y2.7972
G01 X46.8166 Y2.8151
G01 X46.8166 Y12.1103
G01 X47.3981 Y12.1103
G01 X47.3981 Y2.8151
G01 X47.3991 Y2.7972
G01 X47.4021 Y2.7769
G01 X47.4071 Y2.7569
G01 X47.4140 Y2.7375
G01 X47.4228 Y2.7189
G01 X47.4334 Y2.7013
G01 X47.4457 Y2.6847
G01 X47.4595 Y2.6695
G01 X47.4747 Y2.6557
G01 X47.4912 Y2.6434
G01 X47.5089 Y2.6329
G01 X47.5274 Y2.6241
G01 X47.5469 Y2.6171
G01 X47.5668 Y2.6121
G01 X47.5872 Y2.6091
G01 X47.6077 Y2.6081
G01 X47.6282 Y2.6091
G01 X47.6486 Y2.6121
G01 X47.6685 Y2.6171
G01 X47.6880 Y2.6241
G01 X47.7065 Y2.6329
G01 X47.7242 Y2.6434
G01 X47.7407 Y2.6557
G01 X47.7559 Y2.6695
G01 X47.7697 Y2.6847
G01 X47.7820 Y2.7013
G01 X47.7926 Y2.7189
G01 X47.8014 Y2.7375
G01 X47.8083 Y2.7569
G01 X47.8133 Y2.7769
G01 X47.8163 Y2.7972
G01 X47.8173 Y2.8151
G01 X47.8174 Y12.1103
G01 X48.3988 Y12.1103
G01 X48.3988 Y2.8151
G01 X48.3998 Y2.7972
G01 X48.4028 Y2.7769
G01 X48.4078 Y2.7569
G01 X48.4148 Y2.7375
G01 X48.4236 Y2.7189
G01 X48.4341 Y2.7013
G01 X48.4464 Y2.6847
G01 X48.4602 Y2.6695
G01 X48.4754 Y2.6557
G01 X48.4920 Y2.6434
G01 X48.5096 Y2.6329
G01 X48.5282 Y2.6241
G01 X48.5476 Y2.6171
G01 X48.5676 Y2.6121
G01 X48.5879 Y2.6091
G01 X48.6085 Y2.6081
G01 X48.6290 Y2.6091
G01 X48.6493 Y2.6121
G01 X48.6693 Y2.6171
G01 X48.6887 Y2.6241
G01 X48.7073 Y2.6329
G01 X48.7249 Y2.6434
G01 X48.7415 Y2.6557
G01 X48.7567 Y2.6695
G01 X48.7705 Y2.6847
G01 X48.7828 Y2.7013
G01 X48.7934 Y2.7189
G01 X48.8021 Y2.7375
G01 X48.8091 Y2.7569
G01 X48.8141 Y2.7769
G01 X48.8171 Y2.7972
G01 X48.8181 Y2.8151
G01 X48.8181 Y12.1103
G01 X49.3996 Y12.1103
G01 X49.3996 Y2.8151
G01 X49.4006 Y2.7972
G01 X49.4036 Y2.7769
G01 X49.4086 Y2.7569
G01 X49.4155 Y2.7375
G01 X49.4243 Y2.7189
G01 X49.4349 Y2.7013
G01 X49.4472 Y2.6847
G01 X49.4610 Y2.6695
G01 X49.4762 Y2.6557
G01 X49.4928 Y2.6434
G01 X49.5104 Y2.6329
G01 X49.5290 Y2.6241
G01 X49.5484 Y2.6171
G01 X49.5683 Y2.6121
G01 X49.5887 Y2.6091
G01 X49.6092 Y2.6081
G01 X49.6298 Y2.6091
G01 X49.6501 Y2.6121
G01 X49.6701 Y2.6171
G01 X49.6895 Y2.6241
G01 X49.7080 Y2.6329
G01 X49.7257 Y2.6434
G01 X49.7422 Y2.6557
G01 X49.7575 Y2.6695
G01 X49.7713 Y2.6847
G01 X49.7836 Y2.7013
G01 X49.7941 Y2.7189
G01 X49.8029 Y2.7375
G01 X49.8099 Y2.7569
G01 X49.8148 Y2.7769
G01 X49.8179 Y2.7972
G01 X49.8188 Y2.8151
G01 X49.8189 Y12.1103
G01 X50.3978 Y12.1103
G01 X50.3978 Y2.8151
G01 X50.3988 Y2.7972
G01 X50.4018 Y2.7769
G01 X50.4068 Y2.7569
G01 X50.4138 Y2.7375
G01 X50.4225 Y2.7189
G01 X50.4331 Y2.7013
G01 X50.4454 Y2.6847
G01 X50.4592 Y2.6695
G01 X50.4744 Y2.6557
G01 X50.4910 Y2.6434
G01 X50.5086 Y2.6329
G01 X50.5272 Y2.6241
G01 X50.5466 Y2.6171
G01 X50.5666 Y2.6121
G01 X50.5869 Y2.6091
G01 X50.6074 Y2.6081
G01 X50.6280 Y2.6091
G01 X50.6483 Y2.6121
G01 X50.6683 Y2.6171
G01 X50.6877 Y2.6241
G01 X50.7063 Y2.6329
G01 X50.7239 Y2.6434
G01 X50.7405 Y2.6557
G01 X50.7557 Y2.6695
G01 X50.7695 Y2.6847
G01 X50.7818 Y2.7013
G01 X50.7923 Y2.7189
G01 X50.8011 Y2.7375
G01 X50.8081 Y2.7569
G01 X50.8131 Y2.7769
G01 X50.8161 Y2.7972
G01 X50.8171 Y2.8151
G01 X50.8171 Y12.1103
G01 X51.3986 Y12.1103
G01 X51.3986 Y2.8151
G01 X51.3996 Y2.7972
G01 X51.4026 Y2.7769
G01 X51.4076 Y2.7569
G01 X51.4145 Y2.7375
G01 X51.4233 Y2.7189
G01 X51.4339 Y2.7013
G01 X51.4462 Y2.6847
G01 X51.4600 Y2.6695
G01 X51.4752 Y2.6557
G01 X51.4917 Y2.6434
G01 X51.5094 Y2.6329
G01 X51.5279 Y2.6241
G01 X51.5474 Y2.6171
G01 X51.5673 Y2.6121
G01 X51.5877 Y2.6091
G01 X51.6082 Y2.6081
G01 X51.6287 Y2.6091
G01 X51.6491 Y2.6121
G01 X51.6690 Y2.6171
G01 X51.6885 Y2.6241
G01 X51.7070 Y2.6329
G01 X51.7247 Y2.6434
G01 X51.7412 Y2.6557
G01 X51.7564 Y2.6695
G01 X51.7702 Y2.6847
G01 X51.7825 Y2.7013
G01 X51.7931 Y2.7189
G01 X51.8019 Y2.7375
G01 X51.8088 Y2.7569
G01 X51.8138 Y2.7769
G01 X51.8168 Y2.7972
G01 X51.8178 Y2.8151
G01 X51.8179 Y12.1103
G01 X52.3993 Y12.1103
G01 X52.3993 Y2.8151
G01 X52.4003 Y2.7972
G01 X52.4033 Y2.7769
G01 X52.4083 Y2.7569
G01 X52.4153 Y2.7375
G01 X52.4241 Y2.7189
G01 X52.4346 Y2.7013
G01 X52.4469 Y2.6847
G01 X52.4607 Y2.6695
G01 X52.4759 Y2.6557
G01 X52.4925 Y2.6434
G01 X52.5101 Y2.6329
G01 X52.5287 Y2.6241
G01 X52.5481 Y2.6171
G01 X52.5681 Y2.6121
G01 X52.5884 Y2.6091
G01 X52.6090 Y2.6081
G01 X52.6295 Y2.6091
G01 X52.6498 Y2.6121
G01 X52.6698 Y2.6171
G01 X52.6892 Y2.6241
G01 X52.7078 Y2.6329
G01 X52.7254 Y2.6434
G01 X52.7420 Y2.6557
G01 X52.7572 Y2.6695
G01 X52.7710 Y2.6847
G01 X52.7833 Y2.7013
G01 X52.7939 Y2.7189
G01 X52.8026 Y2.7375
G01 X52.8096 Y2.7569
G01 X52.8146 Y2.7769
G01 X52.8176 Y2.7972
G01 X52.8186 Y2.8151
G01 X52.8186 Y12.1103
G01 X53.3975 Y12.1103
G01 X53.3976 Y2.8151
G01 X53.3985 Y2.7972
G01 X53.4016 Y2.7769
G01 X53.4065 Y2.7569
G01 X53.4135 Y2.7375
G01 X53.4223 Y2.7189
G01 X53.4328 Y2.7013
G01 X53.4451 Y2.6847
G01 X53.4589 Y2.6695
G01 X53.4742 Y2.6557
G01 X53.4907 Y2.6434
G01 X53.5084 Y2.6329
G01 X53.5269 Y2.6241
G01 X53.5463 Y2.6171
G01 X53.5663 Y2.6121
G01 X53.5866 Y2.6091
G01 X53.6072 Y2.6081
G01 X53.6277 Y2.6091
G01 X53.6481 Y2.6121
G01 X53.6680 Y2.6171
G01 X53.6874 Y2.6241
G01 X53.7060 Y2.6329
G01 X53.7236 Y2.6434
G01 X53.7402 Y2.6557
G01 X53.7554 Y2.6695
G01 X53.7692 Y2.6847
G01 X53.7815 Y2.7013
G01 X53.7921 Y2.7189
G01 X53.8009 Y2.7375
G01 X53.8078 Y2.7569
G01 X53.8128 Y2.7769
G01 X53.8158 Y2.7972
G01 X53.8168 Y2.8151
G01 X53.8168 Y12.1103
G01 X54.3983 Y12.1103
G01 X54.3983 Y2.8151
G01 X54.3993 Y2.7972
G01 X54.4023 Y2.7769
G01 X54.4073 Y2.7569
G01 X54.4143 Y2.7375
G01 X54.4230 Y2.7189
G01 X54.4336 Y2.7013
G01 X54.4459 Y2.6847
G01 X54.4597 Y2.6695
G01 X54.4749 Y2.6557
G01 X54.4915 Y2.6434
G01 X54.5091 Y2.6329
G01 X54.5277 Y2.6241
G01 X54.5471 Y2.6171
G01 X54.5671 Y2.6121
G01 X54.5874 Y2.6091
G01 X54.6079 Y2.6081
G01 X54.6285 Y2.6091
G01 X54.6488 Y2.6121
G01 X54.6688 Y2.6171
G01 X54.6882 Y2.6241
G01 X54.7068 Y2.6329
G01 X54.7244 Y2.6434
G01 X54.7410 Y2.6557
G01 X54.7562 Y2.6695
G01 X54.7700 Y2.6847
G01 X54.7823 Y2.7013
G01 X54.7928 Y2.7189
G01 X54.8016 Y2.7375
G01 X54.8086 Y2.7569
G01 X54.8136 Y2.7769
G01 X54.8166 Y2.7972
G01 X54.8176 Y2.8151
G01 X54.8176 Y12.1103
G01 X55.3991 Y12.1103
G01 X55.3991 Y2.8151
G01 X55.4001 Y2.7972
G01 X55.4031 Y2.7769
G01 X55.4081 Y2.7569
G01 X55.4150 Y2.7375
G01 X55.4238 Y2.7189
G01 X55.4344 Y2.7013
G01 X55.4467 Y2.6847
G01 X55.4605 Y2.6695
G01 X55.4757 Y2.6557
G01 X55.4922 Y2.6434
G01 X55.5099 Y2.6329
G01 X55.5284 Y2.6241
G01 X55.5479 Y2.6171
G01 X55.5678 Y2.6121
G01 X55.5882 Y2.6091
G01 X55.6087 Y2.6081
G01 X55.6292 Y2.6091
G01 X55.6496 Y2.6121
G01 X55.6695 Y2.6171
G01 X55.6890 Y2.6241
G01 X55.7075 Y2.6329
G01 X55.7252 Y2.6434
G01 X55.7417 Y2.6557
G01 X55.7569 Y2.6695
G01 X55.7707 Y2.6847
G01 X55.7830 Y2.7013
G01 X55.7936 Y2.7189
G01 X55.8024 Y2.7375
G01 X55.8093 Y2.7569
G01 X55.8143 Y2.7769
G01 X55.8173 Y2.7972
G01 X55.8183 Y2.8151
G01 X55.8184 Y12.1103
G01 X56.3973 Y12.1103
G01 X56.3973 Y2.8151
G01 X56.3983 Y2.7972
G01 X56.4013 Y2.7769
G01 X56.4063 Y2.7569
G01 X56.4132 Y2.7375
G01 X56.4220 Y2.7189
G01 X56.4326 Y2.7013
G01 X56.4449 Y2.6847
G01 X56.4587 Y2.6695
G01 X56.4739 Y2.6557
G01 X56.4905 Y2.6434
G01 X56.5081 Y2.6329
G01 X56.5267 Y2.6241
G01 X56.5461 Y2.6171
G01 X56.5660 Y2.6121
G01 X56.5864 Y2.6091
G01 X56.6069 Y2.6081
G01 X56.6275 Y2.6091
G01 X56.6478 Y2.6121
G01 X56.6678 Y2.6171
G01 X56.6872 Y2.6241
G01 X56.7057 Y2.6329
G01 X56.7234 Y2.6434
G01 X56.7399 Y2.6557
G01 X56.7552 Y2.6695
G01 X56.7690 Y2.6847
G01 X56.7813 Y2.7013
G01 X56.7918 Y2.7189
G01 X56.8006 Y2.7375
G01 X56.8076 Y2.7569
G01 X56.8125 Y2.7769
G01 X56.8156 Y2.7972
G01 X56.8165 Y2.8151
G01 X56.8166 Y12.1103
G01 X57.3980 Y12.1103
G01 X57.3981 Y2.8151
G01 X57.3990 Y2.7972
G01 X57.4021 Y2.7769
G01 X57.4070 Y2.7569
G01 X57.4140 Y2.7375
G01 X57.4228 Y2.7189
G01 X57.4333 Y2.7013
G01 X57.4456 Y2.6847
G01 X57.4594 Y2.6695
G01 X57.4747 Y2.6557
G01 X57.4912 Y2.6434
G01 X57.5089 Y2.6329
G01 X57.5274 Y2.6241
G01 X57.5468 Y2.6171
G01 X57.5668 Y2.6121
G01 X57.5871 Y2.6091
G01 X57.6077 Y2.6081
G01 X57.6282 Y2.6091
G01 X57.6486 Y2.6121
G01 X57.6685 Y2.6171
G01 X57.6879 Y2.6241
G01 X57.7065 Y2.6329
G01 X57.7241 Y2.6434
G01 X57.7407 Y2.6557
G01 X57.7559 Y2.6695
G01 X57.7697 Y2.6847
G01 X57.7820 Y2.7013
G01 X57.7926 Y2.7189
G01 X57.8014 Y2.7375
G01 X57.8083 Y2.7569
G01 X57.8133 Y2.7769
G01 X57.8163 Y2.7972
G01 X57.8173 Y2.8151
G01 X57.8173 Y12.1103
G01 X58.3988 Y12.1103
G01 X58.3988 Y2.8151
G01 X58.3998 Y2.7972
G01 X58.4028 Y2.7769
G01 X58.4078 Y2.7569
G01 X58.4148 Y2.7375
G01 X58.4235 Y2.7189
G01 X58.4341 Y2.7013
G01 X58.4464 Y2.6847
G01 X58.4602 Y2.6695
G01 X58.4754 Y2.6557
G01 X58.4920 Y2.6434
G01 X58.5096 Y2.6329
G01 X58.5282 Y2.6241
G01 X58.5476 Y2.6171
G01 X58.5676 Y2.6121
G01 X58.5879 Y2.6091
G01 X58.6084 Y2.6081
G01 X58.6290 Y2.6091
G01 X58.6493 Y2.6121
G01 X58.6693 Y2.6171
G01 X58.6887 Y2.6241
G01 X58.7073 Y2.6329
G01 X58.7249 Y2.6434
G01 X58.7415 Y2.6557
G01 X58.7567 Y2.6695
G01 X58.7705 Y2.6847
G01 X58.7828 Y2.7013
G01 X58.7933 Y2.7189
G01 X58.8021 Y2.7375
G01 X58.8091 Y2.7569
G01 X58.8141 Y2.7769
G01 X58.8171 Y2.7972
G01 X58.8181 Y2.8151
G01 X58.8181 Y12.1103
G01 X59.3996 Y12.1103
G01 X59.3996 Y2.8151
G01 X59.4006 Y2.7972
G01 X59.4036 Y2.7769
G01 X59.4086 Y2.7569
G01 X59.4155 Y2.7375
G01 X59.4243 Y2.7189
G01 X59.4349 Y2.7013
G01 X59.4472 Y2.6847
G01 X59.4610 Y2.6695
G01 X59.4762 Y2.6557
G01 X59.4927 Y2.6434
G01 X59.5104 Y2.6329
G01 X59.5289 Y2.6241
G01 X59.5484 Y2.6171
G01 X59.5683 Y2.6121
G01 X59.5887 Y2.6091
G01 X59.6092 Y2.6081
G01 X59.6297 Y2.6091
G01 X59.6501 Y2.6121
G01 X59.6700 Y2.6171
G01 X59.6895 Y2.6241
G01 X59.7080 Y2.6329
G01 X59.7257 Y2.6434
G01 X59.7422 Y2.6557
G01 X59.7574 Y2.6695
G01 X59.7712 Y2.6847
G01 X59.7835 Y2.7013
G01 X59.7941 Y2.7189
G01 X59.8029 Y2.7375
G01 X59.8098 Y2.7569
G01 X59.8148 Y2.7769
G01 X59.8178 Y2.7972
G01 X59.8188 Y2.8151
G01 X59.8189 Y12.1103
G01 X60.1412 Y12.1103
G01 X60.1412 Y1.2176
G01 X60.1420 Y1.2043
G01 X60.1445 Y1.1913
G01 X60.1485 Y1.1787
G01 X60.1540 Y1.1666
G01 X60.1609 Y1.1553
G01 X60.1658 Y1.1490
G01 X60.1710 Y1.1431
G01 X60.1807 Y1.1340
G01 X60.1915 Y1.1263
G01 X60.1983 Y1.1223
G01 X60.2055 Y1.1188
G01 X60.2179 Y1.1142
G01 X60.2308 Y1.1111
G01 X60.2387 Y1.1100
G01 X60.2466 Y1.1095
G01 X64.2472 Y1.1095
G01 X64.2578 Y1.1100
G01 X64.2683 Y1.1116
G01 X64.2811 Y1.1150
G01 X64.2886 Y1.1177
G01 X64.2958 Y1.1210
G01 X64.3028 Y1.1249
G01 X64.3095 Y1.1292
G01 X64.3158 Y1.1340
G01 X64.3217 Y1.1393
G01 X65.3244 Y2.1419
G01 X65.3298 Y2.1477
G01 X65.3363 Y2.1561
G01 X65.3407 Y2.1628
G01 X65.3445 Y2.1697
G01 X65.3478 Y2.1770
G01 X65.3506 Y2.1844
G01 X65.3528 Y2.1921
G01 X65.3545 Y2.1998
G01 X65.3558 Y2.2104
G01 X65.3560 Y2.2183
G01 X65.3560 Y12.2183
G01 X65.3555 Y12.2289
G01 X65.3540 Y12.2394
G01 X65.3521 Y12.2471
G01 X65.3488 Y12.2572
G01 X65.3457 Y12.2645
G01 X65.3420 Y12.2716
G01 X65.3363 Y12.2805
G01 X65.3298 Y12.2889
G01 X65.3244 Y12.2947
G01 X64.3217 Y13.2973
G01 X64.3158 Y13.3026
G01 X64.3095 Y13.3074
G01 X64.3028 Y13.3117
G01 X64.2958 Y13.3156
G01 X64.2886 Y13.3189
G01 X64.2811 Y13.3217
G01 X64.2735 Y13.3239
G01 X64.2657 Y13.3255
G01 X64.2578 Y13.3266
G01 X64.2472 Y13.3271
G01 X7.2444 Y13.3271
G01 X7.2339 Y13.3263
G01 X7.2260 Y13.3250
G01 X7.2157 Y13.3225
G01 X7.2058 Y13.3189
G01 X7.1962 Y13.3144
G01 X7.1871 Y13.3089
G01 X7.1786 Y13.3026
G01 X7.1726 Y13.2973
G01 X7.1653 Y13.2896
G01 X7.1603 Y13.2834
G01 X7.1544 Y13.2746
G01 X7.1506 Y13.2676
G01 X7.1463 Y13.2579
G01 X7.1430 Y13.2479
G01 X7.1406 Y13.2375
G01 X7.1396 Y13.2297
G01 X7.1391 Y13.2191
G01 X7.1391 Y12.2183
G01 X7.1396 Y12.2077
G01 X7.1411 Y12.1972
G01 X7.1437 Y12.1869
G01 X7.1473 Y12.1770
G01 X7.1518 Y12.1674
G01 X7.1573 Y12.1583
G01 X7.1636 Y12.1498
G01 X7.1707 Y12.1419
G01 X7.1786 Y12.1348
G01 X7.1871 Y12.1285
G01 X7.1962 Y12.1230
G01 X7.2058 Y12.1185
G01 X7.2157 Y12.1149
G01 X7.2260 Y12.1123
G01 X7.2365 Y12.1108
G01 X7.2471 Y12.1103
G00 Z2.0000
M05
G00 Z2.0000
G00 Z15.00


